!!!!SEGMENT: pl-wn--rps-13897-iv_sowinski-wojciech--fantaisie-brillante-op-82.krn
!!!cenid: 18xx:3578
!!!COM: Sowiński, Wojciech
!!!COM-rismID: pe30008543
!!!CDT: ~1803-1880/03/05
!!!CNT:
!!!OTL: Fantaisie brillante op. 82
!!!PDT: 1863
!!!AGN:
!!!SMS-siglum: PL-Wn
!!!SMS-shelfmark: Rps 13897 IV
!!!SMS-shelfwork: W
!!!SMS-variant:
!!!SMS-altvar:
!!!NIFC-rismSourceID:
!!!NIFC-rismChildID:
!!!NIFC-islandoraID: none
!!!URL-pdf-islandora:
!!!URL-scan: https://polona2.pl/item/fantaisie-brillante-pour-piano-sur-la-perle-du-bresil-musique-de-f-david-dediee-a,NDQ4MTk5MTE/0 @EN{Scan on Polona} @PL{Skany w portalu Polona}
!!!IIIF: https://polona2.pl/iiif/item/NDQ4MTk5MTE/manifest.json
!!!ONB-nifc:


!!!OMD: Tempo Mesto
!!!AIN: 2 piano
!!!key: g
**kern	**fing	**kern	**fing	**dynam
*staff2	*staff2	*staff1	*staff1	*staff1/2
*>[A,B,B1,B,B2,C]	*>[A,B,B1,B,B2,C]	*>[A,B,B1,B,B2,C]	*>[A,B,B1,B,B2,C]	*>[A,B,B1,B,B2,C]
*>A	*>A	*>A	*>A	*>A
*I"Introduzione	*	*I"Introduzione	*	*
*Ipiano	*	*Ipiano	*	*
*ICklav	*	*ICklav	*	*
*clefF4	*	*clefG2	*	*
*kcancel	*	*kcancel	*	*
*k[b-e-]	*	*k[b-e-]	*	*
*g:	*	*g:	*	*
*M2/4	*	*M2/4	*	*
*all\right	*	*all\right	*	*
=1	=1	=1	=1	=1
*^	*	*	*	*
32qqGGG/LLL	.	.	.	.	.
32qqDD/	.	.	.	.	.
32qqGG/JJJ	.	.	.	.	.
*	*2\right	*	*	*	*
(4G 4D/	2GG\	.	4b-: 4d: 4B-^>:/	.	p
8F#X/L	.	.	(>8aL 8d 8c/	.	.
8G/J)	.	.	8gJ 8d 8B-/)	.	.
=2	=2	=2	=2	=2	=2
*	*	*	*^	*	*
*	*	*	*	*2\right	*	*
8.D/L	2DD\	1	(8.f#X/L	2d 2A\	.	.
16En/K	.	1	16g/K	.	.	.
8F#X/	.	1	8a'/	.	.	.
8F#/J	.	1	8a'/J)	.	.	.
*v	*v	*	*v	*v	*	*
=3	=3	=3	=3	=3
4F#X 4D 4FF#X\	.	4cc 4a 4d^>/	.	.
8GL 8D 8GG\	.	8b-L 8g 8d/	.	.
8AJ 8D 8AA\	.	8aJ 8f#X 8d/	.	.
=4	=4	=4	=4	=4
*	*	*^	*	*
4B- 4BB-\	.	(<8.g/L	2d\	2	.
.	.	16b-/K	.	3	.
8GL 8GG\	.	8dd'</	.	5	.
8FnJ 8FFn\	.	8dd'</J)	.	3	.
*	*	*v	*v	*	*
=5	=5	=5	=5	=5
4E- 4EE-\	.	(4gg 4b- 4g\	.	sfz
8DL 8DD\	.	8ffL 8b- 8a-X\)	.	.
8E-J 8EE-\	.	8ee-J 8b- 8g\	.	.
=6	=6	=6	=6	=6
*	*	*^	*	*
8FL 8FF\	.	(8.dd/L	4a-X\	.	.
8F#X 8FF#X\	.	.	.	.	.
.	.	16cc/K	.	.	.
8G 8GG\	.	8bn/	4g\	.	.
8FnJ 8FFny\	.	8dd/J)	.	.	.
*	*	*v	*v	*	*
=7	=7	=7	=7	=7
(8E-L 8EE-^\	.	(8ccL 8g^\	.	.
8D 8DD^\	.	8ff 8bn 8g^\	.	.
8C 8CC^\	.	8ee- 8cc 8g^\	.	.
8BB-J 8BBB-^\)	.	8ddJ 8g^\)	.	.
=8	=8	=8	=8	=8
*	*	*^	*	*
(>8AAL 8AAA^>/	.	(8.cc/L	4g\	.	.
8GG 8GGG/	.	.	.	.	.
.	.	16b-/Jk	.	.	.
8FF#XJ 8FFF#y/)	.	8cc/L	4a\	.	.
8DD/	.	8dd/J)	.	.	.
=9	=9	=9	=9	=9	=9
(>8GGL 8GGG/	.	(8b-/L	4g\	.	.
!	!	!LO:TX:b:i:t=rall.	!	!	!
8EE-J 8EEE-/)	.	8cc/J)	.	.	.
4DD 4DDD/	.	8.a/L	8.f#X\L	.	.
.	.	16a/Jk	16f#\Jk	.	.
=10	=10	=10	=10	=10	=10
*	*	*ped	*	*	*
[<4DD 4DDD;/	.	2a;/	2f#X\	.	p
!	!	!LO:TX:b:rj:i:t=veloce	!	!	!
(>32qqDD/LLL]	.	.	.	.	<
32qqFF#X/	.	.	.	.	.
32qqAA/	.	.	.	.	.
32qqGG/JJJ	.	.	.	.	.
*	*below	*	*	*	*
32qqFF#/LLL	3	.	.	.	.
32qqAA/	2	.	.	.	.
32qqC/	1	.	.	.	.
32qqBB-/JJJ	3	.	.	.	.
32qqAA/LLL	5	.	.	.	.
32qqC/	3	.	.	.	.
32qqE-/	2	.	.	.	.
32qqD/JJJ	3	.	.	.	.
32qqC/LLL	4	.	.	.	.
32qqF#X/	2	.	.	.	.
32qqA/	1	.	.	.	.
32qqG/JJJ	2	.	.	.	.
32qqF#/LLL	3	.	.	.	.
32qqA/	.	.	.	.	.
32qqc/	.	.	.	.	.
32qqB-/JJJ	.	.	.	.	.
16qqA/LL	3	.	.	.	.
16qqc/)	1	.	.	.	.
16.qqe-^>/	2	.	.	.	[
32qqd/JJk	.	.	.	.	.
!LO:TX:b:i:t=ten.	!	!	!	!	!
4d\	.	.	.	.	.
*	*	*Xped	*	*	*
!!LO:LB:g=original
=11	=11	=11	=11	=11	=11
!	!	!LO:TX:b:i:t=il basso staccato.	!	!	!
16r	.	(4bb-/	2dd 2b-\	.	.
16GG'\LL	.	.	.	.	.
16BB-'\	.	.	.	.	.
16D'\JJ	.	.	.	.	.
16G'\LL	.	8aa/L)	.	.	.
16B-'\	.	.	.	.	.
16d'\	.	8gg/J	.	.	.
16g'\JJ	.	.	.	.	.
=12	=12	=12	=12	=12	=12
16d'\LL	.	8.ff#X/L	2dd\	.	.
16a'\	.	.	.	.	.
16f#X'\	.	.	.	.	.
16e-'\JJ	.	16gg/K	.	.	.
16d'\LL	.	8aa/	.	.	.
16c'\	.	.	.	.	.
16A'\	.	8dd/J	.	.	.
16F#X'\JJ	.	.	.	.	.
=13	=13	=13	=13	=13	=13
16D'\LL	.	4ccc/	2dd\	.	.
16DD'\	.	.	.	.	.
16FF#X'\	.	.	.	.	.
16AA'\JJ	.	.	.	.	.
16D'\LL	.	8bb-/L	.	.	.
16F#y'\	.	.	.	.	.
16A'\	.	8aa/J	.	.	.
16d'\JJ	.	.	.	.	.
=14	=14	=14	=14	=14	=14
16r	.	8.gg/L	2dd\	.	.
16G'\LL	.	.	.	.	.
16g'\	.	.	.	.	.
16d'\JJ	.	16aa/K	.	.	.
16B-'\LL	.	8bb-/	.	.	.
16G'\	.	.	.	.	.
16D'\	.	8gg/J	.	.	.
16BB-'\JJ	.	.	.	.	.
=15	=15	=15	=15	=15	=15
16r	.	4ddd/	2gg 2dd\	.	.
16GG'\LL	.	.	.	.	.
16BBn'\	.	.	.	.	.
16D'\JJ	.	.	.	.	.
16G'\LL	.	8ccc/L	.	.	.
16d'\	.	.	.	.	.
16g'\	.	8bbn/J	.	.	.
16f'\JJ	.	.	.	.	.
=16	=16	=16	=16	=16	=16
16e-'\LL	.	8.ccc/L	4gg\	.	.
16g'\	.	.	.	.	.
16e-'\	.	.	.	.	.
16d'\JJ	.	16ddd/Jk	.	.	.
16c'\LL	.	4eee-/	8gg\L	.	.
16e-'\	.	.	.	.	.
16c'\	.	.	8gg-X\J	.	.
16B-'\JJ	.	.	.	.	.
=17	=17	=17	=17	=17	=17
(16A\LL	.	8eee-/L	4ff\	.	.
16f\	.	.	.	.	.
16B-\	.	[8ddd/	.	.	.
16f\JJ)	.	.	.	.	.
!	!	!LO:TX:b:Bi:t=dim_:problem=dynamics with extension lines	!	!	!LO:HP:t=dim_
(16G\LL	.	8ddd/]	4ee-\	.	>
16e-\	.	.	.	.	.
16A\	.	[8ccc/J	.	.	.
16e-\JJ)	.	.	.	.	.
=18	=18	=18	=18	=18	=18
(16F#X\LL	.	8ccc/L]	8ee-\L	.	.
16d\	.	.	.	.	.
16G\	.	8bb-/	8dd\J	.	.
16d\JJ)	.	.	.	.	.
(16En\LL	.	8aa/	4cc#X\	.	.
16A\	.	.	.	.	.
16eny\	.	8gg/J	.	.	.
16A\JJ)	.	.	.	.	]
*	*	*v	*v	*	*
=19	=19	=19	=19	=19
*^	*	*	*	*
!	!	!	!	!	!LO:DY:a=2
4F#X/	2AA: 2DD:\	.	32r	.	f
.	.	.	(32A/LLL	.	.
.	.	.	32d/	.	p
.	.	.	32f#X/JJJ	.	.
.	.	.	32a/LLL	.	.
.	.	.	32dd/	.	.
.	.	.	32ff#y/	.	.
.	.	.	32aa/JJJ	.	.
8En^/L	.	1	32gg\LLL	.	.
.	.	.	32cc#X\	.	.
.	.	.	32a\	.	.
.	.	.	32aa\JJJ	.	.
8D^/J	.	1	32ff#X\LLL	.	.
.	.	.	32dd\	.	.
.	.	.	32a\	.	.
.	.	.	32aa\JJJ)	.	.
!!LO:LB:g=original
=20	=20	=20	=20	=20	=20
8.C#X/L	2AA 2DD\	.	32rC	.	.
!	!	!	!LO:TX:t=P:problem=mixed beam	!	!
.	.	.	(32A</LLL	1	.
.	.	.	32g\	4	.
.	.	.	32e-\JJJ	2	.
.	.	.	32a\LLL	5	.
.	.	.	32a\	1	.
16D/K	.	.	32gg\	4	.
.	.	.	32ee-\JJJ	2	.
8En/	.	.	32aa\LLL	.	.
.	.	.	32gg\	.	.
.	.	.	32cc#X\	.	.
.	.	.	32a\JJJ	.	.
8E/J	.	.	32a/LLL	.	.
.	.	.	32g/	.	.
.	.	.	32c#y/	.	.
.	.	.	32A</JJJ)	.	.
=21	=21	=21	=21	=21	=21
4G^:/	2AA: 2DD:\	.	32r	.	.
.	.	.	(32A/LLL	.	.
.	.	.	32c#X/	.	.
.	.	.	32en/JJJ	.	.
.	.	.	32a\LLL	5	.
.	.	.	32a\	1	.
.	.	.	32cc#X\	.	.
.	.	.	32een\JJJ	.	.
8F#X/L	.	.	32aa\LLL	.	.
.	.	.	32dd\	.	.
.	.	.	32a\	.	.
.	.	.	32aa\JJJ	.	.
8En/J	.	.	32gg\LLL	.	.
.	.	.	32cc#X\	.	.
.	.	.	32a\	.	.
.	.	.	32aa\JJJ)	.	.
=22	=22	=22	=22	=22	=22
8.D/L	2AA 2DD\	.	32r	.	.
.	.	.	(32A/LLL	.	.
.	.	.	32d/	.	.
.	.	.	32f#X/JJJ	.	.
.	.	.	32a\LLL	5	.
.	.	.	32a\	1	.
16En/K	.	.	32dd\	.	.
.	.	.	32ff#X\JJJ	.	.
8F#X/	.	.	32aa\LLL	.	.
.	.	.	32dd\	.	.
.	.	.	32ff#\	.	.
.	.	.	32a\JJJ	.	.
8F#/J	.	.	32dd\LLL	.	.
.	.	.	32f#\	.	.
.	.	.	32a\	.	.
.	.	.	32d\JJJ)	.	.
=23	=23	=23	=23	=23	=23
4A^:/	2D: 2FF#X:\	.	32r	.	.
.	.	.	(32d\LLL	.	.
.	.	.	32cc\	.	.
.	.	.	32a\JJJ	.	.
.	.	.	32dd\LLL	5	.
.	.	.	32dd\	1	.
.	.	.	32ccc\	.	.
.	.	.	32aa\JJJ	.	.
8G/L	.	.	32ddd\LLL	.	.
.	.	.	32ccc\	.	.
.	.	.	32aa\	.	.
.	.	.	32dd\JJJ	1	.
8F#X/J	.	.	32dd\LLL	5	.
.	.	.	32cc\	.	.
.	.	.	32a\	.	.
.	.	.	32d\JJJ)	.	.
=24	=24	=24	=24	=24	=24
4B-^:/	2D: 2GG:\	.	32r	.	.
.	.	.	(32d\LLL	.	.
.	.	.	32b-\	.	.
.	.	.	32g\JJJ	.	.
.	.	.	32dd\LLL	5	.
.	.	.	32dd\	1	.
.	.	.	32bb-\	.	.
.	.	.	32gg\JJJ	.	.
8A/L	.	.	32ddd\LLL	.	.
.	.	.	32bb-\	.	.
.	.	.	32gg\	.	.
.	.	.	32dd\JJJ	1	.
8G/J	.	.	32dd\LLL	5	.
.	.	.	32b-\	.	.
.	.	.	32g\	.	.
.	.	.	32d\JJJ)	.	.
*v	*v	*	*	*	*
=25	=25	=25	=25	=25
*ped	*	*	*	*
4c 4C\	.	32r	.	f
.	.	32e-\LLL	2	.
!	!	!LO:TX:b:i:t=con anima	!	!
.	.	32g\	1	.
.	.	32cc\JJJ	.	.
.	.	32ee-\LLL	.	.
.	.	32gg\	.	.
.	.	32ccc\	.	.
.	.	32eee-\JJJ	.	.
8cL 8C\	.	32ggg\LLL	.	.
.	.	32eee-\	.	.
.	.	32ccc\	.	.
.	.	32gg\JJJ	.	.
8BnJ 8BBny\	.	32ggg\LLL	.	.
.	.	32fff\	.	.
.	.	32ddd\	.	.
.	.	32gg\JJJ	.	.
!!LO:PB:g=original
=26	=26	=26	=26	=26
!	!	!LO:TX:b:i:t=marcato il tema	!	!
8cL 8C^\	.	32ggg\LLL	.	.
.	.	32eee-\	.	.
.	.	32ccc\	.	.
.	.	32gg\JJJ	.	.
*	*	*rep	*	*
8G 8GG^\	.	32ggg\LLL	.	.
.	.	32eee-\	.	.
.	.	32ccc\	.	.
.	.	32gg\JJJ	.	.
*	*	*Xrep	*	*
*	*	*rep	*	*
8E- 8EE-^\	.	32ggg\LLL	.	.
.	.	32eee-\	.	.
.	.	32ccc\	.	.
.	.	32gg\JJJ	.	.
*	*	*Xrep	*	*
*	*	*rep	*	*
8FJ 8FF^\	.	32ggg\LLL	.	.
.	.	32eee-\	.	.
.	.	32ccc\	.	.
.	.	32gg\JJJ	.	.
*	*	*Xrep	*	*
=27	=27	=27	=27	=27
8G 8GG^\	.	32ggg\LLL	.	.
.	.	32eee-\	.	.
.	.	32ccc\	.	.
.	.	32gg\JJJ	.	.
*clefG2	*	*rep	*	*
16gLL 16e- 16c/	.	32ggg\LLL	.	<
.	.	32eee-\	.	.
16gJJ 16e- 16c/	.	32ccc\	.	.
.	.	32gg\JJJ	.	.
*	*	*Xrep	*	*
*	*	*rep	*	*
8gL 8e- 8c/	.	32ggg\LLL	.	.
.	.	32eee-\	.	.
.	.	32ccc\	.	.
.	.	32gg\JJJ	.	.
*	*	*Xrep	*	*
*	*	*rep	*	*
8gJ 8e- 8c/	.	32ggg\LLL	.	.
.	.	32eee-\	.	.
.	.	32ccc\	.	.
.	.	32gg\JJJ	.	[[
*	*	*Xrep	*	*
*	*	*Xped	*	*
=28	=28	=28	=28	=28
*	*	*ped	*	*
!	!	!	!	!LO:DY:a=2
2a-X 2e- 2c/	.	32aaa-X\LLL	.	sfz
.	.	32eee-\	.	.
.	.	32ccc\	.	.
.	.	32aa-y\JJJ	.	.
*	*	*rep	*	*
.	.	32aaa-\LLL	.	.
.	.	32eee-\	.	.
.	.	32ccc\	.	.
.	.	32aa-\JJJ	.	.
*	*	*Xrep	*	*
*	*	*rep	*	*
.	.	32aaa-\LLL	.	.
.	.	32eee-\	.	.
.	.	32ccc\	.	.
.	.	32aa-\JJJ	.	.
*	*	*Xrep	*	*
*	*	*rep	*	*
.	.	32aaa-\LLL	.	.
.	.	32eee-\	.	.
.	.	32ccc\	.	.
.	.	32aa-\JJJ	.	.
*clefF4	*	*Xrep	*	*
=29	=29	=29	=29	=29
*ped	*	*	*	*
4AA-X 4AAA-X\	.	32aaa-X\LLL	.	f
.	.	32eee-\	.	.
.	.	32ccc\	.	.
.	.	32aa-y\JJJ	.	.
*	*	*rep	*	*
.	.	32aaa-\LLL	.	.
.	.	32eee-\	.	.
.	.	32ccc\	.	.
.	.	32aa-\JJJ	.	.
*	*	*Xrep	*	*
*	*	*rep	*	*
8a-y>L 8A-y^<\	.	32aaa-\LLL	.	.
.	.	32eee-\	.	.
.	.	32ccc\	.	.
.	.	32aa-\JJJ	.	.
*	*	*Xrep	*	*
*	*	*rep	*	*
8g>J 8G^<\	.	32aaa-\LLL	.	.
.	.	32eee-\	.	.
.	.	32ccc\	.	.
.	.	32aa-\JJJ	.	.
*	*	*Xrep	*	*
=30	=30	=30	=30	=30
8a-X>L 8A-X^<\	.	32aaa-X\LLL	.	.
.	.	32eee-\	.	.
.	.	32ccc\	.	.
.	.	32aa-y\JJJ	.	.
*	*	*rep	*	*
8e-> 8E-^<\	.	32aaa-\LLL	.	.
.	.	32eee-\	.	.
.	.	32ccc\	.	.
.	.	32aa-\JJJ	.	.
*	*	*Xrep	*	*
*	*	*rep	*	*
8c> 8C^<\	.	32aaa-\LLL	.	.
.	.	32eee-\	.	.
.	.	32ccc\	.	.
.	.	32aa-\JJJ	.	.
*	*	*Xrep	*	*
*	*	*rep	*	*
8d-X>J 8D-X^<\	.	32aaa-\LLL	.	.
.	.	32eee-\	.	.
.	.	32ccc\	.	.
.	.	32aa-\JJJ	.	.
*	*	*Xrep	*	*
=31	=31	=31	=31	=31
8e-> 8E-^<\	.	32aaa-X\LLL	.	.
.	.	32eee-\	.	.
.	.	32ccc\	.	.
.	.	32aa-y\JJJ	.	.
*	*	*rep	*	*
16a-X>LL 16e-> 16c>\	.	32aaa-\LLL	.	.
.	.	32eee-\	.	.
16a->JJ 16e-> 16c>\	.	32ccc\	.	.
.	.	32aa-\JJJ	.	.
*	*	*Xrep	*	*
*	*	*rep	*	*
8a->L 8e-> 8c>\	.	32aaa-\LLL	.	.
.	.	32eee-\	.	.
.	.	32ccc\	.	.
.	.	32aa-\JJJ	.	.
*	*	*Xrep	*	*
*	*	*rep	*	*
8a->J 8e-> 8c>\	.	32aaa-\LLL	.	.
.	.	32eee-\	.	.
.	.	32ccc\	.	.
.	.	32aa-\JJJ	.	.
*	*	*Xrep	*	*
*	*	*Xped	*	*
=32	=32	=32	=32	=32
*	*	*ped	*	*
!	!	!	!	!LO:DY:b=1
2an> 2f> 2e-> 2c>\	.	32aaan\LLL	.	sfz
.	.	32fff\	.	.
.	.	32eee-\	.	.
.	.	32aa\JJJ	.	.
*	*	*rep	*	*
.	.	32aaa\LLL	.	.
.	.	32fff\	.	.
.	.	32eee-\	.	.
.	.	32aa\JJJ	.	.
*	*	*Xrep	*	*
*	*	*rep	*	*
.	.	32aaa\LLL	.	.
.	.	32fff\	.	.
.	.	32eee-\	.	.
.	.	32aa\JJJ	.	.
*	*	*Xrep	*	*
*	*	*rep	*	*
.	.	32aaa\LLL	.	.
.	.	32fff\	.	.
.	.	32eee-\	.	.
.	.	32aa\JJJ	.	.
*	*	*Xrep	*	*
*	*	*Xped	*	*
=33	=33	=33	=33	=33
*ped	*	*	*	*
!	!	!LO:TX:b:i:t=con forza	!	!
4BB- 4BBB-\	.	32bbb-\LLL	.	.
.	.	32fff\	.	.
.	.	32ddd-X\	.	.
.	.	32bb-\JJJ	.	.
*	*	*rep	*	*
.	.	32bbb-\LLL	.	.
.	.	32fff\	.	.
.	.	32ddd-\	.	.
.	.	32bb-\JJJ	.	.
*	*	*Xrep	*	*
*	*	*rep	*	*
8b->L 8B-^<\	.	32bbb-\LLL	.	.
.	.	32fff\	.	.
.	.	32ddd-\	.	.
.	.	32bb-\JJJ	.	.
*	*	*Xrep	*	*
*	*	*rep	*	*
8a>J 8A^<\	.	32bbb-\LLL	.	.
.	.	32fff\	.	.
.	.	32ddd-\	.	.
.	.	32bb-\JJJ	.	.
*	*	*Xrep	*	*
!!LO:LB:g=original
=34	=34	=34	=34	=34
8b->L 8B-\	.	32bbb-\LLL	.	.
.	.	32fff\	.	.
.	.	32ddd-X\	.	.
.	.	32bb-\JJJ	.	.
*	*	*rep	*	*
8f> 8F\	.	32bbb-\LLL	.	.
.	.	32fff\	.	.
.	.	32ddd-\	.	.
.	.	32bb-\JJJ	.	.
*	*	*Xrep	*	*
*	*	*rep	*	*
8d-X> 8D-X\	.	32bbb-\LLL	.	.
.	.	32fff\	.	.
.	.	32ddd-\	.	.
.	.	32bb-\JJJ	.	.
*	*	*Xrep	*	*
*	*	*rep	*	*
8e->J 8E-\	.	32bbb-\LLL	.	.
.	.	32fff\	.	.
.	.	32ddd-\	.	.
.	.	32bb-\JJJ	.	.
*	*	*Xrep	*	*
=35	=35	=35	=35	=35
8f>L 8F\	.	32bbb-\LLL	.	.
.	.	32fff\	.	.
.	.	32ddd-X\	.	.
.	.	32bb-\JJJ	.	.
*	*	*rep	*	*
8d-X> 8D-X\	.	32bbb-\LLL	.	.
.	.	32fff\	.	.
.	.	32ddd-\	.	.
.	.	32bb-\JJJ	.	.
*	*	*Xrep	*	*
*	*	*rep	*	*
8B-> 8BB-\	.	32bbb-\LLL	.	.
.	.	32fff\	.	.
.	.	32ddd-\	.	.
.	.	32bb-\JJJ	.	.
*	*	*Xrep	*	*
*	*	*rep	*	*
8c>J 8C\	.	32bbb-\LLL	.	.
.	.	32fff\	.	.
.	.	32ddd-\	.	.
.	.	32bb-\JJJ	.	.
*	*	*Xrep	*	*
=36	=36	=36	=36	=36
8d-X>L 8D-X\	.	32bbb-\LLL	.	.
.	.	32ddd-X\	.	.
.	.	32bb-\	.	.
.	.	32ddd-\JJJ	.	.
*	*	*rep	*	*
8B- 8BB-^\	.	32bbb-\LLL	.	.
.	.	32ddd-\	.	.
.	.	32bb-\	.	.
.	.	32ddd-\JJJ	.	.
*	*	*Xrep	*	*
*	*	*rep	*	*
8G-X 8GG-y^\	.	32bbb-\LLL	.	.
.	.	32ddd-\	.	.
.	.	32bb-\	.	.
.	.	32ddd-\JJJ	.	.
*	*	*Xrep	*	*
*	*	*rep	*	*
8FJ 8FF^\	.	32bbb-\LLL	.	.
.	.	32ddd-\	.	.
.	.	32bb-\	.	.
.	.	32ddd-\JJJ	.	.
*Xped	*	*Xrep	*	*
=37	=37	=37	=37	=37
[2En [>2EEn\	.	8bbb-\	.	ff
*	*	*8va	*	*
*	*	*ped	*	*
.	.	32dddd-X\LLL	.	.
.	.	32bbb-\	.	.
.	.	32ggg\	.	.
.	.	32eeen\JJJ	.	.
.	.	32ddd-y\LLL	.	.
.	.	32bb-\	.	.
.	.	32gg\	.	.
.	.	32eeny\JJJ	.	.
*	*	*X8va	*	*
!	!	!LO:TX:a:t=loco	!	!
.	.	32dd-y\LLL	.	.
.	.	32b-\	.	.
.	.	32g\	.	.
.	.	32eny\JJJ	.	.
=38	=38	=38	=38	=38
!	!	!LO:TX:t=P:problem=mixed beam	!	!
2EnX_> 2EEnX\_>	.	32d-X\LLL	.	.
.	.	32B-</	.	.
.	.	32G</	.	.
.	.	32B-</JJJ	.	.
.	.	32d-\LLL	.	.
.	.	32en\	.	.
.	.	32g\	.	.
.	.	32b-\JJJ	.	.
.	.	32dd-y\LLL	.	.
.	.	32eeny\	.	.
.	.	32gg\	.	.
.	.	32bb-\JJJ	.	.
*	*	*8va	*	*
.	.	32ddd-y\LLL	.	.
.	.	32eeeny\	.	.
.	.	32ggg\	.	.
.	.	32bbb-\JJJ	.	.
=39	=39	=39	=39	=39
4EnX] 4EEnX\]	.	8dddd-X\	.	.
*	*	*X8va	*	*
.	.	8r	.	.
[>4G: [>4D-X: [>4BB-: [>4EE:\	.	[4d-X< [4B-</	.	sfz
=40	=40	=40	=40	=40
4G] 4D-] 4BB-] 4EEnX\]	.	4d-X<] 4B-</]	.	.
*	*	*Xped	*	*
8EnyL 8EE\	.	8c<L 8G</	.	.
8EJ 8EE\	.	8B-<J 8G</	.	.
=41	=41	=41	=41	=41
*	*	*ped	*	*
4F 4FF\	.	4dn< 4B-</	.	.
.	.	8qg/	.	p
8FL 8FF\	.	8fL 8d'>/	.	.
8FJ 8FF\	.	8enJ 8c#X'>/	.	.
=42	=42	=42	=42	=42
8FL 8FF'\	.	8fL 8d'>/	.	.
8F 8FF'\	.	8d'>/	.	.
8D 8FF'\	.	8B-'>/	.	.
*	*	*Xped	*	*
8E-J 8FF'\	.	8cJ 8G'>/	.	.
!!LO:LB:g=original
=43	=43	=43	=43	=43
*^	*	*	*	*
8F/L	4FF\	.	8d/L	.	.
(16E-/L	.	.	(>16c/L	.	.
16F/JJ)	.	.	16d/JJ)	.	.
8G'>/L	4ryy	.	8e-'>/L	.	.
8F'>/J	.	.	8d'>/J	.	.
*v	*v	*	*	*	*
=44	=44	=44	=44	=44
4En 4FF\	.	4c 4G</	.	.
!	!	!	!	!LO:DY:rj
4E-X: 4C: 4FF;<:\	.	4A<tt;/	.	f
*	*	*Xtuplet	*	*
*ped	*	*cue	*	*
!	!	!LO:TX:t=P:problem=mixed beam	!	!
1ryy	.	(48F#X</LL	.	.
.	.	48A</	.	.
.	.	48c</	.	.
.	.	48e-\	.	.
.	.	48g\	.	.
.	.	48f#y\JJ	.	.
.	.	48e-/LL	.	.
!	!	!LO:TX:b:i:t=veloce	!	!
.	.	48c/	.	.
.	.	48e-/	.	.
.	.	48f#/	.	.
.	.	48a/	.	.
.	.	48f#/JJ	.	.
.	.	48e-\LL	.	.
.	.	48f#\	.	.
.	.	48a\	.	.
.	.	48cc\	.	.
.	.	48ee-\	.	.
.	.	48cc\JJ	.	.
.	.	48b-\LL	.	.
.	.	48a\	.	.
.	.	48cc\	.	.
.	.	48ee-\	.	.
.	.	48gg\	.	.
.	.	48ff#\JJ	.	.
.	.	48ee-\LL	.	.
.	.	48cc\	.	.
.	.	48ee-\	.	.
.	.	48ff#\	.	.
.	.	48aa\	.	.
.	.	48ff#\JJ	.	.
.	.	48ee-\LL	.	.
.	.	48ff#\	.	.
.	.	48aa\	.	.
.	.	48ccc\	.	.
.	.	48eee-\	.	.
.	.	48ccc\JJ	.	.
.	.	48bb-\LL	.	.
.	.	48aa\	.	.
.	.	48ccc\	.	.
.	.	48eee-\	.	.
.	.	48ggg\	.	.
.	.	48fff#y\JJ	.	.
*	*	*8va	*	*
.	.	48eee-\LL	.	.
.	.	48ccc\	.	.
.	.	48eee-\	.	.
.	.	48fff#y\	.	.
.	.	48aaa\	.	.
.	.	48fff#\JJ	.	.
4ryy	.	48eee-\LL	.	.
.	.	48fff#\	.	.
.	.	48aaa\	.	.
.	.	48cccc\	.	.
.	.	48eeee-\	.	.
.	.	48cccc\JJ	.	.
.	.	48bbb-\LLL	.	.
.	.	48aaa\	.	.
.	.	48cccc\	.	.
.	.	48eeee-\	.	.
.	.	48gggg\	.	.
.	.	48ffff#y\JJJ	.	.
1ryy	.	32eeee-\LLL	.	.
.	.	32dddd\	.	.
.	.	32cccc\	.	.
.	.	32bbb-\	.	.
.	.	32aaa\	.	.
.	.	32ggg\	.	.
.	.	32fff#\	.	.
.	.	32ggg\	.	.
.	.	32aaa\	.	.
.	.	32bbb-\	.	.
.	.	32cccc\	.	.
.	.	32aaa\	.	.
.	.	32bbb-\	.	.
.	.	32ggg\	.	.
.	.	32aaa\	.	.
.	.	32fff#\	.	.
.	.	32ggg\	.	.
.	.	32eee-\	.	.
.	.	32fff#\	.	.
.	.	32ddd\	.	.
.	.	32eee-\	.	.
.	.	32ccc\	.	.
.	.	32ddd\	.	.
.	.	32bb-\	.	.
.	.	32ccc\	.	.
.	.	32aa\	.	.
.	.	32bb-\	.	.
.	.	32gg\	.	.
.	.	32aa\	.	.
.	.	32ff#\	.	.
*	*	*X8va	*	*
!	!	!LO:TX:a:i:t=loco	!	!
.	.	32gg\	.	.
.	.	32ee-\	.	.
4ryy	.	32ff#\	.	.
!	!	!LO:TX:b:i:t=rit	!	!
.	.	32dd\	.	.
.	.	32een\	.	.
.	.	32cc#X\	.	.
.	.	32ee-X\	.	.
.	.	32ccn\	.	.
.	.	32dd\	.	.
.	.	32bn\JJJ)	.	.
*	*	*Xcue	*	*
4a: 4e-: 4c: 4F;:\	.	4ccT;\	.	.
*	*	*cue	*	*
1ryy	.	(14bn\L	.	.
.	.	14cc\	.	.
.	.	14ee-\	.	.
.	.	14gg\	.	.
.	.	14ff#\	.	.
.	.	14ee-\	.	.
.	.	14cc\J	.	.
.	.	14.eee-^<\L)	.	.
.	.	(28ccc\L	.	.
.	.	28aa\	.	.
.	.	28ccc\	.	.
.	.	28ff#\	.	.
.	.	28aa\	.	.
.	.	28ee-\	.	.
.	.	28ff#\	.	.
.	.	28cc\	.	pp
.	.	28ee-\	.	.
.	.	28a\	.	.
.	.	28cc\JJ)	.	.
4ryy	.	4f#;/	.	.
*	*	*Xcue	*	*
*	*	*Xped	*	*
!!LO:LB:g=original
=45||	=45||	=45||	=45||	=45||
!	!	!LO:TX:a:Bi:t=Allegretto marcato	!	!
4BB- 4BBB-'^>/	.	4r	.	.
8fL 8B-'\	.	8ffL 8dd'\	.	p
8fJ 8B-'\	.	8eenJ 8cc#X'\	.	.
=46	=46	=46	=46	=46
4f 4B-'\	.	8ffL 8dd'\	.	.
.	.	8dd'\	.	.
8dL 8B-'\	.	8b-'\	.	.
8e-J 8B-'\	.	8cc'\J	.	.
=47	=47	=47	=47	=47
8fL 8B-'\	.	8ddL 8b-'\	.	.
(16e-\L	.	(16cc\L	.	.
16f\JJ)	.	16dd\JJ	.	.
8gL 8B-'\	.	8ee-L 8b-'\)	.	.
8fJ 8B-'\	.	8ddJ 8b-'\	.	.
=48	=48	=48	=48	=48
*^	*	*^	*	*
2B-\	4en/	.	2cc/	4g\	.	>
.	4e-X/	.	.	4a\	.	]]
*	*	*	*v	*v	*	*
=49	=49	=49	=49	=49	=49
4d/	4B-\	.	4b-\	.	.
4ryy	8FL 8BB-'\	.	8ffL 8dd 8f'\	.	.
.	8FJ 8BB-'\	.	8eenJ 8cc#X 8f'\	.	.
*v	*v	*	*	*	*
=50	=50	=50	=50	=50
4F 4BB-'\	.	8ffL 8dd 8f'\	.	.
.	.	8dd 8f'\	.	.
8DL 8BB-'\	.	8b- 8f'\	.	.
8E-J 8BB-'\	.	8ccJ 8f'\	.	.
=51	=51	=51	=51	=51
8FL 8BB-'\	.	8ddL 8f'\	.	.
(16E-\L	.	(16cc\L	.	.
16F\JJ	.	16dd\JJ	.	.
8GL 8BB-'\)	.	8ee-L 8b-'\)	.	.
8FJ 8BB-'\	.	8ddJ 8b-'\	.	.
=52	=52	=52	=52	=52
4E- 4EE-\	.	4cc 4b- 4g^<\	.	.
4F 4FF\	.	4ff 4a^<\	.	.
=53	=53	=53	=53	=53
4D 4BB-\	.	4b-\	.	.
4B- 4BB-\	.	4dd 4b- 4f\	.	f
=54	=54	=54	=54	=54
4G 4GG^\	.	4gg 4dd 4b-\	.	.
4c 4C^\	.	8ffL 8cc 8a\	.	.
.	.	8eenJ 8cc 8g\	.	.
=55	=55	=55	=55	=55
4.F 4.FF^\	.	8ffL 8cc 8a\	.	.
.	.	(16eenL 16cc\	.	.
.	.	16ddJJ 16b-\	.	.
.	.	8ccL 8a'\)	.	.
8BB- 8BBB-/	.	8ddJ 8b-\	.	.
!!LO:LB:g=original
=56	=56	=56	=56	=56
2C 2CC/	.	4cc 4a\	.	.
.	.	4b- 4g\	.	.
=57	=57	=57	=57	=57
4F 4FF/	.	4a 4f\	.	.
4B- 4BB-\	.	4dd 4b- 4f\	.	f
=58	=58	=58	=58	=58
4G 4GG\	.	4gg 4dd 4b- 4g^\	.	.
8cL 8C'\	.	8ffL 8cc 8a'\	.	.
8cJ 8C'\	.	8eenJ 8cc 8g'\	.	.
=59	=59	=59	=59	=59
4.F 4.FF^\	.	8ffL 8cc 8a'\	.	.
.	.	(16eenL 16cc\	.	.
.	.	16ddJJ 16b-\	.	.
.	.	8ccL 8a\)	.	.
8BB- 8BBB-^/	.	8ddJ 8b- 8f^\	.	.
=60	=60	=60	=60	=60
*^	*	*^	*	*
4C 4CC/	4ryy	.	2cc/	4a 4f\	.	.
!	!	!	!LO:TX:b:i:t=rall.	!	!	!
8c/L	4C\	.	.	4g 4entt>\	.	.
8B-/J	.	.	.	.	.	.
*v	*v	*	*	*	*	*
*	*	*v	*v	*	*
=61	=61	=61	=61	=61
4A 4F\	.	4f\	.	.
*	*	*tuplet	*	*
!	!	!LO:TUP:a:problem=klamra łukowa	!	!
4r	.	24f\LL	.	.
.	.	24g\	.	.
.	.	24a\	.	.
.	.	24b-\	.	.
.	.	24cc\	.	.
.	.	24dd\JJ	.	.
=62	=62	=62	=62	=62
*	*	*^	*	*
(8qF/	.	.	.	.	.
4g> 4F\)	.	4ee- 4b-^/	4g\	.	.
4f> 4F\	.	(8ddL 8a/	8f\L	.	.
.	.	8ccJ 8g/)	8e-\J	.	.
*	*	*v	*v	*	*
=63	=63	=63	=63	=63
*^	*	*	*	*
4d> 4F\	8d>\L	.	8b-L 8f/	.	.
.	(>16e->\L	.	(>16cc/L	.	.
.	16d>\JJ	.	16b-/JJ	.	.
8c>\L)	4ryy	.	8a/L)	.	.
8d>J 8F'\	.	.	8b-'>/J	.	.
*v	*v	*	*	*	*
=64	=64	=64	=64	=64
*	*	*^	*	*
2F\	.	8cc/L	4en\	.	.
!	!	!LO:TUP:a:problem=klamra łukowa	!	!	!
.	.	24g/L	.	.	.
.	.	24b-/	.	.	.
.	.	24dd/JJ	.	.	.
.	.	8cc'\L	4c\	.	.
*	*	*Xtuplet	*	*	*
!	!	!LO:TUP:a:problem=klamra łukowa	!	!	!
.	.	24een\L	.	.	.
.	.	24gg\	.	.	.
.	.	24bb-\JJ	.	.	.
*	*	*v	*v	*	*
=65	=65	=65	=65	=65
4f> 4F\	.	4aa\	.	.
*	*	*tuplet	*	*
!	!	!LO:TUP:b:problem=klamra łukowa	!	!
4r	.	24ff\LL	.	.
.	.	24gg\	.	.
.	.	24aa\	.	.
.	.	24bb-\	.	.
.	.	24ccc\	.	.
.	.	24ddd\JJ	.	.
=66	=66	=66	=66	=66
*^	*	*	*	*
.	(8qF/	.	.	.	.
4g>^\	2F\)	.	4eee- 4bb-^\	.	.
8f>\L	.	.	8dddL 8aa\	.	.
8e->\J	.	.	8cccJ 8gg\	.	.
=67	=67	=67	=67	=67	=67
8d>\L	4.F\	.	8bb-L 8ff\	.	.
(>16e->\L	.	.	(16ccc\L	.	.
16d>\JJ	.	.	16bb-\JJ	.	.
8c>'>\L)	.	.	8aaL 8ff'\)	.	.
8d>\J	8d> 8F\	.	8bb-J 8ff\	.	.
=68	=68	=68	=68	=68	=68
4en>\	2F\	.	8cccL 8gg\	.	.
.	.	.	(32een\LL	.	.
.	.	.	32gg\	.	.
.	.	.	32bb-\	.	.
.	.	.	32ddd\JJJ	.	.
4c>\	.	.	8ccc'\L)	.	.
*	*	*	*8va	*	*
.	.	.	(32eeen\LL	.	.
.	.	.	32ggg\	.	.
.	.	.	32bbb-\	.	.
.	.	.	32dddd\JJJ)	.	.
*v	*v	*	*	*	*
!!LO:LB:g=original
=69	=69	=69	=69	=69
4f 4F\	.	8cccc\L	.	.
.	.	(16fff\L	.	.
.	.	16aaa\JJ)	.	.
4d 4B- 4En^<\	.	8ggg'\L	.	.
.	.	(16dddd\L	.	.
.	.	16gggg\JJ)	.	.
=70	=70	=70	=70	=70
4c 4A 4F\	.	8cccc'\L	.	.
!	!	!LO:TUP:a:problem=klamra łukowa	!	!
.	.	24fff\L	.	.
.	.	24ggg\	.	.
.	.	24aaa\JJ	.	.
4d 4B- 4En^<\	.	8ggg'\L	.	.
.	.	(16dddd\L	.	.
.	.	16gggg\JJ)	.	.
=71	=71	=71	=71	=71
8cL 8A 8F\	.	8cccc\L	.	.
*	*	*X8va	*	*
*	*	*Xtuplet	*	*
8B- 8C\	.	(24gg\L	.	p
.	.	24aa\	.	.
.	.	24gg\JJ	.	.
8A 8F\	.	24ff\LL	.	.
.	.	24een\	.	.
.	.	24ff\JJ	.	.
8B-J 8C\	.	24gg\LL	.	.
.	.	24aa\	.	.
.	.	24gg\JJ	.	.
=72	=72	=72	=72	=72
8AL 8F\	.	24ff\LL	.	.
.	.	24een\	.	.
.	.	24ff\JJ	.	.
8B- 8C\	.	24gg\LL	.	.
.	.	24aa\	.	.
.	.	24gg\JJ	.	.
8A 8F\	.	8ff\L)	.	.
8A-XJ 8BB-^\	.	8dd^\J	.	.
=73	=73	=73	=73	=73
8GL 8E-\	.	8ee-X\L	.	.
*	*	*tuplet	*	*
!	!	!LO:TUP:a	!	!
8A-X 8BB-\	.	(24ff\L	.	.
.	.	24gg\	.	.
.	.	24ff\JJ	.	.
*	*	*Xtuplet	*	*
8G 8E-\	.	24ee-\LL	.	.
.	.	24dd\	.	.
.	.	24ee-\JJ	.	.
8A-J 8BB-\	.	24ff\LL	.	.
.	.	24gg\	.	.
.	.	24ff\JJ	.	.
=74	=74	=74	=74	=74
8GL 8E-\	.	24ee-\LL	.	.
.	.	24dd\	.	.
.	.	24ee-\JJ	.	.
8A-X 8BB-\	.	24ff\LL	.	.
.	.	24gg\	.	.
.	.	24ff\JJ	.	.
8G 8E-\	.	8ee-\L)	.	.
8GJ 8AA^\	.	8cc#X^\J	.	.
=75	=75	=75	=75	=75
8F#XL 8D\	.	8dd\L	.	.
8Fn 8GG^\	.	8bnm\	.	.
8En 8C\	.	8cc\	.	.
8E-XJ 8FF^\	.	8aM\J	.	.
=76	=76	=76	=76	=76
4D 4BB-\	.	4b-X\	.	.
4En: 4C#X: 4BB-: 4EEn:\	.	4g^TT\	.	sfz
=77	=77	=77	=77	=77
*ped	*	*	*	*
[2F [>2FF\	.	8f\	.	.
*	*	*8va	*	*
!	!	!	!	!LO:DY:t=pp con delicatezza
.	.	16ddddLL 16bbbn\	.	pp
.	.	16ffff\JJ	.	.
.	.	16eeee-LL 16cccc\	.	.
.	.	16gggg\JJ	.	.
.	.	16ccccLL 16aaa\	.	.
.	.	16eeee-\JJ	.	.
=78	=78	=78	=78	=78
2F_ 2FF\_>	.	16ddddLL 16bbb-X\	.	.
.	.	16ffff\JJ	.	.
.	.	16bbb-LL 16ggg\	.	.
.	.	16dddd\JJ	.	.
.	.	16ccccLL 16aaa\	.	.
.	.	16eeee-\JJ	.	.
.	.	16aaaLL 16fff\	.	.
.	.	16cccc\JJ	.	.
=79	=79	=79	=79	=79
2F_ 2FF\_>	.	16bbb-LL 16ggg\	.	.
.	.	16dddd\JJ	.	.
.	.	16gggLL 16eeen\	.	.
.	.	16bbb-\JJ	.	.
.	.	16aaaLL 16fff\	.	.
.	.	16cccc\JJ	.	.
.	.	16fff\LL	.	.
.	.	16aaa\JJ	.	.
=80	=80	=80	=80	=80
*	*	*rscale:1/2	*	*
!	!	!LO:TX:b:i:t=presto	!	!
2F] 2FF\]	.	30cccc\LLLL	.	.
.	.	30bbb-\	.	.
.	.	30aaa\	.	.
.	.	30ggg\	.	.
.	.	30fff\	.	.
.	.	30eee-\	.	.
.	.	30ddd\	.	<
.	.	30ccc\	.	.
.	.	30bb-\	.	.
.	.	30aa\	.	.
.	.	30gg\	.	.
*	*	*X8va	*	*
!	!	!LO:TX:a:i:t=loco	!	!
.	.	30ff\	.	.
.	.	30ee-\	.	.
.	.	30dd\	.	.
.	.	30cc\JJJJ	.	[[
!!LO:PB:g=original
=81	=81	=81	=81	=81
*	*	*rscale:1	*	*
4B- 4BB-\	.	4b-\	.	f
!	!	!LO:TX:b:i:t=marcato	!	!
8FL 8BB-'\	.	8ffL 8dd 8f'\	.	.
8FJ 8BB-'\	.	8eenJ 8cc#X 8en'\	.	.
=82	=82	=82	=82	=82
4F 4BB-^\	.	8ffL 8dd 8f'\	.	.
.	.	8dd 8d'\	.	.
8DL 8BB-'\	.	8b- 8B-'\	.	.
8E-J 8BB-'\	.	8ccJ 8c'\	.	.
=83	=83	=83	=83	=83
8FL 8BB-'\	.	8ddL 8d\	.	.
(16E-L 16BB-\	.	(16ccL 16c\	.	.
16F\JJ)	.	16ddJJ 16d\)	.	.
8GL 8BB-'\	.	8ee-L 8e-'\	.	.
8FJ 8BB-'\	.	8ddJ 8d'\	.	.
=84	=84	=84	=84	=84
4E- 4BB-^\	.	4cc 4c^\	.	.
4F 4BB-^\	.	4a 4A^\	.	.
=85	=85	=85	=85	=85
4BB- 4BBB-'>/	.	4b- 4B-'\	.	.
8B-L 8F 8BB-'\	.	8ffL 8dd 8f'\	.	f
!	!	!LO:SIC:v:o=8eenJ 8cc#X 8e-'\	!	!
8B-J 8F 8BB-'\	.	8eeJ 8cc# 8e'\	.	.
=86	=86	=86	=86	=86
8B-L 8BB-'\	.	8ffL 8dd 8f'\	.	.
8F 8BB-'\	.	8dd 8d'\	.	.
8D 8BB-'\	.	8b- 8B-'\	.	.
8E-J 8BB-'\	.	8ccJ 8c'\	.	.
=87	=87	=87	=87	=87
8FL 8BB-'\	.	8ddL 8d'\	.	.
(16E-\L	.	(16ccL 16c\	.	.
16F\JJ)	.	16ddJJ 16d\)	.	.
8GL 8BB-'\	.	8ee-L 8e-'\	.	.
8FJ 8BB-'\	.	8ddJ 8d'\	.	.
=88	=88	=88	=88	=88
4En 4BB-\	.	4cc 4c^<\	.	.
4E-X 4FF\	.	4ff 4f^<\	.	.
=89	=89	=89	=89	=89
!LO:N:vis=4	!	!	!	!
8D 8BB-\	.	8b-\	.	.
8r	.	8r	.	.
*	*	*tuplet	*	*
*	*	*8va	*	*
8fL 8B-'\	.	24dddd\LL	4	.
.	.	24fff\	1	.
!	!	!LO:TX:b:i:t=brillante	!	!
.	.	24dddd\JJ	.	.
*	*	*Xtuplet	*	*
8fJ 8B-'\	.	24cccc#X\LL	3	.
.	.	24eeen\	.	.
.	.	24cccc#\JJ	.	.
=90	=90	=90	=90	=90
*ped	*	*	*	*
4f 4B-^\	.	24dddd\LL	.	.
.	.	24fff\	.	.
.	.	24dddd\JJ	.	.
.	.	24ccccn\LL	3	.
.	.	24aaa\	1	.
.	.	24cccc\JJ	4	.
8fL 8B-'\	.	24bbb-\LL	3	.
.	.	24ggg\	.	.
*Xped	*	*	*	*
.	.	24bbb-\JJ	4	.
8fJ 8B-'\	.	24aaa\LL	.	.
.	.	24fff\	.	.
.	.	24aaa\JJ	.	.
=91	=91	=91	=91	=91
*ped	*	*	*	*
4g 4e- 4B-^\	.	24ggg\LL	3	.
.	.	24eee-\	2	.
.	.	24ggg\JJ	4	.
.	.	24fff\LL	3	.
.	.	24ddd\	1	.
.	.	24fff\JJ	4	.
8gL 8e- 8B-'\	.	24eee-\LL	.	.
.	.	24ccc\	.	.
.	.	24eee-\JJ	.	.
*Xped	*	*	*	*
8gJ 8e- 8B-'\	.	24ddd\LL	.	.
.	.	24bb-\	.	.
.	.	24ddd\JJ	.	.
=92	=92	=92	=92	=92
4a 4f 4e- 4B-^\	.	24ccc\LL	.	.
.	.	24aa\	.	.
.	.	24ccc\JJ	.	.
.	.	24ddd\LL	.	.
.	.	24aa\	.	.
.	.	24ddd\JJ	3	.
8aL 8f 8e- 8B-'\	.	24eee-\LL	4	.
.	.	24ccc\	.	.
.	.	24eee-\JJ	.	.
8aJ 8f 8e- 8B-'\	.	24fff\LL	.	.
.	.	24aa\	.	.
.	.	24fff\JJ	.	.
=93	=93	=93	=93	=93
*ped	*	*	*	*
8b- 8f 8d 8B-'\	.	8ddd 8bb-\	.	.
8r	.	24cccc#X\LL	.	.
.	.	24eeen\	.	.
.	.	24cccc#\JJ	.	.
8fL 8B-'\	.	24dddd\LL	.	.
.	.	24fff\	.	.
.	.	24dddd\JJ	.	.
8fJ 8B-'\	.	24cccc#\LL	.	.
.	.	24eee\	.	.
.	.	24cccc#\JJ	.	.
=94	=94	=94	=94	=94
4f 4B-^\	.	24dddd\LL	.	.
.	.	24fff\	.	.
.	.	24dddd\JJ	.	.
.	.	24ccccn\LL	.	.
.	.	24aaa\	.	.
.	.	24cccc\JJ	.	.
*Xped	*	*	*	*
8fL 8B-'\	.	24bbb-\LL	.	.
.	.	24ggg\	.	.
.	.	24bbb-\JJ	.	.
8fJ 8B-'\	.	24aaa\LL	.	.
.	.	24fff\	.	.
.	.	24aaa\JJ	.	.
!!LO:LB:g=original
=95	=95	=95	=95	=95
*ped	*	*	*	*
4g 4e- 4B-^\	.	24ggg\LL	.	.
.	.	24eee-\	.	.
.	.	24ggg\JJ	.	.
.	.	24fff\LL	.	.
.	.	24ddd\	.	.
.	.	24fff\JJ	.	.
8gL 8e- 8B-'\	.	24eee-\LL	.	.
.	.	24ccc\	.	.
.	.	24eee-\JJ	.	.
*Xped	*	*	*	*
8gJ 8e- 8B-'\	.	24ddd\LL	.	.
.	.	24bb-\	.	.
.	.	24ddd\JJ	.	.
=96	=96	=96	=96	=96
4a 4f 4e- 4B-^\	.	24ccc\LL	.	.
.	.	24aa\	.	.
.	.	24ccc\JJ	.	.
.	.	24ddd\LL	.	.
.	.	24aa\	.	.
.	.	24ddd\JJ	.	.
8aL 8f 8e- 8B-'\	.	24eee-\LL	.	.
.	.	24ccc\	.	.
.	.	24eee-\JJ	.	.
8aJ 8f 8e- 8B-'\	.	24fff\LL	.	.
.	.	24aa\	.	.
.	.	24fff\JJ	.	.
=97	=97	=97	=97	=97
8b- 8f 8d 8B-'\	.	8ddd 8bb-\	.	.
*	*	*X8va	*	*
!	!	!LO:TX:a:i:t=loco	!	!
8r	.	8r	.	.
4B- 4BB-\	.	4dd 4b- 4f\	.	f
=98	=98	=98	=98	=98
4G 4GG\	.	4gg 4dd 4b-\	.	.
8CL 8CC/	.	8ffL 8cc 8a\	.	.
8CJ 8CC/	.	8eenJ 8cc 8g\	.	.
=99	=99	=99	=99	=99
4.F 4.FF\	.	8ffL 8cc 8a\	.	.
.	.	(16eenL 16cc\	.	.
.	.	16ddJJ 16b-\	.	.
.	.	8ffL 8cc 8a\)	.	.
8B- 8BB-\	.	8ddJ 8f\	.	.
=100	=100	=100	=100	=100
4c 4C\	.	4cc 4a 4f\	.	.
4c 4C\	.	16g\LL	.	.
.	.	16b-\	.	.
.	.	16cc\	.	.
.	.	16een\JJ	.	.
=101	=101	=101	=101	=101
8F 8FF\	.	8ff 8a 8f\	.	.
8r	.	8r	.	.
4B- 4BB-\	.	16dd\LL	.	.
.	.	16f\	.	.
.	.	16b-\	.	f
.	.	16dd\JJ	.	.
=102	=102	=102	=102	=102
4G 4GG^\	.	16gg\LL	.	.
.	.	16g\	.	.
.	.	16b-\	.	.
.	.	16gg\JJ	.	.
4c 4C^\	.	16ff\LL	.	.
.	.	16g\	.	.
.	.	16een\	.	.
.	.	16cc\JJ	.	.
=103	=103	=103	=103	=103
4.F 4.FF\	.	16ff\LL	.	.
.	.	16a\	.	.
.	.	(16een 16cc\	.	.
.	.	16ddJJ 16b-\	.	.
.	.	8ccL 8a\)	.	.
8BB- 8BBB-^>/	.	8ddJ 8f\	.	.
=104	=104	=104	=104	=104
*^	*	*	*	*
4C 4CC\	4ryy	.	4a 4f\	.	.
!	!	!	!LO:TX:b:i:t=rall.	!	!
4C\	8c/L	.	4g 4entt\	.	.
.	8B-/J	.	.	.	.
*v	*v	*	*	*	*
=105	=105	=105	=105	=105
8A 8F\	.	8f\	.	.
8r	.	8r	.	.
*	*	*tuplet	*	*
!	!	!LO:TUP:a:problem=klamra łukowa	!	!
4ryy	.	48f\LLL	.	.
.	.	48en\	.	.
!	!	!LO:TX:b:i:t=a Tempo:color=brown	!	!
.	.	48f\	.	.
.	.	48g\	.	.
.	.	48a\	.	.
.	.	48b-\	.	.
.	.	48cc\	.	.
.	.	48dd\	.	.
.	.	48ee-X\	.	.
.	.	48ff\	.	.
.	.	48gg\	.	.
.	.	48aa\JJJ	.	.
=106	=106	=106	=106	=106
4BB- 4BBB-^>/	.	4bb-^<\	.	f
.	.	8qg/	.	.
8d'\L	.	8f'>/L	.	p
8c#X\J	.	8en'>/J	.	.
=107	=107	=107	=107	=107
8d'\L	.	8f'>/L	.	.
8B-'\	.	8d'>/	.	.
8G'\	.	8B-'>/	.	.
8A'\J	.	8c'>/J	.	.
=108	=108	=108	=108	=108
8B-'<\L	.	8d'>/L	.	.
8G'\	.	8B-<'/	.	.
8E-'\	.	8G<'/	.	.
8F'\J	.	8A<'/J	.	.
=109	=109	=109	=109	=109
4G'\	.	4B-<'/	.	.
4G 4GG\	.	4gg 4dd 4bn 4g\	.	sf
!!LO:LB:g=original
=110	=110	=110	=110	=110
4C 4CC/	.	4gg 4ee- 4cc 4g\	.	f
.	.	8qa/	.	.
8e-'\L	.	8g'>/L	.	p
8d'\J	.	8f'>/J	.	.
=111	=111	=111	=111	=111
8e-'\L	.	8g'>/L	.	.
8c'\	.	8e-'>/	.	.
8A'\	.	8c'>/	.	.
8B-'\J	.	8d'>/J	.	.
=112	=112	=112	=112	=112
8c'\L	.	8e-/L	.	.
8A'\	.	8c/	.	.
8F#X'\	.	8A</	.	.
8G'\J	.	8B-</J	.	.
=113	=113	=113	=113	=113
4A\	.	4c</	.	.
4E- 4EE-/	.	4aa 4gg 4cc 4a\	.	sf
=114	=114	=114	=114	=114
4D 4DD/	.	4aa 4ff#X 4cc 4a\	.	f
*clefG2	*	*Xtuplet	*	*
!	!	!	!	!LO:DY:t=p leggiero
8aa'\L	.	24cccn/LL	.	p
.	.	24ddd/	.	.
.	.	24ccc/JJ	.	.
8gg#X'\J	.	24bbn/LL	.	.
.	.	24ccc/	.	.
.	.	24bb/JJ	.	.
=115	=115	=115	=115	=115
8aa'\L	.	24ccc\LL	.	.
.	.	24ddd\	.	.
.	.	24ccc\JJ	.	.
8ggn'\	.	24bb-X\LL	.	.
.	.	24ccc\	.	.
.	.	24bb-\JJ	.	.
8ff#X'\	.	24aa\LL	.	.
.	.	24bb-\	.	.
.	.	24aa\JJ	.	.
8gg'\J	.	24bb-\LL	.	.
.	.	24ccc\	.	.
.	.	24bb-\JJ	.	.
=116	=116	=116	=116	=116
8ff#X'\L	.	24aa\LL	.	.
.	.	24bb-\	.	.
.	.	24aa\JJ	.	.
8ee-'\	.	24gg\LL	.	.
.	.	24aa\	.	.
.	.	24gg\JJ	.	.
8dd'\	.	24ff#X\LL	.	.
.	.	24gg\	.	.
.	.	24ff#\JJ	.	.
8ee-'\J	.	24gg\LL	.	.
.	.	24aa\	.	.
.	.	24gg\JJ	.	.
=117	=117	=117	=117	=117
8dd'\L	.	24ff#X\LL	.	.
.	.	24gg\	.	.
.	.	24ff#\JJ	.	.
8cc'\	.	24ee-\LL	.	.
.	.	24ff#\	.	.
.	.	24ee-\JJ	.	.
8b-'\	.	24dd\LL	.	.
.	.	24ee-\	.	.
.	.	24dd\JJ	.	.
8cc'\J	.	24ee-\LL	.	.
.	.	24ff#\	.	.
.	.	24ee-\JJ	.	.
=118	=118	=118	=118	=118
8a'\L	.	24cc\LL	.	.
.	.	24bn\	.	.
.	.	24cc\JJ	.	.
8b-'\	.	24dd\LL	.	.
.	.	24ee-\	.	.
.	.	24dd\JJ	.	.
8g'\	.	24b-X\LL	.	.
.	.	24a\	.	.
.	.	24b-\JJ	.	.
8a'\J	.	24cc\LL	.	.
.	.	24dd\	.	.
.	.	24cc\JJ	.	.
=119	=119	=119	=119	=119
8f#X'/L	.	24a\LL	.	.
.	.	24g#X\	.	.
.	.	24a\JJ	.	.
8g'/	.	24b-\LL	.	.
.	.	24cc\	.	.
.	.	24b-\JJ	.	.
8e-'/	.	24g#\LL	.	.
.	.	24f#X\	.	.
.	.	24g#\JJ	.	.
8c'/J	.	24a\LL	.	.
.	.	24b-\	.	.
.	.	24a\JJ	.	.
*clefF4	*	*	*	*
!!LO:LB:g=original
=120	=120	=120	=120	=120
4D 4DD\	.	4f#X/	2	fp
*	*	*ped	*below	*
.	.	64qqa/LLL	1	.
.	.	64qqdd/	.	.
.	.	64qqff#y/	.	.
.	.	64qqaa/	.	.
.	.	64qqff#/	.	.
.	.	64qqdd/	.	.
!	!	!	!	!LO:HP:t=con velocita sempre crescendo
.	.	64qqa/	.	<
.	.	64qqf#/JJJ	3	.
*	*	*rscale:1/2	*	*
*	*	*cue	*	*
4F#X 4FF#y'\	.	56d/LLL	2	.
.	.	56A/	1	.
.	.	56d/	.	.
.	.	56f#/	.	.
.	.	56a/	1	.
.	.	56dd/	2	.
.	.	56ff#y/	3	.
.	.	56aa/	4	.
.	.	56ddd/	5	.
.	.	56aa/	4	.
.	.	56ff#/	3	.
.	.	56dd/	2	.
.	.	56a/	1	.
.	.	56f#/JJJ	3	.
*	*	*rscale:1	*	*
4D 4DD'\	.	64d/LLLL	2	.
.	.	64A/	.	.
.	.	64d/	.	.
.	.	64f#/	.	.
.	.	64a/	1	.
.	.	64dd/	.	.
.	.	64ff#/	.	.
.	.	64aa/	1	.
.	.	64ddd/	.	.
.	.	64fff#y/	.	.
.	.	64ddd/	.	.
.	.	64aa/	.	.
.	.	64ff#/	.	.
.	.	64dd/	.	.
.	.	64a/	.	.
.	.	64f#/JJJJ	.	.
*	*	*rscale:2	*	*
*	*	*tuplet	*	*
4AA 4AAA'/	.	72d/LLL	.	.
.	.	72A/	1	.
.	.	72d/	.	.
.	.	72f#/	.	.
.	.	72a/	1	.
.	.	72dd/	.	.
.	.	72ff#/	.	.
.	.	72aa/	1	.
.	.	72ddd/	2	.
.	.	72fff#/	3	.
.	.	72aaa/	5	.
.	.	72fff#/	3	.
.	.	72ddd/	2	.
.	.	72aa/	1	.
.	.	72ff#/	.	.
.	.	72dd/	.	.
.	.	72a/	.	.
.	.	72f#/JJJ	.	.
*	*	*rscale:1	*	*
*	*	*Xtuplet	*	*
4FF#X 4FFF#y/	.	14d/L	.	.
.	.	56A/LLL	1	.
.	.	56d/	.	.
.	.	56f#/	.	.
.	.	56a/	1	.
.	.	56dd/	.	.
.	.	56ff#/	.	.
.	.	56aa/	1	.
.	.	56ddd/	2	.
*	*	*8va	*	*
.	.	56fff#/	3	.
.	.	56aaa/JJJ	4	.
8DD 8DDD/	.	8dddd/J	5	.
*	*	*X8va	*	*
*	*	*Xcue	*	*
!	!	!LO:TX:a:i:t=loco	!	!
16r	.	16r	.	.
16DKL 16DD\	.	16d/KL	.	f
8DJ 8DD;\	.	8d;/J	.	.
*	*	*Xped	*	*
=121||	=121||	=121||	=121||	=121||
!!!OMD: Allegretto
*M3/4	*	*M3/4	*	*
!	!	!	!	!LO:DY:t=p. mysterioso
4D/	.	4ryy	.	p
=122	=122	=122	=122	=122
*	*	*^	*	*
4GG:: 4DD:: 4BBB-:: 4GGG'>::\	.	2.d<::/	4B-<:: 4G<:: 4D<::/	.	.
4r	.	.	2ryy	.	.
4r	.	.	.	.	.
=123	=123	=123	=123	=123	=123
4AA:: 4FF#X:: 4DD:: 4AAA'>::\	.	2.d<::/	4c<:: 4F#X<:: 4D<::/	.	.
4r	.	.	2ryy	.	.
4r	.	.	.	.	.
*	*	*v	*v	*	*
=124	=124	=124	=124	=124
4BB-:: 4GG:: 4DD:: 4GGG::\	.	(4d<:: 4B-<:: 4G<::/	.	<
4r	.	4e-</	.	[
4r	.	4d</)	.	>]
!!LO:LB:g=original
=125	=125	=125	=125	=125
4C:: 4AA:: 4EE-:: 4CC::\	.	(4c<:: 4A<:: 4E-<::/	.	.
4r	.	4B-</	.	.
4r	.	4A</)	.	.
=126	=126	=126	=126	=126
4D:: 4BB-:: 4GG:: 4DD'::\	.	(4G<::/	.	.
4r	.	4D</	.	.
4r	.	4G</)	.	.
=127	=127	=127	=127	=127
4D: 4FF#X: 4DD'>:\	.	(4A</	.	.
4r	.	4D</	.	.
4r	.	4A</)	.	.
=128	=128	=128	=128	=128
(>16qqGGG/LL	.	.	.	.
16qqDD/JJ)	.	.	.	.
4GG'>\	.	(4B-</	.	.
4r	.	4G</	.	.
4r	.	4B-</)	.	.
=129	=129	=129	=129	=129
(>16qqFFF/LL	.	.	.	.
16qqFF/JJ)	.	.	.	.
4AA'>\	.	4c</	.	<
4r	.	4F</	.	.
4r	.	8d</L	.	.
.	.	8e-</J	.	.
=130	=130	=130	=130	=130
*ped	*	*	*	*
4BB- 4BBB-'\	.	[2.f</	.	[ sfz
4r	.	.	.	.
(>32qqdd>/LLL	.	.	.	p
32qqee->/JJJ	.	.	.	.
4ff>'\)	.	.	.	.
=131	=131	=131	=131	=131
(>32qqddd>/LLL	.	.	.	.
32qqeee->/JJJ	.	.	.	.
4fff>'\)	.	2f</_	.	.
4r	.	.	.	.
4r	.	8f</L]	.	.
.	.	(16f</L	.	.
.	.	16e-</JJ	.	.
*Xped	*	*	*	*
=132	=132	=132	=132	=132
*ped	*	*	*	*
4D 4DD\	.	[2.d</)	.	.
4r	.	.	.	.
(>32qqdd>/LLL	.	.	.	.
32qqeen>/JJJ	.	.	.	.
4ff#X>'\)	.	.	.	.
=133	=133	=133	=133	=133
(>32qqddd>/LLL	.	.	.	.
32qqeeen>/JJJ	.	.	.	.
4fff#X>'\)	.	4d</]	.	f
*Xped	*	*	*	*
!	!	!LO:TX:b:i:t=rall.	!	!
4r	.	2d<tt/	.	.
4r	.	.	.	.
.	.	32qqc#X</LLL	.	.
.	.	32qqd</JJJ	.	.
=134	=134	=134	=134	=134
8GGL 8GGG\	.	4G</	.	.
16r	.	.	.	.
!	!	!LO:TX:b:i:t=a tempo	!	!
16D\K	.	.	.	p
8.B-\	.	2ryy	.	.
16G\Jk	.	.	.	.
4d\	.	.	.	.
=135	=135	=135	=135	=135
8.GG\L	.	4r	.	.
16D\K	.	.	.	.
8.B-\	.	4r	.	.
16G\Jk	.	.	.	.
!LO:N:vis=8	!	!	!	!
4r	.	(4d/	.	.
=136	=136	=136	=136	=136
!LO:TX:a:i:t=dolce	!	!	!	!
8GG\L	.	2.dd^\)	.	.
16r	.	.	.	.
(16D\K	.	.	.	.
8B-\)	.	.	.	.
16r	.	.	.	.
(16G\Jk	.	.	.	.
4d\)	.	.	.	.
!!LO:LB:g=original
=137	=137	=137	=137	=137
8GG\L	.	2.dd\	.	.
16r	.	.	.	.
(16D\K	.	.	.	.
8.A\)	.	.	.	.
!LO:N:vis=8	!	!	!	!
(16F#X\Jk	.	.	.	.
4d^\)	.	.	.	.
=138	=138	=138	=138	=138
8GG\L	.	4dd\	.	<
16r	.	.	.	.
(16D\K	.	.	.	.
!	!	!LO:TX:b:i:t=espressivo	!	!
8.B-\)	.	4ee-\	.	.
(16G\Jk	.	.	.	[
8d\)	.	4dd\	.	>
8r	.	.	.	.
=139	=139	=139	=139	=139
8GG\L	.	4cc\	.	.
16r	.	.	.	.
(16E-\K	.	.	.	]
8.c\)	.	4b-\	.	.
(16G\Jk	.	.	.	.
8e-\)	.	4a\	.	.
8r	.	.	.	.
=140	=140	=140	=140	=140
8GG\L	.	(4g\	.	.
16r	.	.	.	.
(16D\K	.	.	.	.
8.B-\)	.	4d\	.	.
(16G\Jk	.	.	.	.
!	!	!LO:TX:b:Bi:t=cres_:problem=dynamics with extension lines	!	!LO:HP:t=cres_
4D\)	.	4g\)	.	<
=141	=141	=141	=141	=141
8GG\L	.	(4a\	.	.
16r	.	.	.	.
(16D\K	.	.	.	.
!LO:N:vis=8	!	!	!	!
8.c\)	.	4d\	.	.
(16F#X\Jk	.	.	.	.
4D\)	.	4a\)	.	.
=142	=142	=142	=142	=142
8GG\L	.	(4b-\	.	.
16r	.	.	.	.
16D\K	.	.	.	.
!LO:N:vis=8	!	!	!	!
8.B-\	.	4g\	.	.
16G\Jk	.	.	.	.
8d\	.	4b-\)	.	.
8r	.	.	.	.
=143	=143	=143	=143	=143
*ped	*	*	*	*
8FF\L	.	(4cc\	.	.
16r	.	.	.	.
(16F\K	.	.	.	.
8.c\)	.	4f\	.	.
(16A\Jk	.	.	.	.
4f^<\)	.	8dd\L	.	.
.	.	8ee-\J)	.	[
*Xped	*	*	*	*
=144	=144	=144	=144	=144
.	.	32qqdd/LLL	.	.
.	.	32qqee-/JJJ	.	.
*ped	*	*	*	*
8BB- 8BBB-/	.	(2.ff\	.	f
16r	.	.	.	.
(16F\KL	.	.	.	.
8.d\)	.	.	.	.
(16B-\Jk	.	.	.	.
4f\)	.	.	.	.
=145	=145	=145	=145	=145
*rep	*	*	*	*
8BB- 8BBB-/	.	2dd\)	.	.
16r	.	.	.	.
(16F\KL	.	.	.	.
8.d\)	.	.	.	.
(16B-\Jk	.	.	.	.
4f\)	.	4r	.	.
*Xrep	*	*	*	*
*Xped	*	*	*	*
=146	=146	=146	=146	=146
.	.	32qqdd/LLL	.	.
.	.	32qqee-/JJJ	.	.
*ped	*	*	*	*
8DL 8DD\	.	2.ddtt\	.	.
16r	.	.	.	.
[[<16F#X\K	.	.	.	.
[[8.d\	.	.	.	.
[16A\Jk	.	.	.	.
[4f#X 4d__ 4A_> 4F#^\_>	.	.	.	.
=147	=147	=147	=147	=147
*	*	*tuplet	*	*
!	!	!LO:TUP:a:problem=klamra łukowa	!	!
2.f#X] 2.d] 2.A] 2.F#X\]	.	24cc#X\LL	.	.
.	.	24dd\	.	.
.	.	24cccn\	.	.
.	.	24aa\	.	.
.	.	24ff#X\	.	.
.	.	24dd\	.	.
.	.	24cc#X\	.	.
.	.	24dd\	.	.
.	.	24ee-\	.	.
.	.	24dd\	.	.
!	!	!LO:TX:b:i:t=rall.	!	!
.	.	24ccn\	.	.
.	.	24a\J	.	.
.	.	8.f#X\	.	.
*Xped	*	*	*	*
.	.	16dd\Jk	.	pp
!!LO:PB:g=original
=148	=148	=148	=148	=148
8GG\L	.	2.dd\	.	.
16r	.	.	.	.
16G\K	.	.	.	.
(8.d\	.	.	.	.
16B-\Jk	.	.	.	.
4g\)	.	.	.	.
=149	=149	=149	=149	=149
8GG\L	.	2dd\	.	.
16r	.	.	.	.
16G\K	.	.	.	.
!LO:N:vis=8	!	!	!	!
8.d\	.	.	.	.
16Bn\Jk	.	.	.	.
4f^\	.	4dd\	.	.
=150	=150	=150	=150	=150
8C\L	.	(4dd\	.	<
16r	.	.	.	.
16G\K	.	.	.	.
8.e-\	.	4.ff\	.	[
16c\Jk	.	.	.	>
4g\	.	.	.	.
.	.	8ee-\)	.	]]
=151	=151	=151	=151	=151
*rep	*	*	*	*
8C\L	.	2ee-\	.	p
16r	.	.	.	.
16G\K	.	.	.	.
8.e-\	.	.	.	.
16c\Jk	.	.	.	.
4g\	.	4ee-\	.	.
*Xrep	*	*	*	*
=152	=152	=152	=152	=152
*ped	*	*	*	*
8C\L	.	2.ee-\	.	.
16r	.	.	.	.
(16G\K	.	.	.	.
8.e-\	.	.	.	.
16c\Jk	.	.	.	.
4g\)	.	.	.	.
*Xped	*	*	*	*
=153	=153	=153	=153	=153
*ped	*	*	*	*
8C-\L	.	2ee-\	.	.
16r	.	.	.	.
(16c-\K	.	.	.	.
8.f\	.	.	.	.
16e-\Jk	.	.	.	.
*Xped	*	*	*	*
4a\)	.	4ee-\	.	.
=154	=154	=154	=154	=154
*ped	*	*	*	*
8BB-\L	.	(4ee-\	.	.
16r	.	.	.	.
(16B-\K	.	.	.	.
8.g\	.	4gg\	.	.
16e-\Jk)	.	.	.	.
*Xped	*	*	*	*
4b- 4B-\	.	4ff\)	.	.
=155	=155	=155	=155	=155
!	!	!LO:TX:b:i:t=rall.	!	!
8BB-\L	.	2ff\	.	.
16r	.	.	.	.
16B-\K	.	.	.	.
8.f\	.	.	.	.
[16d\Jk	.	.	.	.
4d] 4A\	.	4ff#X^\	.	.
=156	=156	=156	=156	=156
32qqGG/LLL	.	.	.	.
32qqD/JJJ	.	.	.	.
!	!	!LO:TX:a:i:t=Animez un peu	!	!
(4G\	.	8gg\L	.	.
!	!	!LO:TX:b:i:t=leggiero	!	!
.	.	8ddd 8dd'\	.	.
4D\)	.	8ccc 8dd'\	.	.
.	.	8bb- 8dd'\	.	.
4G^\	.	8aa 8dd'\	.	.
.	.	8ggJ 8dd'\	.	.
=157	=157	=157	=157	=157
(4A\	.	8ff#XL 8dd'\	.	.
.	.	8gg 8dd'\	.	.
4D\)	.	8gg#X 8dd'\	.	.
.	.	8aa 8dd'\	.	.
4A^\	.	(8ee-^\	.	.
.	.	8dd\J)	.	.
=158	=158	=158	=158	=158
(4B-\	.	8dd'\L	.	.
.	.	8ddd 8dd'\	.	.
4G\)	.	8ccc 8dd'\	.	.
.	.	8bb- 8dd'\	.	.
4B-^\	.	8aa 8dd'\	.	.
.	.	8ggJ 8dd'\	.	.
=159	=159	=159	=159	=159
(4c\	.	8aaL 8ff'\	.	.
!	!	!	!	!LO:HP:t=cres
.	.	8bb- 8ff'\	.	<
4F\)	.	8bbn 8ff'\	.	.
.	.	8ccc 8ff'\	.	.
8d\L	.	(8gg-X^\	.	.
8e-\J	.	8ff\J)	.	.
!!LO:LB:g=original
=160	=160	=160	=160	=160
4f\	.	8ff'\L	.	f
.	.	8fff 8ff'\	.	.
4B-\	.	8eee- 8ff'\	.	.
.	.	8ddd 8ff'\	.	.
4d\	.	8ccc 8ff'\	.	.
.	.	8bb-J 8ff'\	.	.
=161	=161	=161	=161	=161
4e-\	.	8aaL 8ff'\	.	.
.	.	8bb- 8ff'\	.	.
4F\	.	8bbn 8ff'\	.	.
.	.	8ccc 8ff'\	.	.
4c\	.	(8gg-X\	.	.
.	.	8ff\J)	.	.
=162	=162	=162	=162	=162
!	!	!	!	!LO:HP:t=dim
4B-\	.	8ff'\L	.	>
.	.	8ddd 8ff'\	.	.
4d\	.	8ccc 8ff'\	.	.
.	.	8bb- 8ff'\	.	.
4B-\	.	8aa 8ff'\	.	.
.	.	8gg'\J	.	.
=163	=163	=163	=163	=163
4A\	.	8ff#XL 8dd'\	.	.
.	.	8gg 8dd'\	.	.
4D\	.	8gg#X 8dd'\	.	.
.	.	8aa 8dd'\	.	.
4d\	.	(8ee-\	.	.
.	.	8dd\J)	.	.
=164	=164	=164	=164	=164
*	*	*^	*	*
8G'\L	.	4gg 4b-\	4ryy	.	.
!	!	!LO:TX:b:Bi:t=poco a poco cres_:problem=dynamics with extension lines	!	!	!LO:HP:t=poco a poco cres_
8d'\	.	.	.	.	<
8c'\	.	2dd/	4dd\	.	.
8B-'\	.	.	.	.	.
8A'\	.	.	4gg\	.	.
8G'\J	.	.	.	.	.
*	*	*v	*v	*	*
=165	=165	=165	=165	=165
8F#X'\L	.	(4aa 4a\	.	.
8G'\	.	.	.	.
8G#X'\	.	4dd\)	.	.
8A'\	.	.	.	.
8E-'\	.	4aa 4a\	.	.
8D'\J	.	.	.	.
=166	=166	=166	=166	=166
8G'\L	.	(4bb- 4b-\	.	.
8d'\	.	.	.	.
8c'\	.	4gg\)	.	.
8B-'\	.	.	.	.
8A'\	.	4bb- 4b-\	.	[
8G'\J	.	.	.	.
=167	=167	=167	=167	=167
8F'\L	.	(4ccc 4cc\	.	.
8A'\	.	.	.	.
8Bn'\	.	4ff\)	.	.
8c'\	.	.	.	.
8A'\	.	8dddL 8dd\	.	.
8F'\J	.	8eee-J 8ee-\	.	.
=168	=168	=168	=168	=168
8D'\L	.	2.fff 2.ff'\	.	ff
8d 8D'\	.	.	.	.
8c 8C'\	.	.	.	.
!LO:TX:a:i:t=appassionato	!	!	!	!
8B-X 8BB-'\	.	.	.	.
8A 8AA'\	.	.	.	.
8GJ 8GG'\	.	.	.	.
=169	=169	=169	=169	=169
8F#XL 8FF#X'\	.	2.fff#X 2.ff#Xt\	.	.
8E- 8EE-'\	.	.	.	.
8D 8DD'\	.	.	.	.
8C 8CC'\	.	.	.	.
8BB- 8BBB-'\	.	.	.	.
8AAJ 8AAA'\	.	.	.	.
=170	=170	=170	=170	=170
8GGL 8GGG'\	.	2aaa 2aa\	.	.
8BB- 8BBB-'\	.	.	.	.
8C#X 8CC#X'\	.	.	.	.
8D 8DD'\	.	.	.	.
8F 8FF'\	.	4ggg 4gg\	.	.
8GJ 8GG'\	.	.	.	.
=171	=171	=171	=171	=171
8CL 8CC'\	.	2fffn 2ff\	.	.
8E- 8EE-'\	.	.	.	.
8F#X 8FF#X'\	.	.	.	.
8G 8GG'\	.	.	.	.
8Bn 8BBn'\	.	4eee- 4ee-\	.	.
8cJ 8C'\	.	.	.	.
!!LO:LB:g=original
=172	=172	=172	=172	=172
8DL 8DD'\	.	2eee- 2ee-\	.	>
8G 8GG'\	.	.	.	.
!LO:ACC:color=grey	!	!	!	!
8B-X 8BB-X'\	.	.	.	.
8d 8D'\	.	.	.	.
8B- 8BB-'\	.	[4ddd [>4dd\	.	]
8GJ 8GG'\	.	.	.	.
=173	=173	=173	=173	=173
2.D 2.DD\	.	8ddd]L 8dd\]	.	.
!	!	!	!	!LO:HP:t=decres
.	.	8ccc#X 8cc#y\	.	>
.	.	8cccn 8ccny\	.	.
!	!	!LO:TX:b:i:t=rall.	!	!
.	.	8aa 8a\	.	.
.	.	8ff#X 8f#y\	.	.
.	.	8ddJ 8d\	.	.
=174	=174	=174	=174	=174
!!!OMD: l'istesso tempo
*k[f#]	*	*k[f#]	*	*
*	*	*^	*	*
(>8qDD/	.	.	.	.	.
!	!	!	!	!	!LO:DY:t=p con grazia
4D\)	.	(>4b/	8b\L	.	p
.	.	.	8f# 8d\)	.	.
4F#\	.	(>4a/	8a\	.	.
.	.	.	8f# 8d\)	.	.
4D\	.	(>4dd/	8dd\	.	.
.	.	.	8f#J 8d\)	.	.
=175	=175	=175	=175	=175	=175
4G\	.	(>2dd/	8dd\L	.	.
.	.	.	8g 8d\)	.	.
4D\	.	.	8g 8d\	.	.
.	.	.	8g 8d\	.	.
4G\	.	4b/	8b\	.	.
.	.	.	8gJ 8d\	.	.
=176	=176	=176	=176	=176	=176
4A\	.	4dd/	8dd\L	.	.
.	.	.	[>8f#J [>8d\	.	.
4D\	.	(8dd/L	4f#] 4d\]	.	.
.	.	8cc/	.	.	.
4A\	.	8f#/	4ryy	.	.
.	.	8ee/J)	.	.	.
=177	=177	=177	=177	=177	=177
4B\	.	4dd/	8dd\L	.	.
.	.	.	8g\	.	.
4G\	.	4b/	8b\	.	.
.	.	.	8g\	.	.
4B\	.	4r	8f#\	.	.
*	*	*	*	*Xbelow	*
.	.	.	8g\J	1	.
=178	=178	=178	=178	=178	=178
*ped	*	*	*	*	*
!	!	!	!LO:N:vis=2.	!	!
2.c 2.G 2.E 2.C\	.	2.gg/	8gg\L	.	f
.	.	.	8ee 8cc 8g\	.	.
.	.	.	8ee 8cc 8g\	.	.
.	.	.	8ee 8cc 8g\	.	.
.	.	.	8ee 8cc 8g\	.	.
.	.	.	8eeJ 8cc 8g\	.	.
*	*	*v	*v	*	*
=179	=179	=179	=179	=179
*^	*	*	*	*
*	*	*	*	*below	*
[2.G/	2GG\	.	(>8ggL 8b/	4 1	.
.	.	.	8aa 8dd/	5 2	.
.	.	.	8gg 8b/	4 1	.
.	.	.	8dd 8g/	5 2	.
.	4BB\	.	8b 8d/	3 1	.
.	.	.	8ddJ 8g/)	5 2	.
=180	=180	=180	=180	=180	=180
*	*	*	*^	*	*
2.G/]	2C\	.	(4dd/	8dd\L	.	.
.	.	.	.	8a 8e\	.	.
.	.	.	4cc/	8cc\	.	>
.	.	.	.	8a 8e\	.	.
.	4C#X\	.	4b/)	8ryy	.	]
.	.	.	.	8e\J	.	.
=181	=181	=181	=181	=181	=181	=181
4F#/	4D\	.	2a/	(>8a\L	.	.
.	.	.	.	8f#\	.	.
4r	2ryy	.	.	8d\	.	.
.	.	.	.	8f#\	.	.
4r	.	.	4ryy	8a\	.	.
.	.	.	.	8dd\J)	.	.
*v	*v	*	*	*	*	*
*	*	*v	*v	*	*
=182	=182	=182	=182	=182
!LO:TX:t=P:problem=mixed beam	!	!	!	!
8DD/L	.	(4b^\	.	p
!	!	!	!	!LO:DY:b=2
(8d\	.	.	.	p
8c#X\	.	4a\)	.	.
8d\	.	.	.	.
8cn\	.	4dd\	.	.
8d\J	.	.	.	.
!!LO:LB:g=original
=183	=183	=183	=183	=183
!LO:TX:t=P:problem=brak zakończenia łuku	!	!	!	!
4B\)	.	(2dd\	.	.
2G\	.	.	.	.
.	.	4b\)	.	.
=184	=184	=184	=184	=184
(4D\	.	(8dd\L	.	.
.	.	8cc\	.	.
4A\	.	8f#\	.	.
.	.	8ee\J)	.	.
4d\)	.	4dd\	.	.
=185	=185	=185	=185	=185
2G\	.	(4dd\	.	.
.	.	4b\)	.	.
8G\L	.	4b\	.	.
8F#\J	.	.	.	.
=186	=186	=186	=186	=186
*	*	*^	*	*
!	!	!LO:TX:b:i:t=espress.	!LO:N:vis=2	!	!
4E\	.	2ee/	8ee\L	.	.
.	.	.	8b 8g\	.	.
4B 4G\	.	.	8b 8g\	.	.
.	.	.	8b 8g\	.	.
4E\	.	4ee/	8ee\	.	.
.	.	.	8bJ 8g\	.	.
*	*	*v	*v	*	*
=187	=187	=187	=187	=187
(8BB\L	.	(8ee\L	.	.
8D\	.	8dd\	.	.
8F#\	.	8ee\	.	.
8B\	.	8ff#\J)	.	.
8F#\	.	4b\	.	.
8D\J)	.	.	.	.
=188	=188	=188	=188	=188
*	*	*^	*	*
!	!	!	!LO:N:vis=2	!	!
4E\	.	2ee/	8ee\L	.	.
.	.	.	8b 8g\	.	.
4B 4G\	.	.	8b 8g\	.	.
.	.	.	[>8bJ [>8g\	.	.
4E\	.	8dd/L	4b] 4g\]	.	.
.	.	8cc#X/J	.	.	.
*	*	*v	*v	*	*
=189	=189	=189	=189	=189
*	*	*ped	*	*
4BB\	.	4b\	.	.
4r	.	[2ff# [>2f#^\	.	.
4d 4B 4F#\	.	.	.	.
=190	=190	=190	=190	=190
4BB\	.	4ff#] 4f#\]	.	.
4r	.	2ff# 2f#^\	.	.
*	*	*Xped	*	*
4d 4B 4G#X\	.	.	.	.
=191	=191	=191	=191	=191
*^	*	*^	*	*
[2.A/	4AA\	.	8f#/L	4f#^\	.	.
.	.	.	8aa'/	.	.	.
.	4D\	.	8g/	4g^\	.	.
.	.	.	8aa'/	.	.	.
.	4F#\	.	8a/	4a^\	.	.
.	.	.	8aa'/J	.	.	.
=192	=192	=192	=192	=192	=192	=192
*	*	*	*	*	*Xbelow	*
!	!LO:N:vis=2	!	!	!	!	!
2.A/_	4A\	.	8cc#X^</L	4cc#\	2	sf
.	.	.	[8aa/J	.	.	.
.	4AA\	.	2aa/]	8cc#\L	.	.
.	.	.	.	8b^\	1	.
.	4E\	.	.	8a^\	1	.
.	.	.	.	8g^\J	1	.
=193	=193	=193	=193	=193	=193	=193
!	!LO:N:vis=2	!	!	!	!	!
2.A/]	4A\	.	8f#/L	4f#\	.	fp
.	.	.	8aa/	.	.	.
.	4F#\	.	8a/	4a\	.	.
.	.	.	8aa/	.	.	.
.	4D\	.	8ff#/	4ff#\	.	.
.	.	.	8aa/J	.	.	.
=194	=194	=194	=194	=194	=194	=194
4A/	2.AA\	.	8ff#/L	4ff#\	.	<
.	.	.	8aa/	.	.	.
4B-X/	.	.	8ee/	4ee\	.	[
.	.	.	8aa/	.	.	>
4A/	.	.	8a/	4a\	.	.
.	.	.	8aa/J	.	.	]]
=195	=195	=195	=195	=195	=195	=195
2.A/	(>4AA\	.	8f#/L	4f#^\	.	.
.	.	.	8aa/	.	.	.
.	4D\	.	8g/	4g^\	.	.
.	.	.	8aa/	.	.	.
.	4F#\)	.	8a/	4a^\	.	.
.	.	.	8aa/J	.	.	.
!!LO:LB:g=original
=196	=196	=196	=196	=196	=196	=196
!	!LO:N:vis=2	!	!	!	!	!
2.A/	(>4A\	.	8cc#X/L	4cc#^<\	.	sf
.	.	.	8aa/J	.	.	.
.	4AA\	.	2aa/	8cc#^\L	.	.
.	.	.	.	8b^\	.	.
.	4E\)	.	.	8a^\	.	.
.	.	.	.	8g^\J	.	.
*v	*v	*	*	*	*	*
*	*	*v	*v	*	*
=197	=197	=197	=197	=197
*	*	*ped	*	*
4D\	.	4dd 4f#\	.	.
.	.	8qee/	.	.
4d 4F#\	.	[2ddTT\	.	.
4r	.	.	.	.
=198	=198	=198	=198	=198
2.r	.	2.ddTTT\_	.	.
=199	=199	=199	=199	=199
*^	*	*^	*	*
!LO:N:vis=2	!	!	!	!	!	!
4D/	2.D\	.	4bb/	2.ddTT>\_>	.	.
4c 4F#/	.	.	4aa/	.	.	.
4c 4F#/	.	.	4ddd/	.	.	.
*	*	*	*Xped	*	*	*
=200	=200	=200	=200	=200	=200	=200
4B/	2.G 2.D\	.	2ddd/	2.ddTTT\_>	.	<
4c/	.	.	.	.	.	.
4d/	.	.	4bb/	.	.	[[
=201	=201	=201	=201	=201	=201	=201
4.e^/	2.D\	.	4.ccc/	2.ddTTT\]	.	.
8d/L	.	.	8bb/L	.	.	.
8c/	.	.	8aa/	.	.	.
8B/J	.	.	8gg/J	.	.	.
=202	=202	=202	=202	=202	=202	=202
(4B/	2D\	.	(4gg/	2.ddTTT\	.	.
4A/)	.	.	4ff#/)	.	.	.
4r	4r	.	4r	.	.	.
=203	=203	=203	=203	=203	=203	=203
!LO:N:vis=2	!	!	!	!	!	!
4D#X/	2.D#\	.	4gg/	[>2.btt>\	.	.
4B 4F#/	.	.	4ff#/	.	.	.
4B 4F#/	.	.	4bb/	.	.	.
=204	=204	=204	=204	=204	=204	=204
4G/	2.E\	.	2bb/	2.bttt\]	.	<
4A/	.	.	.	.	.	.
4B/	.	.	4gg/	.	.	[[
*	*	*	*v	*v	*	*
=205	=205	=205	=205	=205	=205
4.c^/	[2.E\	.	(16ff#\LL	.	sf
.	.	.	16a\	.	.
.	.	.	16cc\	.	.
.	.	.	16ff#\JJ	.	.
.	.	.	16aa\LL	.	.
.	.	.	16cc\	.	.
8B^/L	.	.	16ff#\	.	.
.	.	.	16aa\JJ	.	.
8A^/	.	.	16ccc\LL	.	.
.	.	.	16ff#\	.	.
8G^/J	.	.	16aa\	.	.
.	.	.	16ccc\JJ	.	.
=206	=206	=206	=206	=206	=206
2F#^/	2.E\]	.	16fff#\LL	.	.
.	.	.	16aa\	.	.
.	.	.	16ccc\	.	.
.	.	.	16fff#\JJ	.	.
.	.	.	16aaa\LL	.	.
.	.	.	16ccc\	.	.
.	.	.	16fff#\	.	.
.	.	.	16aaa\JJ	.	.
4A^/	.	.	8cccc'\)	.	.
.	.	.	8r	.	.
=207	=207	=207	=207	=207	=207
4.B^/	2.D#X\	.	16r	.	sf
.	.	.	(16f#\LL	.	.
.	.	.	16b\	.	.
.	.	.	16dd#X\JJ	.	.
.	.	.	16ff#\LL	.	.
.	.	.	16b\	.	.
8A^/L	.	.	16dd#\	.	.
.	.	.	16ff#\JJ	.	.
8G^/	.	.	16bb\LL	.	.
.	.	.	16dd#\	.	.
8F#^/J	.	.	16ff#\	.	.
.	.	.	16bb\JJ)	.	.
=208	=208	=208	=208	=208	=208
2E^/	2.E\	.	16r	.	.
.	.	.	(16b\LL	.	.
.	.	.	16ee\	.	.
.	.	.	16gg\JJ	.	.
.	.	.	16bb\LL	.	.
.	.	.	16ee\	.	.
.	.	.	16gg\	.	.
.	.	.	16bb\JJ	.	.
4G^/	.	.	8eee'\)	.	.
.	.	.	8r	.	.
!!LO:LB:g=original
=209	=209	=209	=209	=209	=209
*ped	*	*	*	*	*
4.A/	[>2.C\	.	16r	.	.
.	.	.	(16cc\LL	.	.
.	.	.	16ee\	.	.
.	.	.	16aa\JJ	.	.
.	.	.	16ccc\LL	.	.
.	.	.	16ee\	.	.
8G/L	.	.	16aa\	.	.
!	!	!	!	!	!LO:HP:t=dim
.	.	.	16ccc\JJ	.	>
8F#/	.	.	16eee\LL	.	.
.	.	.	16aa\	.	.
8G/J	.	.	16ccc\	.	.
.	.	.	16eee\JJ	.	.
=210	=210	=210	=210	=210	=210
*	*	*	*8va	*	*
2A/	2C\]	.	16aaa\LL	.	.
.	.	.	16ccc\	.	.
.	.	.	16eee\	.	.
.	.	.	16aaa\JJ	.	.
.	.	.	16cccc\LL	.	.
.	.	.	16eee\	.	.
.	.	.	16aaa\	.	.
.	.	.	16cccc\JJ	.	.
*Xped	*	*	*	*	*
4A#X/	4ryy	.	8eeee'^<\)	.	.
.	.	.	8r	.	.
*v	*v	*	*	*	*
=211	=211	=211	=211	=211
*ped	*	*	*	*
2B 2BB\	.	2dddd#X\	.	.
*	*	*X8va	*	*
!	!	!LO:TX:a:i:t=loco	!	!
4r	.	4b 4B^/	.	.
=212	=212	=212	=212	=212
2.r	.	4b 4B^/	.	.
.	.	4b 4B^/	.	.
.	.	4b 4B^/	.	.
=213	=213	=213	=213	=213
*^	*	*	*	*
4B/	2.D\	.	16r	.	f
!LO:TX:a:i:t=marcato il canto	!	!	!LO:TX:a:i:t=brillante	!	!
.	.	.	16d/LL	.	.
.	.	.	16e/	.	.
.	.	.	16f#/JJ	.	.
4A/	.	.	16g/LL	.	.
.	.	.	16a/	.	.
.	.	.	16b/	.	.
.	.	.	16cc/JJ	.	.
4d/	.	.	16cc#X/LL	.	.
.	.	.	16dd/	.	.
.	.	.	16ee/	.	.
.	.	.	16dd/JJ	.	.
=214	=214	=214	=214	=214	=214
2d/	2.G\	.	16cc#X\LL	.	.
.	.	.	16dd\	.	.
.	.	.	16ee\	.	.
.	.	.	16ff#\JJ	.	.
.	.	.	16gg\LL	.	.
.	.	.	16aa\	.	.
.	.	.	16bb\	.	.
.	.	.	16ccc#y\JJ	.	.
4B/	.	.	16ddd\LL	.	.
.	.	.	16bb\	.	.
.	.	.	16gg\	.	.
.	.	.	16dd\JJ	.	.
=215	=215	=215	=215	=215	=215
(8d/L	2.D\	.	16r	.	.
.	.	.	16dd\LL	.	.
8c/	.	.	16ee\	.	.
.	.	.	16ff#\JJ	.	.
8F#/	.	.	16gg\LL	.	.
.	.	.	16aa\	.	.
8e/J)	.	.	16bb\	.	.
.	.	.	16ccc\JJ	.	.
4d/	.	.	16ccc#X\LL	.	.
.	.	.	16ddd\	.	.
.	.	.	16eee\	.	.
.	.	.	16ddd\JJ	.	.
=216	=216	=216	=216	=216	=216
4d/	2.G\	.	16ccc#X\LL	.	.
.	.	.	16ddd\	.	.
.	.	.	16eee\	.	.
.	.	.	16fff#\JJ	.	.
*	*	*	*8va	*	*
4B/	.	.	16ggg\LL	.	.
.	.	.	16aaa\	.	.
.	.	.	16bbb\	.	.
.	.	.	16cccc#\JJ	.	.
4G/	.	.	16bbb\LL	.	.
.	.	.	16ggg\	.	.
.	.	.	16ddd\JJ	.	.
*	*	*	*X8va	*	*
.	.	.	16r	.	.
=217	=217	=217	=217	=217	=217
!	!	!	!LO:TX:a:i:t=loco	!	!
2g^:/	4e: 4c: [>4G:\	.	16r	.	.
.	.	.	16ee\LL	.	.
.	.	.	16ff#\	.	.
.	.	.	16ee\JJ	.	.
.	2G\]	.	16gg\LL	.	.
.	.	.	16ff#\	.	.
.	.	.	16aa\	.	.
.	.	.	16gg\JJ	.	.
4e/	.	.	16ccc\LL	.	.
.	.	.	16bb\	.	.
.	.	.	16ddd\	.	.
.	.	.	16ccc\JJ	.	.
=218	=218	=218	=218	=218	=218
2g^/	4B [4G\	.	16ddd\LL	.	.
.	.	.	16ccc#X\	.	.
.	.	.	16eee\	.	.
.	.	.	16ddd\JJ	.	.
.	2G\]	.	16ggg\LL	.	.
.	.	.	16fff#\	.	.
.	.	.	16aaa\	.	.
.	.	.	16ggg\JJ	.	.
4d/	.	.	16bbb\LL	.	.
.	.	.	16aaa\	.	.
.	.	.	16cccc\	.	.
.	.	.	16bbb\JJ	.	.
!!LO:PB:g=original
=219	=219	=219	=219	=219	=219
*	*	*	*8va	*	*
2f# [2d [2c/	[>2G\	.	16dddd\LL	.	.
.	.	.	16cccc\	.	.
.	.	.	16bbb\	.	.
.	.	.	16aaa\JJ	.	.
.	.	.	16ggg\LL	.	.
.	.	.	16fff#\	.	.
.	.	.	16eee\	.	.
.	.	.	16ddd\JJ	.	.
4a	4d] 4c] 4G\]	.	16ccc#X\LL	.	.
.	.	.	16ddd\	.	.
.	.	.	16eee\	.	.
.	.	.	16fff#\JJ	.	.
=220	=220	=220	=220	=220	=220
2g/	2B 2G\	.	16ggg\LL	.	.
.	.	.	16fff#\	.	.
.	.	.	16eee\	.	.
.	.	.	16ddd\JJ	.	.
.	.	.	16ccc\LL	.	.
.	.	.	16bb\	.	.
.	.	.	16aa\	.	.
.	.	.	16gg\JJ	.	.
4r	4ryy	.	16ff#\LL	.	.
.	.	.	16gg\	.	.
.	.	.	16aa\	.	.
.	.	.	16gg\JJ	.	.
*	*	*	*X8va	*	*
*v	*v	*	*	*	*
=221	=221	=221	=221	=221
*^	*	*	*	*
!	!	!	!LO:TX:a:i:t=loco	!	!
2g^/	4c [>4G\	.	16ee\LL	.	sf
.	.	.	16dd#X\	.	.
.	.	.	16ff#\	.	.
.	.	.	16ee\JJ	.	.
.	2G\]	.	16gg\LL	.	.
.	.	.	16ff#\	.	.
.	.	.	16aa\	.	.
.	.	.	16gg\JJ	.	.
4e/	.	.	16ccc\LL	.	.
.	.	.	16bb\	.	.
.	.	.	16ddd\	.	.
.	.	.	16ccc\JJ	.	.
=222	=222	=222	=222	=222	=222
*	*	*	*8va	*	*
2g/	4B [4G\	.	16ddd\LL	.	.
.	.	.	16ccc#X\	.	.
.	.	.	16eee\	.	.
.	.	.	16ddd\JJ	.	.
.	2G\]	.	16ggg\LL	.	.
.	.	.	16fff#\	.	.
.	.	.	16aaa\	.	.
.	.	.	16ggg\JJ	.	.
4d/	.	.	16bbb\LL	.	.
.	.	.	16aaa\	.	.
.	.	.	16cccc\	.	.
.	.	.	16bbb\JJ	.	.
=223	=223	=223	=223	=223	=223
2d/	2.A 2.D\	.	16dddd\LL	.	f
.	.	.	16cccc\	.	.
.	.	.	16aaa\	.	.
.	.	.	16fff#\JJ	.	.
*	*	*	*X8va	*	*
!	!	!	!LO:TX:a:i:t=loco	!	!
.	.	.	16ddd\LL	.	.
.	.	.	16ccc\	.	.
.	.	.	16aa\	.	.
.	.	.	16ff#\JJ	.	.
4c/	.	.	16dd\LL	.	.
.	.	.	16cc\	.	.
.	.	.	16a\	.	.
.	.	.	16f#\JJ	.	.
*v	*v	*	*	*	*
=224	=224	=224	=224	=224
2B 2G\	.	16g\LL	.	.
.	.	16gg\	.	.
.	.	16ff#\	.	.
.	.	16ee\JJ	.	.
.	.	16dd\LL	.	.
.	.	16cc\	.	.
.	.	16b\	.	.
.	.	16a\JJ	.	.
4r	.	16g\LL	.	.
.	.	16f#\	.	.
.	.	16e\	.	.
.	.	16d\JJ	.	.
=225	=225	=225	=225	=225
*	*	*^	*	*
8r	.	(4b/	4d\	.	p
8DD'/L	.	.	.	.	.
!	!	!LO:TX:b:i:t=lusingando	!	!	!
8AA'/	.	4a/	2f#\	.	.
8D'/	.	.	.	.	.
8AA'/	.	4ee/)	.	.	.
8DD'/J	.	.	.	.	.
=226	=226	=226	=226	=226	=226
8r	.	(4ee/	4g\	.	.
8GG'\L	.	.	.	.	.
8D'\	.	4dd/	2b\	.	.
8G'\	.	.	.	.	.
8D'\	.	4gg/)	.	.	.
8GG'\J	.	.	.	.	.
=227	=227	=227	=227	=227	=227
8r	.	(4gg/	4a\	.	.
8DD#X'/L	.	.	.	.	.
8C'/	.	4ff#/	2cc\	.	.
8D#X'/	.	.	.	.	.
8C'/	.	4aa/)	.	.	.
8DD#'/J	.	.	.	.	.
=228	=228	=228	=228	=228	=228
8r	.	(4aa/	4b\	.	.
8EE'/L	.	.	.	.	.
8BB'/	.	4gg/	2ee\	.	.
8E'/	.	.	.	.	.
8BB'/	.	4bb/)	.	.	.
8EE'/J	.	.	.	.	.
!!LO:LB:g=original
=229	=229	=229	=229	=229	=229
8r	.	(4bb/	2.gg 2.dd\	.	.
8FF#'/L	.	.	.	.	.
!	!	!	!LO:TX:b:Bi:t=cres_:problem=dynamics with extension lines	!	!LO:HP:t=cres_
8D'/	.	4ccc/	.	.	<
8F#'/	.	.	.	.	.
8D'/	.	4ddd/)	.	.	.
8FF#'/J	.	.	.	.	.
=230	=230	=230	=230	=230	=230
8r	.	(4ddd/	2.gg 2.ee\	.	.
8EE'/L	.	.	.	.	.
8C'/	.	4ccc/	.	.	.
8E'/	.	.	.	.	.
8C'/	.	4eee/)	.	.	[
8EE'/J	.	.	.	.	.
*	*	*v	*v	*	*
=231	=231	=231	=231	=231
*	*	*ped	*	*
!	!	!	!	!LO:DY:b=1
4D 4DD\	.	[2.fffn [>2.ffn\	.	f
4B 4G 4D\	.	.	.	.
4d 4B 4G\	.	.	.	.
=232	=232	=232	=232	=232
!	!	!	!	!LO:DY:b=2
4fn: 4B: 4G':\	.	16fffnX]LL 16ff\]	.	sf
.	.	(16eee\	.	.
.	.	16ddd\	.	.
*	*	*Xped	*	*
.	.	16eee\JJ	.	.
!LO:N:vis=4	!	!	!	!
2r	.	16fff\LL	.	.
.	.	16eee\	.	.
.	.	16ddd\	.	.
.	.	16ccc\JJ	.	.
.	.	16bb\LL	.	.
.	.	16aa\	.	.
.	.	16gg\	.	.
.	.	16ffny\JJ)	.	.
=233	=233	=233	=233	=233
*	*	*^	*	*
*	*	*ped	*	*	*
4C\	.	8ee\	4ryy	.	f
.	.	8r	.	.	.
*	*	*8va	*	*	*
8e 8c 8G\	.	4eeee/	16cccc\LL	.	sf
.	.	.	16bbb\	.	.
8r	.	.	16cccc\	.	.
.	.	.	16ggg\JJ	.	.
4r	.	4cccc/	16ggg\LL	.	sf
.	.	.	16fff#X\	.	.
.	.	.	16ggg\	.	.
.	.	.	16eee\JJ	.	.
=234	=234	=234	=234	=234	=234
4r	.	4ggg/	16eee\LL	.	sf
.	.	.	16ddd#X\	.	.
.	.	.	16eee\	.	.
.	.	.	16ccc\JJ	.	.
4r	.	4eee/	16ccc\LL	.	sf
.	.	.	16bb\	.	.
.	.	.	16ccc\	.	.
.	.	.	16gg\JJ	.	.
4C 4CC/	.	4ccc/	16gg\LL	.	sf
.	.	.	16ff#X\	.	.
.	.	.	16gg\	.	.
.	.	.	16ee\JJ	.	.
*	*	*	*X8va	*	*
=235	=235	=235	=235	=235	=235
!	!	!LO:TX:a:i:t=loco	!	!	!
4c 4C\	.	4gg/	16ee\LL	.	sf
.	.	.	16dd#X\	.	.
.	.	.	16ee\	.	.
.	.	.	16cc\JJ	.	.
4r	.	4ee/	16cc\LL	.	sf
.	.	.	16b\	.	.
.	.	.	16cc\	.	.
.	.	.	16g\JJ	.	.
4C 4CC/	.	4cc/	16g\LL	.	sf
.	.	.	16f#\	.	.
.	.	.	16g\	.	.
.	.	.	16e\JJ	.	.
=236	=236	=236	=236	=236	=236
4C 4CC\	.	4ee/	16cc\LL	.	sf
.	.	.	16b\	.	.
.	.	.	16cc\	.	.
.	.	.	16g\JJ	.	.
4C 4CC\	.	4gg/	16ee\LL	.	sf
.	.	.	16dd#X\	.	.
.	.	.	16ee\	.	.
.	.	.	16cc\JJ	.	.
4C 4CC\	.	4ee/	16cc\LL	.	sf
.	.	.	16b\	.	.
.	.	.	16cc\	.	.
*	*	*	*Xped	*	*
.	.	.	16g\JJ	.	.
=237	=237	=237	=237	=237	=237
*	*	*ped	*	*	*
2.AA 2.AAA\	.	4r	4ryy	.	.
*	*	*8va	*	*	*
.	.	4eeee/	16cccc\LL	.	.
.	.	.	16bbb\	.	.
.	.	.	16cccc\	.	.
.	.	.	16aaa\JJ	.	.
.	.	4cccc/	16aaa\LL	.	.
.	.	.	16ggg#X\	.	.
.	.	.	16aaa\	.	.
.	.	.	16eee\JJ	.	.
!!LO:LB:g=original
=238	=238	=238	=238	=238	=238
4r	.	4aaa/	16eee\LL	.	.
.	.	.	16ddd#X\	.	.
.	.	.	16eee\	.	.
.	.	.	16ccc\JJ	.	.
4r	.	4eee/	16ccc\LL	.	.
.	.	.	16bb\	.	.
.	.	.	16ccc\	.	.
.	.	.	16aa\JJ	.	.
4AA 4AAA/	.	4ccc/	16aa\LL	.	.
.	.	.	16gg#X\	.	.
.	.	.	16aa\	.	.
.	.	.	16ee\JJ	.	.
=239	=239	=239	=239	=239	=239
4A 4AA\	.	4aa/	16ee\LL	.	.
.	.	.	16dd#X\	.	.
.	.	.	16ee\	.	.
.	.	.	16cc\JJ	.	.
*	*	*	*X8va	*	*
!	!	!LO:TX:a:t=loco	!	!	!
4r	.	4ee/	16cc\LL	.	.
.	.	.	16b\	.	.
.	.	.	16cc\	.	.
.	.	.	16a\JJ	.	.
4AA 4AAA/	.	4cc/	16a\LL	.	.
.	.	.	16g#X\	.	.
.	.	.	16a\	.	.
.	.	.	16e\JJ	.	.
=240	=240	=240	=240	=240	=240
4AA 4AAA/	.	4cc/	16a\LL	.	sf
.	.	.	16g#X\	.	.
.	.	.	16a\	.	.
.	.	.	16e\JJ	.	.
4AA 4AAA/	.	4ee/	16cc\LL	.	sf
.	.	.	16b\	.	.
.	.	.	16cc\	.	.
.	.	.	16a\JJ	.	.
4AA 4AAA/	.	4cc/	16a\LL	.	sf
.	.	.	16g#X\	.	.
.	.	.	16a\	.	.
.	.	.	16e\JJ	.	.
=241	=241	=241	=241	=241	=241
*^	*	*	*	*	*
2.E:/	4BB: 4GG#: 4EE:\	.	(16e\LL	2.ee/	.	sfz
.	.	.	16fn\	.	.	.
.	.	.	16f#X\	.	.	.
.	.	.	16g\JJ	.	.	.
.	4EE\	.	16g#X\LL	.	.	.
.	.	.	16a\	.	.	.
.	.	.	16b-X\	.	.	.
.	.	.	16b\JJ	.	.	.
.	4EE\	.	16cc\LL	.	.	.
.	.	.	16cc#X\	.	.	.
.	.	.	16dd\	.	.	.
.	.	.	16dd#X\JJ	.	.	.
*	*	*	*v	*v	*	*
=242	=242	=242	=242	=242	=242
2.E:/	4C: 4AA: 4EE:\	.	16eeLL 16e\	.	sfz
.	.	.	16cc\	.	.
.	.	.	16a\	.	.
.	.	.	16cc\JJ	.	.
.	4EE\	.	4e/)	.	.
.	4EE\	.	4r	.	.
*v	*v	*	*	*	*
=243	=243	=243	=243	=243
4E 4EE/	.	(16eeeLL 16ee\	.	<
.	.	16bb\	.	.
.	.	16gg#X\	.	.
.	.	16bb\JJ	.	.
4F# 4FF#/	.	4ee\)	.	[ >
4E 4EE/	.	4r	.	]]
=244	=244	=244	=244	=244
4D 4DD^>/	.	8r	.	.
.	.	(>16e/LL	.	.
.	.	16f#X/JJ	.	.
4C 4CC^>/	.	16g#X/LL	.	.
.	.	16a/	.	.
.	.	16b/	.	.
.	.	16cc/JJ	.	.
4BB 4BBB^>/	.	16dd/LL	.	.
.	.	16ee/	.	.
.	.	16ff#/	.	.
!	!	!LO:SIC:v:o=16gg/JJ	!	!
.	.	16gg#JJ	.	.
=245	=245	=245	=245	=245
*^	*	*^	*	*
32qqAAA/LLL	.	5	.	.	.	.
32qqAA/JJJ	.	1	.	.	.	.
2.A/	4ryy	2-1	2.aa/)	16a\LL	.	f
.	.	.	.	16b-X\	.	.
.	.	.	.	16b\	.	.
.	.	.	.	16cc\JJ	.	.
.	4AA\	.	.	16cc#X\LL	.	.
.	.	.	.	16dd\	.	.
.	.	.	.	16dd#X\	.	.
.	.	.	.	16ee\JJ	.	.
.	4AA\	.	.	16ff\LL	.	.
.	.	.	.	16ff#X\	.	.
.	.	.	.	16gg\	.	.
.	.	.	.	16gg#X\JJ	.	.
*	*	*	*v	*v	*	*
=246	=246	=246	=246	=246	=246
2.A:/	4F: 4D: 4AA:\	.	(16aaLL 16a\	.	sfz
.	.	.	16ffn\	.	.
.	.	.	16dd\	.	.
.	.	.	16ff\JJ	.	.
.	4AA\	.	4a\)	.	.
.	4AA\	.	4r	.	.
*v	*v	*	*	*	*
=247	=247	=247	=247	=247
4A 4AA\	.	(16aaaLL 16aa\	.	.
.	.	16eee\	.	.
.	.	16ccc#X\	.	.
.	.	16eee\JJ	.	.
4B-X 4BB-y^\	.	8aa'\)	.	.
.	.	8r	.	.
4A 4AA^\	.	4r	.	.
!!LO:LB:g=original
=248	=248	=248	=248	=248
4G 4GG^\	.	8r	.	.
.	.	16a\LL	.	.
.	.	16bn\JJ	.	.
4Fn 4FFny^\	.	16cc#X\LL	.	.
.	.	16dd\	.	.
.	.	16ee\	.	.
.	.	16ff\JJ	.	.
4E 4EE^\	.	16gg\LL	.	.
.	.	16aa\	.	.
.	.	16bb\	.	.
.	.	16ccc#X\JJ	.	.
=249	=249	=249	=249	=249
*^	*	*^	*	*
*	*	*above	*	*	*	*
32qqDD/LLL	.	5	.	.	.	.
32qqD/JJJ	.	3	.	.	.	.
!	!	!	!	!	!	!LO:DY:b=2
2.d/	4ryy	2-1	(16dd\LL	2.ddd/	.	sfz
.	.	.	16ee-X\	.	.	.
.	.	.	16ee\	.	.	.
.	.	.	16ff\JJ	.	.	.
.	4D\	.	16ff#X\LL	.	.	.
.	.	.	16gg\	.	.	.
.	.	.	16gg#X\	.	.	.
.	.	.	16aa\JJ	.	.	.
.	4D\	.	16bb-X\LL	.	.	.
.	.	.	16bb\	.	.	.
.	.	.	16ccc\	.	.	.
.	.	.	16ccc#X\JJ	.	.	.
*	*	*	*v	*v	*	*
=250	=250	=250	=250	=250	=250
2.d:/	4B-: 4G: 4D:\	.	16dddLL 16dd\	.	sfz
.	.	.	16bb-X\	.	.
.	.	.	16gg\	.	.
.	.	.	16bb-\JJ	.	.
.	4D\	.	4dd'\)	.	.
.	4D\	.	4r	.	.
=251	=251	=251	=251	=251	=251
*	*	*	*^	*	*
2.D/	4AA 4FF#X 4DD\	.	(16dd/LL	4d\	.	sfz
.	.	.	16a/	.	.	.
.	.	.	16f#X/	.	.	.
.	.	.	16a/JJ	.	.	.
.	4DD\	.	4d/)	2ryy	.	.
.	4DD\	.	4r	.	.	.
=252	=252	=252	=252	=252	=252	=252
2.BB-X 2.GG/	4DD\	.	(>16d/LL	4D</	.	.
.	.	.	16B-X/	.	.	.
.	.	.	16G/	.	.	.
.	.	.	16B-/JJ	.	.	.
.	4DD\	.	4D</)	2ryy	.	.
.	4DD\	.	4r<	.	.	.
*v	*v	*	*	*	*	*
=253	=253	=253	=253	=253	=253
16DD\LL	.	(16D</LL	4d/	.	ff
16EE-X\	.	16E-X</	.	.	.
16EE\	.	16E</	.	.	.
16FF\JJ	.	16F</JJ	.	.	.
16FF#X\LL	.	16F#X</LL	2ryy	.	.
16GG\	.	16G</	.	.	.
16GG#X\	.	16G#X</	.	.	.
16AA\JJ	.	16A</JJ	.	.	.
16BB-X\LL	.	16B-X</LL	.	.	.
16BB\	.	16B</	.	.	.
16C\	.	16c</	.	.	.
16C#X\JJ	.	16c#X</JJ	.	.	.
*	*	*v	*v	*	*
=254	=254	=254	=254	=254
16D\LL	.	16d\LL	.	.
16E-X\	.	16e-X\	.	.
16E\	.	16e\	.	.
16F\JJ	.	16f\JJ	.	.
16F#X\LL	.	16f#X\LL	.	.
16G\	.	16g\	.	.
16G#X\	.	16g#X\	.	.
16A\JJ	.	16a\JJ	.	.
16B-X\LL	.	16b-X\LL	.	.
16B\	.	16b\	.	.
16c\	.	16cc\	.	.
16c#X\JJ	.	16cc#X\JJ	.	.
=255	=255	=255	=255	=255
*ped	*	*	*	*
(2d\	.	24dd\LL	.	.
.	.	24ee-X\	.	.
.	.	24ee\	.	.
.	.	24ff\	.	.
.	.	24ff#X\	.	.
.	.	24gg\	.	.
.	.	24gg#X\	.	.
.	.	24aa\	.	.
.	.	24aa#X\	.	.
.	.	24bb\	.	.
.	.	24ccc\	.	.
.	.	24ccc#X\JJ	.	.
4D\)	.	8ddd\)	.	.
*Xped	*	*	*	*
.	.	8r	.	.
!!LO:LB:g=original
=256	=256	=256	=256	=256
*	*	*Xtuplet	*below	*
(2c\	.	24r	.	.
.	.	(24d/LL	1	.
.	.	24a/	.	.
.	.	24f#/	.	.
.	.	24dd/	5	.
.	.	24dd/JJ	1	.
!	!	!LO:TX:b:i:t=poco a poco rall:dur=8q:ext=ud:problem=text with extension lines	!	!
.	.	24aa\LL	3	.
.	.	24ff#\	2	.
.	.	24ddd\	5	.
.	.	24ddd\	1	.
.	.	24aaa\	3	.
.	.	24fff#\JJ	2	.
*	*	*8va	*	*
4D\)	.	8dddd\)	.	.
*	*	*X8va	*	*
.	.	8r	.	.
=257	=257	=257	=257	=257
!	!	!LO:TX:a:i:t=loco	!	!
(2B-X\	.	24r	.	.
.	.	(24d/LL	.	.
.	.	24b-X/	.	.
.	.	24g/	.	.
.	.	24dd/	5	.
.	.	24dd/JJ	1	.
.	.	24bb-X\LL	.	.
.	.	24gg\	.	.
.	.	24ddd\	.	.
.	.	24ddd\	.	.
*	*	*8va	*	*
.	.	24bbb-\	.	.
.	.	24ggg\JJ	.	.
4D\)	.	8dddd'\)	.	.
*	*	*X8va	*	*
.	.	8r	.	.
=258	=258	=258	=258	=258
!	!	!LO:TX:a:i:t=loco	!	!
(2A\	.	24r	.	.
.	.	24d/LL	.	.
.	.	24cc/	.	.
.	.	24f#X/	.	.
.	.	24dd/	5	.
.	.	24dd/JJ	1	.
.	.	24ccc\LL	.	.
.	.	24ff#X\	.	.
.	.	24ddd\	5	.
.	.	24ddd\	1	.
*	*	*8va	*	*
.	.	24cccc\	.	.
.	.	24fff#\JJ	.	.
4D\)	.	8dddd\	.	.
*	*	*X8va	*	*
.	.	8r	.	.
=259||	=259||	=259||	=259||	=259||
*k[b-e-]	*	*k[b-e-]	*	*
*M3/4	*	*M3/4	*	*
*	*	*^	*	*
!	!	!LO:TX:b:i:t=Meno mosso ma ben marcato	!	!	!LO:DY:b=1
8B-:L 8D: 8GG:\	.	8.r	2.d\	.	f
16r	.	.	.	.	.
!	!	!LO:N:vis=8	!	!	!
(16D\K	.	(<16dd/KL	.	.	.
8.B-\)	.	8.bb-/)	.	.	.
(16G\Jk	.	(<16gg/Jk	.	.	.
4d\)	.	4ddd/)	.	.	.
=260	=260	=260	=260	=260	=260
8B-:L 8D: 8GG:\	.	8.r	2.d\	.	.
16r	.	.	.	.	.
(16D\K	.	(<16dd/KL	.	.	.
8.B-\)	.	8.bb-/)	.	.	.
(16G\Jk	.	(<16gg/Jk	.	.	.
4d\)	.	4ddd/)	.	.	.
=261	=261	=261	=261	=261	=261
4B-: 4D: 4GG:\	.	8.r	4d\	.	.
.	.	(<16dd/KL	.	.	.
2ryy	.	8.bb-/)	4e-^< 4E-<\	.	.
.	.	(<16gg/Jk	.	.	.
.	.	4ddd/)	4d^< 4D<\	.	.
=262	=262	=262	=262	=262	=262
4F#X: 4D: 4C: 4AA: 4FF#y:\	.	8.r	4c^\	.	.
.	.	(<16dd/KL	.	.	.
2ryy	.	8.ff#X/)	4B-^ 4BB-<\	.	.
.	.	(<16dd/Jk	.	.	.
.	.	4ddd/)	4A^ 4AA<\	.	.
*	*	*v	*v	*	*
=263	=263	=263	=263	=263
*^	*	*	*	*
4G^/	4D: 4GG:\	.	8.r	.	.
.	.	.	(16dd/KL	.	.
4D\	2ryy	.	8.bb-/)	.	.
.	.	.	(16gg/Jk	.	.
8.B-\L	.	.	4ddd/)	.	.
16G\Jk	.	.	.	.	.
!!LO:LB:g=original
=264	=264	=264	=264	=264	=264
4A^/	8D: 8DD:\	.	8.r	.	.
.	8r	.	.	.	.
.	.	.	(16dd/KL	.	.
2ryy	4D\	.	8.ccc/)	.	.
.	.	.	(16aa/Jk	.	.
.	8c\L	.	4ddd/)	.	.
.	8A\J	.	.	.	.
=265	=265	=265	=265	=265	=265
4B-^/	8G: 8GG:\	.	8.r	.	.
.	8r	.	.	.	.
.	.	.	(16dd/KL	.	.
2ryy	4D\	.	8.bb-/)	.	.
.	.	.	(16gg/Jk	.	.
.	8G\L	.	4ddd/)	.	.
.	8B-\J	.	.	.	.
=266	=266	=266	=266	=266	=266
4c^/	8F: 8FF:\	.	8.r	.	.
.	8r	.	.	.	.
.	.	.	(16ff/KL	.	.
2ryy	4F\	.	8.ccc/)	.	.
.	.	.	(16aa/Jk	.	.
.	8d/L	.	4fff/)	.	<
.	8e-/J	.	.	.	[[
=267	=267	=267	=267	=267	=267
*ped	*	*	*	*	*
2.f 2.d/	8BB- 8BBB-\	.	8.r	.	f
.	16r	.	.	.	.
.	(>16F\KL	.	(16ff/KL	.	.
!	!	!	!LO:N:vis=8	!	!
.	8.d\)	.	8.ddd/)	.	.
.	(>16B-\Jk	.	(16bb-/Jk	.	.
.	4f\)	.	4fff/)	.	.
*Xped	*	*	*	*	*
=268	=268	=268	=268	=268	=268
*ped	*	*	*	*	*
!LO:N:vis=2	!LO:N:vis=4	!	!	!	!
2.f#X 2.d/	8D 8DD\	.	8.r	.	.
.	16r	.	.	.	.
.	(>16A\KL	.	(16ff#X/KL	.	.
.	8.f#\)	.	8.ddd/)	.	.
.	(>16d\Jk	.	(16aa/Jk	.	.
.	4a\)	.	4fff#y/)	.	.
*Xped	*	*	*	*	*
=269	=269	=269	=269	=269	=269
*ped	*	*	*	*	*
2a/	8G 8GG\	.	8.r	.	.
.	16r	.	.	.	.
.	16G\KL	.	(16gg/KL	.	.
.	8.d\	.	8.ddd/)	.	.
.	16B-\Jk	.	(16bb-/Jk	.	.
4g/	4g\	.	4ggg/)	.	.
*Xped	*	*	*	*	*
=270	=270	=270	=270	=270	=270
*ped	*	*	*	*	*
4fn/	8C 8CC\	.	8.r	.	.
.	16r	.	.	.	.
.	(>16G\KL	.	(16ee-/KL	.	.
2e-/	8.e-\)	.	8.ccc/)	.	.
.	(>16c\Jk	.	(16gg/Jk	.	.
.	4g\)	.	4eee-/)	.	.
*Xped	*	*	*	*	*
=271	=271	=271	=271	=271	=271
*ped	*	*	*	*	*
2e-/	8D 8DD\	.	8.r	.	>
.	16r	.	.	.	.
.	(>16D\KL	.	(16dd/KL	.	]
.	8.B-\)	.	8.bb-/)	.	.
.	(>16G\Jk	.	(16gg/Jk	.	.
4d/	4d\)	.	4ddd/)	.	.
*Xped	*	*	*	*	*
=272	=272	=272	=272	=272	=272
*ped	*	*	*	*	*
4e-/	4ryy	.	8.r	.	>
.	.	.	(16dd/KL	.	.
.	(8qD/	.	.	.	.
4d/	2D\)	.	8.aa/)	.	]
!	!	!	!LO:TX:b:i:t=rall.	!	!
.	.	.	(16ff#X/Jk	.	.
8c/L	.	.	8ddd/)	.	.
8A/J	.	.	8r	.	.
*Xped	*	*	*	*	*
*v	*v	*	*	*	*
!!LO:PB:g=original
=273	=273	=273	=273	=273
8G 8GG\	.	8.r	.	.
*ped	*	*	*	*
16r	.	.	.	.
16G\KL	.	(16g\KL	.	pp
8.d\	.	8.dd\)	.	.
16B-\Jk	.	(16b-\Jk	.	.
4g\	.	4gg\)	.	.
=274	=274	=274	=274	=274
*rep	*	*rep	*	*
!	!	!LO:TX:b:i:t=morendo	!	!
8G 8GG\	.	8.r	.	.
16r	.	.	.	.
16G\KL	.	(16g\KL	.	.
8.d\	.	8.dd\)	.	.
16B-\Jk	.	(16b-\Jk	.	.
4g\	.	4gg\)	.	.
*Xrep	*	*Xrep	*	*
*	*	*Xped	*	*
=275||	=275||	=275||	=275||	=275||
!!!OMD: piú Allegro et ben legato
*k[b-e-a-]	*	*k[b-e-a-]	*	*
*M3/4	*	*M3/4	*	*
*	*	*^	*	*
*ped	*	*	*	*	*
!	!	!	!	!	!LO:DY:t=p. dolce
4E- 4EE-'\	.	2g/	(>16g\LL	.	p
.	.	.	16b-\	.	.
.	.	.	16ee-\	.	.
.	.	.	16gg\JJ)	.	.
(8e-\L	.	.	(>16g\LL	.	.
.	.	.	16a-\	.	.
8B-\J	.	.	16an\	.	.
.	.	.	16b-\JJ	.	.
8E-\)	.	4ryy	16cc\LL	.	.
.	.	.	16b-\	.	.
8r	.	.	16g\	.	.
.	.	.	16gg\JJ)	.	.
=276	=276	=276	=276	=276	=276
*rep	*	*rep	*rep	*	*
4E- 4EE-'\	.	2g/	(>16g\LL	.	.
.	.	.	16b-\	.	.
.	.	.	16ee-\	.	.
.	.	.	16gg\JJ)	.	.
(8e-\L	.	.	(>16g\LL	.	.
.	.	.	16a-\	.	.
8B-\J	.	.	16an\	.	.
.	.	.	16b-\JJ	.	.
8E-\)	.	4ryy	16cc\LL	.	.
.	.	.	16b-\	.	.
8r	.	.	16g\	.	.
.	.	.	16gg\JJ)	.	.
*Xrep	*	*Xrep	*Xrep	*	*
*	*	*v	*v	*	*
=277	=277	=277	=277	=277
4E- 4EE-'\	.	(16b-\LL	.	.
.	.	16bb-\	.	.
.	.	16gg\	.	.
.	.	16ee-\JJ	.	.
(8e-\L	.	16b-\LL	.	.
.	.	16gg\	.	.
8B-\J)	.	16ee-\	.	.
.	.	16b-\JJ	.	.
8E-'\	.	16g\LL	.	.
.	.	16b-\	.	.
8r	.	16ee-\	.	.
*Xped	*	*	*	*
.	.	16gg\JJ)	.	.
=278	=278	=278	=278	=278
*ped	*	*	*	*
4BB-'\	.	4ff'\	.	.
(8f\L	.	2b-^\	.	.
8d\J)	.	.	.	.
4B-^\	.	.	.	.
*Xped	*	*	*	*
=279	=279	=279	=279	=279
*	*	*^	*	*
*ped	*	*	*	*	*
4E-\	.	2g/	(>16g\LL	.	.
.	.	.	16b-\	.	.
.	.	.	16ee-\	.	.
.	.	.	16gg\JJ	.	.
(8e-\L	.	.	16g\LL	.	.
.	.	.	16a-\	.	.
8B-\J	.	.	16an\	.	.
.	.	.	16b-\JJ	.	.
8E-\)	.	4ryy	16cc\LL	.	.
.	.	.	16b-\	.	.
8r	.	.	16g\	.	.
.	.	.	16gg\JJ)	.	.
=280	=280	=280	=280	=280	=280
*rep	*	*	*	*	*
4E-\	.	2g/	(>16g\LL	.	.
.	.	.	16b-\	.	.
.	.	.	16ee-\	.	.
.	.	.	16gg\JJ	.	.
(8e-\L	.	.	16g\LL	.	.
.	.	.	16a-\	.	.
8B-\J	.	.	16an\	.	.
.	.	.	16b-\JJ	.	.
8E-\)	.	4ryy	16cc\LL	.	.
.	.	.	16b-\	.	.
8r	.	.	16g\	.	.
.	.	.	16gg\JJ)	.	.
*Xrep	*	*	*	*	*
*Xped	*	*	*	*	*
!!LO:LB:g=original
=281	=281	=281	=281	=281	=281
4FF'/	.	2b-/	16b-\LL	.	.
.	.	.	16dd\	.	.
.	.	.	16ff\	.	.
.	.	.	16bb-\JJ	.	.
(8d\L	.	.	16b-\LL	.	.
.	.	.	16bb-\	.	.
8B-\J)	.	.	16b-\	.	.
.	.	.	16bb-\JJ	.	.
4e- 4F\	.	4an/	16a\LL	.	.
.	.	.	16aan\	.	.
.	.	.	16a\	.	.
.	.	.	16aa\JJ	.	.
*	*	*v	*v	*	*
=282	=282	=282	=282	=282
4BB-\	.	16b-\LL	.	.
.	.	16dd\	.	.
.	.	16ff\	.	.
.	.	16bb-\JJ	.	.
(8F\L	.	2b-^\	.	.
8D\J	.	.	.	.
4BB-\)	.	.	.	.
=283	=283	=283	=283	=283
*	*	*^	*	*
*ped	*	*	*	*	*
4A- 4AA-\	.	2cc/	(>16cc\LL	.	.
.	.	.	16ee-\	.	.
.	.	.	16aa-X\	.	.
.	.	.	16ccc\JJ)	.	.
(4e- 4c\	.	.	(>16cc\LL	.	.
.	.	.	16dd-X\	.	.
.	.	.	16dd\	.	.
.	.	.	16ee-\JJ	.	.
4A-\)	.	4ryy	16ff\LL	.	.
.	.	.	16ee-\	.	.
.	.	.	16cc\	.	.
.	.	.	16ccc\JJ)	.	.
=284	=284	=284	=284	=284	=284
*rep	*	*rep	*rep	*	*
4A- 4AA-\	.	2cc/	(>16cc\LL	.	.
.	.	.	16ee-\	.	.
.	.	.	16aa-\	.	.
.	.	.	16ccc\JJ)	.	.
(4e- 4c\	.	.	(>16cc\LL	.	.
.	.	.	16dd-X\	.	.
.	.	.	16dd\	.	.
.	.	.	16ee-\JJ	.	.
4A-\)	.	4ryy	16ff\LL	.	.
.	.	.	16ee-\	.	.
.	.	.	16cc\	.	.
.	.	.	16ccc\JJ)	.	.
*Xrep	*	*Xrep	*Xrep	*	*
*Xped	*	*	*	*	*
*	*	*v	*v	*	*
=285	=285	=285	=285	=285
*ped	*	*	*	*
4E- 4EE-/	.	(16ee-\LL	.	.
.	.	16gg\	.	.
.	.	16bb-\	.	.
.	.	16eee-\JJ)	.	.
(8e-\L	.	16ee-\LL	.	.
.	.	16eee-\	.	.
8B-\J	.	16ee-\	.	.
.	.	16eee-\JJ	.	.
8G\)	.	16dd\LL	.	.
.	.	16ddd\	.	.
8r	.	16cc\	.	.
.	.	16ccc\JJ	.	.
=286	=286	=286	=286	=286
*rep	*	*	*	*
4E- 4EE-/	.	(16b-\LL	.	.
.	.	16ee-\	.	.
.	.	16gg\	.	.
.	.	16bb-\JJ)	.	.
(8e-\L	.	4b-\	.	.
8B-\J	.	.	.	.
8G\)	.	8cc\L	.	.
8r	.	8b-\J	.	.
*Xrep	*	*	*	*
*Xped	*	*	*	*
=287	=287	=287	=287	=287
*ped	*	*	*	*
4B- 4BB-\	.	(16a-\LL	.	.
.	.	16b-\	.	.
.	.	16dd\	.	.
.	.	16ff\JJ	.	.
*	*	*8va	*	*
(8f\L	.	16aa-\LL	.	.
.	.	16bb-\	.	.
8d\J	.	16ddd\	.	.
.	.	16fff\JJ	.	.
8B-\)	.	8aaa-\)	.	.
*	*	*X8va	*	*
8r	.	8r	.	.
*Xped	*	*	*	*
=288	=288	=288	=288	=288
*ped	*	*	*	*
4E- 4EE-\	.	16r	.	.
.	.	(16g\LL	.	.
.	.	16b-\	.	.
.	.	16ee-\JJ	.	.
*	*	*8va	*	*
(8g\L	.	16gg\LL	.	.
.	.	16bb-\	.	.
8e-\J	.	16eee-\	.	.
.	.	16fff\JJ	.	.
8B-\)	.	8ggg'\)	.	.
*	*	*X8va	*	*
8r	.	8r	.	.
*Xped	*	*	*	*
=289	=289	=289	=289	=289
4BB-\	.	(16f\LL	.	.
.	.	16b-\	.	.
.	.	16dd\	.	.
.	.	16ff\JJ	.	.
4d 4B-\	.	16bb-\LL	.	.
.	.	16ddd\	.	.
.	.	16fff\	.	.
.	.	16ddd\JJ	.	.
4F\	.	16bb-\LL	.	.
.	.	16ff\	.	.
.	.	16dd\	.	.
.	.	16b-\JJ)	.	.
=290	=290	=290	=290	=290
4BB-\	.	16f\LL	.	<
.	.	16b-\	.	.
.	.	16dd\	.	.
.	.	16ff\JJ	.	.
4r	.	16f\LL	.	.
.	.	16ff\	.	.
.	.	16f\	.	.
.	.	16ff\JJ	.	.
4d 4B-\	.	16f#X\LL	.	.
.	.	16ff#y\	.	.
.	.	16f#\	.	.
.	.	16ff#\JJ	.	[[
!!LO:LB:g=original
=291	=291	=291	=291	=291
4E- 4EE-'/	.	16r	.	.
.	.	(16g\LL	.	.
.	.	16b-\	.	.
.	.	16ee-\JJ	.	.
(8e-\L	.	16gg\LL	.	.
.	.	16bb-\	.	.
8B-\J	.	16eee-\	.	.
.	.	16bb-\JJ	.	.
8E-\)	.	8ggg'\)	.	.
8r	.	8r	.	.
=292	=292	=292	=292	=292
*rep	*	*rep	*	*
4E- 4EE-'/	.	16r	.	.
.	.	(16g\LL	.	.
.	.	16b-\	.	.
.	.	16ee-\JJ	.	.
(8e-\L	.	16gg\LL	.	.
.	.	16bb-\	.	.
8B-\J	.	16eee-\	.	.
.	.	16bb-\JJ	.	.
8E-\)	.	8ggg'\)	.	.
8r	.	8r	.	.
*Xrep	*	*Xrep	*	*
=293	=293	=293	=293	=293
4E- 4EE-'\	.	(16bb-\LL	.	.
.	.	16bbb-\	.	.
.	.	16ggg\	.	.
.	.	16eee-\JJ	.	.
(8e-\L	.	16bb-\LL	.	.
.	.	16ggg\	.	.
8B-\J	.	16eee-\	.	.
.	.	16bb-\JJ	.	.
8E-\)	.	16gg\LL	.	.
.	.	16bb-\	.	.
8r	.	16eee-\	.	.
.	.	16ggg\JJ)	.	.
*Xped	*	*	*	*
=294	=294	=294	=294	=294
*ped	*	*	*	*
4BB- 4BBB-/	.	4fff'\	.	.
.	.	8qbb-/	.	.
(8f\L	.	2bbb-^<\	.	.
8d\J	.	.	.	.
8B-\)	.	.	.	.
*Xped	*	*	*	*
8r	.	.	.	.
=295	=295	=295	=295	=295
*ped	*	*	*	*
4EE-/	.	16r	.	.
.	.	(16g\LL	.	.
.	.	16b-\	.	.
.	.	16ee-\JJ	.	.
(4e- 4B-\	.	16gg\LL	.	.
.	.	16bb-\	.	.
.	.	16eee-\	.	.
.	.	16bb-\JJ	.	.
8E-\)	.	8ggg'\)	.	.
*Xped	*	*	*	*
8r	.	8r	.	.
=296	=296	=296	=296	=296
*ped	*	*	*	*
4AA-/	.	16r	.	.
.	.	(16cc\LL	.	.
.	.	16ff\	.	.
.	.	16aa-\JJ	.	.
(4f 4c\	.	16ccc\LL	.	.
.	.	16fff\	.	.
.	.	16aaa-\	.	.
.	.	16fff\JJ	.	.
8A-\)	.	8cccc'\)	.	.
8r	.	8r	.	.
*Xped	*	*	*	*
=297	=297	=297	=297	=297
*ped	*	*	*	*
4BB-\	.	16r	.	.
.	.	16d/LL	.	.
.	.	16f/	.	.
.	.	16a-/JJ	.	.
4B- 4A- 4F\	.	16b-\LL	.	.
.	.	16dd\	.	.
.	.	16ff\	.	.
.	.	16aa-\JJ	.	.
4BB-/	.	16bb-\LL	.	.
.	.	16ddd\	.	.
.	.	16ggg\	.	.
*Xped	*	*	*	*
.	.	16fff\JJ	.	.
=298	=298	=298	=298	=298
4E- 4EE-\	.	4eee-\	.	.
4r	.	4r	.	.
!	!	!	!	!LO:DY:rj
4en 4En^\	.	4gg 4cc#X 4b- 4g\	.	f
=299	=299	=299	=299	=299
4f 4F^\	.	4ff 4dd 4b- 4f\	.	.
4f 4F^\	.	4bb- 4ff 4dd 4b-\	.	.
4f 4F^\	.	4ddd 4bb- 4ff 4dd\	.	.
!!LO:LB:g=original
=300	=300	=300	=300	=300
2f: 2e-: 2c: 2F:;<\	.	4fff 4ccc 4aa- 4ff;\	.	sfz
*	*	*ped	*	*
*	*	*8va	*	*
*	*	*cue	*	*
.	.	(48eeee-\LLL	3	f
.	.	48dddd\	.	.
.	.	48ffff\	.	.
.	.	48eeee-\	.	.
.	.	48dddd\	.	.
.	.	48cccc\JJJ	.	.
.	.	48bbb-\LLL	3	.
.	.	48aaa-\	.	.
.	.	48cccc\	.	.
.	.	48bbb-\	.	.
.	.	48aaa-\	.	.
.	.	48ggg\JJJ	.	.
1r	.	36fff\LLL	.	.
.	.	36ggg\	.	.
.	.	36fff\	.	.
.	.	36eeen\	.	.
.	.	36fff\	.	.
.	.	36fff#X\	.	.
.	.	36aaa-\	.	.
.	.	36ggg\	.	.
*	*	*Xped	*	*
.	.	36fff\JJJ	.	.
.	.	48eee\LLL	.	.
.	.	48ddd\	.	.
.	.	48fff\	.	.
.	.	48eee\	.	.
.	.	48ddd\	.	.
.	.	48ccc\JJJ	.	.
.	.	48bb-\LLL	.	.
.	.	48aa-\	.	.
.	.	48ccc\	.	.
.	.	48bb-\	.	.
.	.	48aa-\	.	.
.	.	48gg\JJJ	.	.
*	*	*X8va	*	*
!	!	!LO:TX:a:i:t=loco	!	!
.	.	36ff\LLL	.	.
.	.	36gg\	.	.
.	.	36ff\	.	.
.	.	36een\	.	.
.	.	36ff\	.	.
.	.	36ff#X\	.	.
.	.	36aa-\	.	.
.	.	36gg\JJJ	.	.
.	.	36ff\LLL	.	.
.	.	48ee\	.	.
.	.	48dd\	.	.
.	.	48ff\	.	.
.	.	48ee\	.	.
.	.	48dd\	.	.
.	.	48cc\JJJ	.	.
.	.	48b-\LLL	.	.
.	.	48a-\	.	.
.	.	48cc\	.	.
!	!	!LO:TX:b:i:t=les 2	!	!
.	.	48b-\	.	.
.	.	48a-\	.	.
.	.	48g\JJJ)	.	.
*	*	*ped	*	*
*	*	*Xcue	*	*
!LO:N:vis=2	!	!	!	!
1e- 1c 1A- 1F;<\	.	([8f\L	.	pp
.	.	16f\L]	.	.
!	!	!LO:TX:b:i:t=lento	!	!
.	.	16a-\	.	.
.	.	16cc\	.	.
.	.	16b-\JJ	.	.
.	.	8a-\L	.	.
.	.	8cc\	.	.
.	.	8.gg\	.	.
.	.	16ff\Jk	.	.
.	.	2ff;\)	.	.
*	*	*Xped	*	*
4.ryy	.	.	.	.
!!LO:LB:g=original
=301||	=301||	=301||	=301||	=301||
!!!OMD: Allegro grazioso
*k[b-e-]	*	*k[b-e-]	*	*
*M6/8	*	*M6/8	*	*
*^	*	*	*	*
*ped	*	*	*	*	*
!	!	!	!LO:TX:a:i:t=Finale	!	!
!	!	!	!LO:TX:t=P:problem=skreślony takt	!	!
16BB-/	16BB-\LL	.	8r	.	.
!LO:N:vis=4.	!	!	!	!	!
8.F/	16F\	.	.	.	.
.	16B-\	.	8r	.	.
.	16d\JJ	.	.	.	.
8r	8ryy	.	(16f\LL	.	.
.	.	.	16ff\J	.	.
16ryy	16BB-\LL	.	8dd'\)J	.	.
!LO:N:vis=4	!	!	!	!	!
8.F/	16F\	.	.	.	.
.	16B-\	.	8r	.	.
.	16d\JJ	.	.	.	.
8r	8ryy	.	(16f\LL	.	.
.	.	.	16ff\JJ	.	.
=302	=302	=302	=302	=302	=302
16BB-/	16BB-\LL	.	16g\LL	.	.
!LO:N:vis=4.	!	!	!	!	!
8.F/	16F\	.	16gg\	.	.
.	16B-\	.	16f\	.	.
.	16d\JJ	.	16ff\	.	.
8r	8ryy	.	16en\	.	.
.	.	.	16eeny\JJ)	.	.
16ryy	16BB-\LL	.	16f\LL	.	.
!LO:N:vis=4	!	!	!	!	!
8.F/	16F\	.	16ff\JJ	.	.
.	16B-\	.	8r	.	.
.	16d\JJ	.	.	.	.
*Xped	*	*	*	*	*
8r	8ryy	.	(16f\LL	.	.
.	.	.	16dd\J	.	.
=303	=303	=303	=303	=303	=303
16BB-/	16BB-\LL	.	8cc\J)	.	.
!LO:N:vis=4	!	!	!	!	!
8.F/	16F\	.	.	.	.
.	16A\	.	8r	.	.
.	16c\JJ	.	.	.	.
8ryy	8r	.	(16f\LL	.	.
.	.	.	16dd\J	.	.
16ryy	16BB-\LL	.	8b-\J)	.	.
!LO:N:vis=4	!	!	!	!	!
8.F/	16F\	.	.	.	.
.	16B-\	.	8r	.	.
.	16d\JJ	.	.	.	.
8ryy	8r	.	(16f\LL	.	.
.	.	.	16ff\J	.	.
=304	=304	=304	=304	=304	=304
*rep	*rep	*	*	*	*
16BB-/	16BB-\LL	.	8cc'\J)	.	.
!LO:N:vis=4	!	!	!	!	!
8.F/	16F\	.	.	.	.
.	16A\	.	8r	.	.
.	16c\JJ	.	.	.	.
8ryy	8r	.	(16f\LL	.	.
.	.	.	16dd\J	.	.
16ryy	16BB-\LL	.	8b-'\J)	.	.
!LO:N:vis=4	!	!	!	!	!
8.F/	16F\	.	.	.	.
.	16B-\	.	8r	.	.
.	16d\JJ	.	.	.	.
8ryy	8r	.	(16ff\LL	.	.
.	.	.	16fff\J	.	.
*Xrep	*Xrep	*	*	*	*
=305	=305	=305	=305	=305	=305
*ped	*	*	*	*	*
16BB-/	16BB-\LL	.	8ff\J)	.	.
!LO:N:vis=4.	!	!	!	!	!
8.F/	16F\	.	.	.	.
.	16B-\	.	8r	.	.
.	16d\JJ	.	.	.	.
8r	8ryy	.	(16ff\LL	.	.
.	.	.	16fff\J	.	.
*rep	*rep	*	*	*	*
16ryy	16BB-\LL	.	8ddd\J)	.	.
!LO:N:vis=4.	!	!	!	!	!
8.F/	16F\	.	.	.	.
.	16B-\	.	8r	.	.
.	16d\JJ	.	.	.	.
8r	8ryy	.	(16ff\LL	.	.
.	.	.	16fff\JJ	.	.
*Xrep	*Xrep	*	*	*	*
=306	=306	=306	=306	=306	=306
*rep	*rep	*	*	*	*
16BB-/	16BB-\LL	.	16gg\LL	.	.
!LO:N:vis=4.	!	!	!	!	!
8.F/	16F\	.	16ggg\	.	.
.	16B-\	.	16ff\	.	.
.	16d\JJ	.	16fff\	.	.
8r	8ryy	.	16een\	.	.
.	.	.	16eeeny\JJ)	.	.
16ryy	16BB-\LL	.	16ff\LL	.	.
!LO:N:vis=4.	!	!	!	!	!
8.F/	16F\	.	16fff\JJ	.	.
.	16B-\	.	8r	.	.
.	16d\JJ	.	.	.	.
8r	8ryy	.	(16ff\LL	.	.
.	.	.	16ddd\J	.	.
*Xrep	*Xrep	*	*	*	*
*Xped	*	*	*	*	*
=307	=307	=307	=307	=307	=307
16BB-/	16BB-\LL	.	8ccc\J)	.	.
!LO:N:vis=4.	!	!	!	!	!
8.F/	16F\	.	.	.	.
.	16A\	.	8r	.	.
.	16c\JJ	.	.	.	.
8r	8ryy	.	(16ff\LL	.	.
.	.	.	16ddd\J	.	.
16ryy	16BB-\LL	.	8bb-\J)	.	.
!LO:N:vis=4	!	!	!	!	!
8.F/	16F\	.	.	.	.
.	16B-\	.	8r	.	.
.	16d\JJ	.	.	.	.
8r	8ryy	.	(16ff\LL	.	.
.	.	.	16fff\J	.	.
=308	=308	=308	=308	=308	=308
*rep	*rep	*	*	*	*
16BB-/	16BB-\LL	.	8ccc\J)	.	.
!LO:N:vis=4.	!	!	!	!	!
8.F/	16F\	.	.	.	.
.	16A\	.	8r	.	.
.	16c\JJ	.	.	.	.
8r	8ryy	.	(16ff\LL	.	.
.	.	.	16ddd\J	.	.
16ryy	16BB-\LL	.	8bb-\J)	.	.
!LO:N:vis=4	!	!	!	!	!
8.F/	16F\	.	.	.	.
.	16B-\	.	8r	.	.
.	16d\JJ	.	.	.	.
8r	8ryy	.	(16b-\LL	.	.
.	.	.	16bb-\JJ)	.	.
*Xrep	*Xrep	*	*	*	*
!!LO:LB:g=original
=309	=309	=309	=309	=309	=309
16BB-/KL	16BB-\LL	.	4b-\	.	<
8.F#/J	16F#\	.	.	.	.
.	16B-\	.	.	.	.
.	16d\JJ	.	.	.	.
8r	8ryy	.	(16b-\LL	.	.
.	.	.	16bb-\JJ	.	.
16BB-/KL	16BB-\LL	.	4b-\)	.	.
8.G/J	16G\	.	.	.	.
.	16B-\	.	.	.	.
.	16d\JJ	.	.	.	.
8r	8ryy	.	(16b-\LL	.	.
.	.	.	16bb-\JJ	.	[[
=310	=310	=310	=310	=310	=310
16BB-/KL	16BB-\LL	.	16cc\LL	.	>
8.G-/J	16G-\	.	16ccc\	.	.
.	16B-\	.	16b-\	.	.
.	16e-\JJ	.	16bb-\	.	.
8r	8ryy	.	16a\	.	.
.	.	.	16aa\JJ	.	.
16BB-/KL	16BB-\LL	.	16b-\LL	.	.
!LO:N:vis=8	!	!	!	!	!
8.F/J	16F\	.	16bb-\JJ)	.	]
.	16B-\	.	8r	.	.
.	16d\JJ	.	.	.	.
8r	8ryy	.	(16b-\LL	.	.
.	.	.	16bb-\JJ	.	.
=311	=311	=311	=311	=311	=311
16BB-/KL	16BB-\LL	.	4b-\)	.	<
8.F#X/J	16F#\	.	.	.	.
.	16B-\	.	.	.	.
.	16d\JJ	.	.	.	.
8r	8ryy	.	(16b-\LL	.	.
.	.	.	16bb-\JJ	.	.
16BB-/KL	16BB-\LL	.	4b-\)	.	.
8.G/J	16G\	.	.	.	.
.	16B-\	.	.	.	.
.	16d\JJ	.	.	.	.
8r	8ryy	.	(16b-\LL	.	.
.	.	.	16bb-\JJ	.	[[
=312	=312	=312	=312	=312	=312
16BB-/KL	16BB-\LL	.	16cc\LL	.	.
8.G-X/J	16G-\	.	16ccc\	.	.
.	16B-\	.	16b-\	.	>
.	16e-\JJ	.	16bb-\	.	.
8r	8ryy	.	16a\	.	.
.	.	.	16aa\JJ	.	.
16BB-/KL	16BB-\LL	.	16b-\LL	.	.
8.F/J	16F\	.	16bb-\JJ)	.	]
.	16B-\	.	8r	.	.
.	16d\JJ	.	.	.	.
8r	8ryy	.	(16f\LL	.	.
.	.	.	16dd\J	.	.
=313	=313	=313	=313	=313	=313
16BB-/KL	16BB-\LL	.	8cc\J)	.	.
8.F/J	16F\	.	.	.	.
.	16A\	.	8r	.	.
.	16c\JJ	.	.	.	.
8r	8ryy	.	(16f\LL	.	.
.	.	.	16dd\J	.	.
16BB-/KL	16BB-\LL	.	8b-\J)	.	.
8.F/J	16F\	.	.	.	.
.	16B-\	.	8r	.	.
.	16d\JJ	.	.	.	.
8r	8ryy	.	(16f\LL	.	.
.	.	.	16ff\J	.	.
=314	=314	=314	=314	=314	=314
*rep	*rep	*	*	*	*
16BB-/KL	16BB-\LL	.	8cc\J)	.	.
8.F/J	16F\	.	.	.	.
.	16A\	.	8r	.	.
.	16c\JJ	.	.	.	.
8r	8ryy	.	(16f\LL	.	.
.	.	.	16dd\J	.	.
16BB-/KL	16BB-\LL	.	8b-\J)	.	.
8.F/J	16F\	.	.	.	.
.	16B-\	.	8r	.	.
.	16d\JJ	.	.	.	.
8r	8ryy	.	(16f\LL	.	.
.	.	.	16ff\JJ	.	.
*Xrep	*Xrep	*	*	*	*
=315	=315	=315	=315	=315	=315
16BB-/KL	16BB-\LL	.	4cc\)	.	.
8.F/J	16F\	.	.	.	.
.	16A\	.	.	.	.
.	16c\JJ	.	.	.	.
8r	8ryy	.	(16f\LL	.	.
!	!	!	!	!	!LO:HP:t=cres
.	.	.	16cc\JJ)	.	<
16BB-/KL	16BB-\LL	.	4cc#X^\	.	.
8.F/J	16F\	.	.	.	.
.	16A\	.	.	.	.
.	16c#X\JJ	.	.	.	.
8r	8ryy	.	(16f\LL	.	.
.	.	.	16cc#\JJ)	.	.
=316	=316	=316	=316	=316	=316
16BB-/KL	16BB-\LL	.	4dd^\	.	.
8.F/J	16F\	.	.	.	.
.	16B-\	.	.	.	.
.	16d\JJ	.	.	.	.
8r	8ryy	.	(16f\LL	.	.
!	!	!	!LO:TX:b:i:t=rall.	!	!
.	.	.	16dd\JJ)	.	.
4ryy	16BB-\LL	.	4ee-^\	.	.
.	16G\	.	.	.	.
.	16B-\	.	.	.	.
.	16e-\J	.	.	.	.
8ryy	8enJ 8G-X^\	.	(16b-\LL	.	.
.	.	.	16een\JJ)	.	.
=317	=317	=317	=317	=317	=317
16BB-/KL	16BB-\LL	.	4ff\	.	fp
8.F/J	16F\	.	.	.	.
.	16B-\	.	.	.	.
.	16d\JJ	.	.	.	.
8r	8ryy	.	(16f\LL	.	.
.	.	.	16ff\J)	.	.
*rep	*rep	*	*	*	*
16BB-/KL	16BB-\LL	.	8dd\J	.	.
8.F/J	16F\	.	.	.	.
.	16B-\	.	8r	.	.
.	16d\JJ	.	.	.	.
8r	8ryy	.	(16f\LL	.	.
.	.	.	16ff\JJ)	.	.
*Xrep	*Xrep	*	*	*	*
!!LO:PB:g=original
=318	=318	=318	=318	=318	=318
16BB-/KL	16BB-\LL	.	(16g\LL	.	.
8.F/J	16F\	.	16gg\	.	.
.	16B-\	.	16f\	.	.
.	16d\JJ	.	16ff\	.	.
8r	8ryy	.	16en\	.	.
.	.	.	16eeny\JJ	.	.
*rep	*rep	*	*	*	*
16BB-/KL	16BB-\LL	.	16f\LL	.	.
8.F/J	16F\	.	16ff\JJ)	.	.
.	16B-\	.	8r	.	.
.	16d\JJ	.	.	.	.
8r	8ryy	.	(16f\LL	.	.
.	.	.	16dd\J	.	.
*Xrep	*Xrep	*	*	*	*
=319	=319	=319	=319	=319	=319
16BB-/KL	16BB-\LL	.	8cc\J)	.	.
8.F/J	16F\	.	.	.	.
.	16A\	.	8r	.	.
.	16c\JJ	.	.	.	.
8r	8ryy	.	(16f\LL	.	p
.	.	.	16dd\J	.	.
16BB-/KL	16BB-\LL	.	8b-\J)	.	.
8.F/J	16F\	.	.	.	.
.	16B-\	.	8r	.	.
.	16d\JJ	.	.	.	.
8r	8ryy	.	(16f\LL	.	.
.	.	.	16ff\J	.	.
=320	=320	=320	=320	=320	=320
*rep	*rep	*	*	*	*
16BB-/KL	16BB-\LL	.	8cc'\J)	.	.
8.F/J	16F\	.	.	.	.
.	16A\	.	8r	.	.
.	16c\JJ	.	.	.	.
*	*	*	*8va	*	*
8r	8ryy	.	(16ff\LL	.	pp
.	.	.	16ddd\J	.	.
16BB-/KL	16BB-\LL	.	8bb-\J)	.	.
8.F/J	16F\	.	.	.	.
.	16B-\	.	8r	.	.
.	16d\JJ	.	.	.	.
8r	8ryy	.	(16ff\LL	.	.
.	.	.	16fff\J	.	.
*Xrep	*Xrep	*	*	*	*
=321	=321	=321	=321	=321	=321
*rep	*rep	*	*	*	*
!	!	!	!LO:TX:b:i:t=perdendosi	!	!
16BB-/KL	16BB-\LL	.	8ccc\J)	.	.
8.F/J	16F\	.	.	.	.
.	16A\	.	8r	.	.
.	16c\JJ	.	.	.	.
8r	8ryy	.	(16ff\LL	.	.
.	.	.	16ddd\J	.	.
16BB-/KL	16BB-\LL	.	8bb-\J)	.	.
8.F/J	16F\	.	.	.	.
.	16B-\	.	8r	.	.
.	16d\JJ	.	.	.	.
8r	8ryy	.	16ff\LL	.	.
.	.	.	16fff\J	.	.
*Xrep	*Xrep	*	*	*	*
=322	=322	=322	=322	=322	=322
16BB-/KL	16BB-\LL	.	8bb-\J	.	ppp
8.F/J	16F\	.	.	.	.
.	16B-\	.	8r	.	.
.	16d\JJ	.	.	.	.
8r	8ryy	.	16ff\LL	.	.
.	.	.	16ddd\J	.	.
!	!	!	!LO:TX:b:i:t=rall.	!	!
16BB-/KL	16BB-\LL	.	8bb-\J	.	.
[8F/J	16F\	.	.	.	.
.	16B-\J	.	8r	.	.
8.ryy	8.d\J 8.F\;>]	.	.	.	.
.	.	.	16ff\LL	.	.
.	.	.	16fff;\JJ	.	.
*v	*v	*	*	*	*
=323||	=323||	=323||	=323||	=323||
!!!OMD: Presto con allegrezza
*>B	*>B	*>B	*>B	*>B
*M2/4	*	*M2/4	*	*
*	*	*^	*	*
!LO:TX:t=P:problem=mixed beam	!	!	!	!	!
8BB-L 8BBB-/	.	8bb-\	4ryy	.	f
8F\	.	8r	.	.	.
*	*	*	*X8va	*	*
!	!	!LO:TX:a:i:t=loco	!	!	!
8d 8B-\	.	(4f/	16f\LL	.	.
.	.	.	16dd\	.	.
8F\J	.	.	16ff\	.	.
.	.	.	16dd\JJ	.	.
=324	=324	=324	=324	=324	=324
8BB-\L	.	4g/	16g\LL	.	.
.	.	.	16ee-\	.	.
8F\	.	.	16gg\	.	.
.	.	.	16ee-\JJ	.	.
8c\	.	4a/	16a\LL	.	.
.	.	.	16ee-\	.	.
8F\J	.	.	16aa\	.	.
.	.	.	16ee-\JJ	.	.
=325	=325	=325	=325	=325	=325
8BB-\L	.	4b-/	16b-\LL	.	.
.	.	.	16dd\	.	.
8F\	.	.	16bb-\	.	.
.	.	.	16dd\JJ	.	.
8c 8A\	.	4cc/	16cc\LL	.	.
.	.	.	16ff\	.	.
8F\J	.	.	16ccc\	.	.
.	.	.	16ff\JJ	.	.
=326	=326	=326	=326	=326	=326
8BB-\L	.	4dd/	16dd\LL	.	.
.	.	.	16ff\	.	.
8F\	.	.	16ddd\	.	.
.	.	.	16ff\JJ	.	.
*	*	*rep	*rep	*	*
8d 8B-\	.	4dd/	16dd\LL	.	.
.	.	.	16ff\	.	.
8F\J	.	.	16ddd\	.	.
.	.	.	16ff\JJ	.	.
*	*	*Xrep	*Xrep	*	*
=327	=327	=327	=327	=327	=327
8BB-\L	.	4dd/	16dd\LL	.	.
.	.	.	16ff\	.	.
8F\	.	.	16ddd\	.	.
.	.	.	16ff\JJ	.	.
8c 8A\	.	4ee-/	16ee-\LL	.	.
.	.	.	16ff\	.	.
8F\J	.	.	16eee-\	.	.
.	.	.	16ff\JJ	.	.
!!LO:LB:g=original
=328	=328	=328	=328	=328	=328
8BB-\L	.	4cc/	16cc\LL	.	.
.	.	.	16ff\	.	.
8F\	.	.	16ccc\	.	.
.	.	.	16ff\JJ	.	.
*	*	*rep	*rep	*	*
8e- 8A\	.	4cc/	16cc\LL	.	.
.	.	.	16ff\	.	.
8F\J	.	.	16ccc\	.	.
.	.	.	16ff\JJ	.	.
*	*	*Xrep	*Xrep	*	*
=329	=329	=329	=329	=329	=329
8BB-\L	.	4cc/	16cc\LL	.	.
.	.	.	16ff\	.	.
8F\	.	.	16ccc\	.	.
.	.	.	16ff\JJ	.	.
8d 8B-\	.	4dd/	16dd\LL	.	.
.	.	.	16ff\	.	.
8F\J	.	.	16ddd\	.	.
.	.	.	16ff\JJ	.	.
=330	=330	=330	=330	=330	=330
8BB-\L	.	4b-/	16b-\LL	.	.
.	.	.	16dd\	.	.
8F\	.	.	16bb-\	.	.
.	.	.	16dd\JJ	.	.
8e- 8B-^\	.	4g/	16g\LL	.	.
.	.	.	16ee-\	.	.
8F\J	.	.	16gg\	.	.
.	.	.	16ee-\JJ)	.	.
=331	=331	=331	=331	=331	=331
8BB-\L	.	(4f/	16f\LL	.	.
.	.	.	16dd\	.	.
8F\	.	.	16ff\	.	.
.	.	.	16dd\JJ	.	.
*	*	*rep	*rep	*	*
8d 8B-\	.	4f/	16f\LL	.	.
.	.	.	16dd\	.	.
8F\J	.	.	16ff\	.	.
.	.	.	16dd\JJ	.	.
*	*	*Xrep	*Xrep	*	*
=332	=332	=332	=332	=332	=332
8BB-\L	.	4g/	16g\LL	.	.
.	.	.	16ee-\	.	.
8F\	.	.	16gg\	.	.
.	.	.	16ee-\JJ	.	.
8c\	.	4a/	16a\LL	.	.
.	.	.	16ee-\	.	.
8F\J	.	.	16aa\	.	.
.	.	.	16ee-\JJ	.	.
=333	=333	=333	=333	=333	=333
8BB-\L	.	4b-/	16b-\LL	.	.
.	.	.	16dd\	.	.
8F\	.	.	16bb-\	.	.
.	.	.	16dd\JJ	.	.
8c 8A\	.	4cc/	16cc\LL	.	.
.	.	.	16ff\	.	.
8F\J	.	.	16ccc\	.	.
.	.	.	16ff\JJ	.	.
=334	=334	=334	=334	=334	=334
8BB-\L	.	4dd/	16dd\LL	.	.
.	.	.	16ff\	.	.
8F\	.	.	16ddd\	.	.
.	.	.	16ff\JJ	.	.
*	*	*rep	*rep	*	*
8d 8B-\	.	4dd/	16dd\LL	.	.
.	.	.	16ff\	.	.
8F\J	.	.	16ddd\	.	.
.	.	.	16ff\JJ	.	.
*	*	*Xrep	*Xrep	*	*
=335	=335	=335	=335	=335	=335
*^	*	*	*	*	*
!LO:N:vis=2	!	!	!	!	!	!
8AA/L	2AA\	.	4ff/	16ff\LL	.	.
.	.	.	.	16aa\	.	.
8D/	.	.	.	16fff\	.	.
.	.	.	.	16aa\JJ	.	.
*	*	*	*rep	*rep	*	*
8F/	.	.	4ff/	16ff\LL	.	.
.	.	.	.	16aa\	.	.
8A/J	.	.	.	16fff\	.	.
.	.	.	.	16aa\JJ	.	.
*	*	*	*Xrep	*Xrep	*	*
=336	=336	=336	=336	=336	=336	=336
!LO:N:vis=2	!	!	!	!	!	!
8AA/L	2AA\	.	4ff/	16ff\LL	.	.
.	.	.	.	16aa\	.	.
8D/	.	.	.	16eee-\	.	.
.	.	.	.	16aa\JJ	.	.
8F/	.	.	4ff/	16ff\LL	.	.
.	.	.	.	16aa\	.	.
8A/J	.	.	.	16ddd\	.	.
.	.	.	.	16aa\JJ	.	.
=337	=337	=337	=337	=337	=337	=337
!LO:N:vis=2	!	!	!	!	!	!
8AA/L	2AA\	.	4gg/	16gg\LL	.	.
.	.	.	.	16aa\	.	.
8En/	.	.	.	16ccc#X\	.	.
.	.	.	.	16aa\JJ	.	.
8A/	.	.	4ryy	16gg\LL	.	.
.	.	.	.	16aa\	.	.
8E/J	.	.	.	16eeen\	.	.
.	.	.	.	16aa\JJ	.	.
*v	*v	*	*	*	*	*
=338	=338	=338	=338	=338	=338
8D\L	.	2ryy	16ff\LL	.	.
.	.	.	16aa\	.	.
8F\	.	.	16ddd\	.	.
.	.	.	16aa\JJ	.	.
8A\	.	.	16ddd\LL	.	.
.	.	.	16aa\	.	.
8F\J	.	.	16ff\	.	.
.	.	.	16aa\JJ)	.	.
=339	=339	=339	=339	=339	=339
*^	*	*	*	*	*
*	*	*	*ped	*	*	*
!	!	!	!	!	!	!LO:DY:b=1:t=rinf
(8F/L	2E-X\	.	8ddd/	16ddd\LL	.	rf
.	.	.	.	16aa\	.	.
8A/	.	.	8r	16ff\	.	.
.	.	.	.	16aa\JJ	.	.
8c/	.	.	8ccc/	16ccc\LL	.	.
.	.	.	.	16aa\	.	.
8A/J)	.	.	8r	16ff\	.	.
.	.	.	.	16aa\JJ	.	.
=340	=340	=340	=340	=340	=340	=340
*rep	*rep	*	*	*	*	*
(8F/L	2E-X\	.	8ggg/	16ggg\LL	.	.
.	.	.	.	16ccc\	.	.
8A/	.	.	8r	16aa\	.	.
.	.	.	.	16ccc\JJ	.	.
8c/	.	.	8ggg/	16ggg\LL	.	.
.	.	.	.	16ccc\	.	.
8A/J)	.	.	8r	16aa\	.	.
.	.	.	.	16cccJJ	.	.
*Xrep	*Xrep	*	*Xped	*	*	*
!!LO:LB:g=original
=341	=341	=341	=341	=341	=341	=341
*	*	*	*ped	*	*	*
(8F/L	2D\	.	8ggg/	16ggg\LL	.	.
.	.	.	.	16bb-\	.	.
8B-/	.	.	8r	16aa\	.	.
.	.	.	.	16bb-\JJ	.	.
8d/	.	.	8fff/	16fff\LL	.	.
.	.	.	.	16bb-\	.	.
8B-/J)	.	.	8r	16aa\	.	.
.	.	.	.	16bb-\JJ	.	.
=342	=342	=342	=342	=342	=342	=342
*rep	*rep	*	*	*	*	*
(8F/L	2D\	.	8ddd/	16ddd\LL	.	.
.	.	.	.	16bb-\	.	.
8B-/	.	.	8r	16aa\	.	.
.	.	.	.	16bb-\JJ	.	.
*	*	*	*rep	*rep	*	*
8d/	.	.	8ddd/	16ddd\LL	.	.
.	.	.	.	16bb-\	.	.
8B-/J)	.	.	8r	16aa\	.	.
.	.	.	.	16bb-\JJ	.	.
*Xrep	*Xrep	*	*Xrep	*Xrep	*	*
*	*	*	*Xped	*	*	*
=343	=343	=343	=343	=343	=343	=343
*	*	*	*ped	*	*	*
8F/L	2E-\	.	8ddd/	16ddd\LL	.	.
.	.	.	.	16aa\	.	.
8A/	.	.	8r	16ff\	.	.
.	.	.	.	16aa\JJ	.	.
8c/	.	.	8ccc/	16ccc\LL	.	.
.	.	.	.	16aa\	.	.
8A/J	.	.	8r	16ff\	.	.
.	.	.	.	16aa\JJ	.	.
=344	=344	=344	=344	=344	=344	=344
*rep	*rep	*	*	*	*	*
8F/L	2E-\	.	8ggg/	16ggg\LL	.	.
.	.	.	.	16ccc\	.	.
8A/	.	.	8r	16aa\	.	.
.	.	.	.	16ccc\JJ	.	.
*	*	*	*rep	*rep	*	*
8c/	.	.	8ggg/	16ggg\LL	.	.
.	.	.	.	16ccc\	.	.
8A/J	.	.	8r	16aa\	.	.
.	.	.	.	16ccc\JJ	.	.
*Xrep	*Xrep	*	*Xrep	*Xrep	*	*
*	*	*	*Xped	*	*	*
*	*	*	*v	*v	*	*
=345	=345	=345	=345	=345	=345
*	*	*	*ped	*	*
8F/L	2D\	.	(16ggg\LL	.	.
.	.	.	16bb-\	.	.
8B-/	.	.	16aa\	.	.
.	.	.	16bb-\JJ	.	.
8d/	.	.	16fff\LL	.	.
.	.	.	16bb-\	.	.
8B-/J	.	.	16aa\	.	.
.	.	.	16bb-\JJ	.	.
=346	=346	=346	=346	=346	=346
4F/	4F'\	.	16ddd\LL	.	.
.	.	.	16bb-\	.	.
.	.	.	16ff\	.	.
.	.	.	16dd\JJ	.	.
4r	4ryy	.	16bb-\LL	.	.
.	.	.	16ff\	.	.
.	.	.	16dd\	.	.
*	*	*	*Xped	*	*
.	.	.	16b-\JJ	.	.
*v	*v	*	*	*	*
=347	=347	=347	=347	=347
*	*	*^	*	*
8BB-\L	.	8f'\)	4ryy	.	fp
8F\	.	8r	.	.	.
8d 8B-\	.	(4f/	16f\LL	.	.
.	.	.	16dd\	.	.
8F\J	.	.	16ff\	.	.
.	.	.	16dd\JJ	.	.
=348	=348	=348	=348	=348	=348
8BB-\L	.	4g/	16g\LL	.	.
.	.	.	16ee-\	.	.
8F\	.	.	16gg\	.	.
.	.	.	16ee-\JJ	.	.
!	!	!	!LO:TX:b:Bi:t=cres_:problem=dynamics with extension lines	!	!LO:HP:t=cres_
8c\	.	4a/	16a\LL	.	<
.	.	.	16ee-\	.	.
8F\J	.	.	16aa\	.	.
.	.	.	16ee-\JJ	.	.
=349	=349	=349	=349	=349	=349
8BB-\L	.	4b-/	16b-\LL	.	.
.	.	.	16dd\	.	.
8F\	.	.	16bb-\	.	.
.	.	.	16dd\JJ	.	.
8c 8A\	.	4cc/	16cc\LL	.	.
.	.	.	16ff\	.	.
8F\J	.	.	16ccc\	.	.
.	.	.	16ff\JJ	.	.
=350	=350	=350	=350	=350	=350
8BB-\L	.	4dd/	16dd\LL	.	.
.	.	.	16ff\	.	.
8F\	.	.	16ddd\	.	.
.	.	.	16ff\JJ	.	.
*	*	*rep	*rep	*	*
8d 8B-\	.	4dd/	16dd\LL	.	.
.	.	.	16ff\	.	.
8F\J	.	.	16ddd\	.	.
.	.	.	16ff\JJ)	.	[[
*	*	*Xrep	*Xrep	*	*
*	*	*v	*v	*	*
=351	=351	=351	=351	=351
*^	*	*	*	*
*	*	*	*ped	*	*
(8BB/L	2BB\	.	(16ff\LL	.	.
.	.	.	16gg\	.	.
8D/	.	.	16fff\	.	.
.	.	.	16gg\JJ	.	.
*	*	*	*rep	*	*
8G/	.	.	16ff\LL	.	.
.	.	.	16gg\	.	.
8B-/J)	.	.	16fff\	.	.
.	.	.	16gg\JJ	.	.
*	*	*	*Xrep	*	*
*	*	*	*Xped	*	*
=352	=352	=352	=352	=352	=352
*	*	*	*ped	*	*
(8C/L	2C\	.	16een\LL	.	.
.	.	.	16gg\	.	.
8En/	.	.	16eeeny\	.	.
.	.	.	16gg\JJ	.	.
*	*	*	*rep	*	*
8G/	.	.	16ee\LL	.	.
.	.	.	16gg\	.	.
8c/J)	.	.	16eee\	.	.
.	.	.	16gg\JJ	.	.
*	*	*	*Xrep	*	*
*	*	*	*Xped	*	*
=353	=353	=353	=353	=353	=353
*	*	*	*ped	*	*
(8AA/L	2AA\	.	16ee-X\LL	.	.
.	.	.	16ff\	.	.
8C/	.	.	16eee-\	.	.
.	.	.	16ff\JJ	.	.
*	*	*	*rep	*	*
8F/	.	.	16ee-\LL	.	.
.	.	.	16ff\	.	.
8A/J)	.	.	16eee-\	.	.
.	.	.	16ff\JJ	.	.
*	*	*	*Xrep	*	*
*	*	*	*Xped	*	*
!!LO:LB:g=original
=354	=354	=354	=354	=354	=354
*	*	*	*^	*	*
8BB-/L	2BB-\	.	4ee-/	16ee-\LL	.	.
.	.	.	.	16ff\	.	.
8D/	.	.	.	16eee-\	.	.
.	.	.	.	16ff\JJ	.	.
8F/	.	.	4dd/	16dd\LL	.	.
.	.	.	.	16ff\	.	.
8B-/J	.	.	.	16ddd\	.	.
.	.	.	.	16ff\JJ)	.	.
=355	=355	=355	=355	=355	=355	=355
8E-/L	2E-\	.	(4dd/	16dd\LL	.	.
.	.	.	.	16ee-\	.	.
8G/	.	.	.	16ddd\	.	.
.	.	.	.	16ee-\JJ	.	.
8c/	.	.	4cc/	16cc\LL	.	.
.	.	.	.	16ee-\	.	.
8G/J	.	.	.	16ccc\	.	.
.	.	.	.	16ee-\JJ	.	.
=356	=356	=356	=356	=356	=356	=356
*rep	*rep	*	*	*	*	*
8E-/L	2E-\	.	4b-/	16b-\LL	.	.
.	.	.	.	16ee-\	.	.
8G/	.	.	.	16bb-\	.	.
.	.	.	.	16ee-\JJ	.	.
8c/	.	.	4g/	16g\LL	.	.
.	.	.	.	16ee-\	.	.
8G/J	.	.	.	16gg\	.	.
.	.	.	.	16ee-\JJ)	.	.
*Xrep	*Xrep	*	*	*	*	*
=357	=357	=357	=357	=357	=357	=357
8F/L	2F\	.	(4f/	16f\LL	.	.
.	.	.	.	16dd\	.	.
8B-/	.	.	.	16ff\	.	.
.	.	.	.	16dd\JJ	.	.
8d/	.	.	4b-/	16b-\LL	.	.
.	.	.	.	16dd\	.	.
8A/J	.	.	.	16bb-\	.	.
.	.	.	.	16dd\JJ	.	.
=358	=358	=358	=358	=358	=358	=358
8F/L	2F\	.	4a/	16a\LL	.	.
.	.	.	.	16cc\	.	.
8c/	.	.	.	16aa\	.	.
.	.	.	.	16cc\JJ	.	.
8e-/	.	.	4cc/	16cc\LL	.	.
.	.	.	.	16ee-\	.	.
8c/J	.	.	.	16ccc\	.	.
.	.	.	.	16ee-\JJ	.	.
=359	=359	=359	=359	=359	=359	=359
8B-/L	2B-\	.	4ee-/	16ee-\LL	.	.
.	.	.	.	16ff\	.	.
8d/	.	.	.	16eee-\	.	.
.	.	.	.	16ff\JJ	.	.
8f/	.	.	4dd/	16dd\LL	.	.
.	.	.	.	16ff\	.	.
8d/J	.	.	.	16ddd\	.	.
.	.	.	.	16ff\JJ	.	.
=360	=360	=360	=360	=360	=360	=360
8E-/L	2E-\	.	4b-/	16b-\LL	.	.
.	.	.	.	16ee-\	.	.
8B-/	.	.	.	16bb-\	.	.
.	.	.	.	16ee-\JJ	.	.
8e-/	.	.	4g/	16g\LL	.	.
.	.	.	.	16ee-\	.	.
8B-/J	.	.	.	16gg\	.	.
.	.	.	.	16ee-\JJ)	.	.
=361	=361	=361	=361	=361	=361	=361
!LO:TX:t=Ime fois	!	!	!	!	!	!
*>B1	*>B1	*>B1	*>B1	*>B1	*>B1	*>B1
8F/L	2F\	.	4f/	16f\LL	.	.
.	.	.	.	16dd\	.	.
8B-/	.	.	.	16ff\	.	.
.	.	.	.	16dd\JJ	.	.
8d/	.	.	4f#X/	16f#\LL	.	.
.	.	.	.	16dd\	.	.
8B-/J	.	.	.	16ff#y\	.	.
.	.	.	.	16dd\JJ	.	.
=362	=362	=362	=362	=362	=362	=362
8F/L	2F\	.	4g/	16g\LL	.	.
.	.	.	.	16ee-\	.	.
8c/	.	.	.	16gg\	.	.
.	.	.	.	16ee-\JJ	.	.
8e-/	.	.	4a/	16a\LL	.	.
.	.	.	.	16ee-\	.	.
8c/J	.	.	.	16aa\	.	.
.	.	.	.	16ee-\JJ	.	.
*v	*v	*	*	*	*	*
*	*	*v	*v	*	*
=363	=363	=363	=363	=363
8B-L 8BB-\	.	8bb- 8dd 8b-\	.	fp
8F\	.	8r	.	.
8d 8B-\	.	16f\LL	.	.
.	.	16dd\	.	.
8F\J	.	16ff\	.	.
.	.	16dd\JJ	.	.
=364:|!	=364:|!	=364:|!	=364:|!	=364:|!
!LO:TX:t=2me fois	!	!	!	!
*>B2	*>B2	*>B2	*>B2	*>B2
*	*	*^	*	*
!LO:TX:t=P:problem=mixed beam	!	!	!	!	!
8FF/L	.	4f/	16f\LL	.	.
.	.	.	16dd\	.	.
8F\	.	.	16ff\	.	.
.	.	.	16dd\JJ	.	.
*	*	*rep	*rep	*	*
8d 8B-\	.	4f/	16f\LL	.	.
.	.	.	16dd\	.	.
8F\J	.	.	16ff\	.	.
.	.	.	16dd\JJ	.	.
*	*	*Xrep	*Xrep	*	*
=365	=365	=365	=365	=365	=365
*rep	*	*	*	*	*
!LO:TX:t=P:problem=mixed beam	!	!	!	!	!
8FF/L	.	4f/	16f\LL	.	.
.	.	.	16dd\	.	.
8F\	.	.	16ff\	.	.
.	.	.	16dd\JJ	.	.
*	*	*rep	*rep	*	*
8d 8B-\	.	4f/	16f\LL	.	.
.	.	.	16dd\	.	.
8F\J	.	.	16ff\	.	.
.	.	.	16dd\JJ	.	.
*Xrep	*	*Xrep	*Xrep	*	*
=366	=366	=366	=366	=366	=366
!LO:TX:t=P:problem=mixed beam	!	!	!	!	!
8FF/L	.	4f#X/	16f#\LL	.	.
.	.	.	16ee-\	.	.
8F\	.	.	16ff#X\	.	.
.	.	.	16ee-\JJ	.	.
8c 8A\	.	4g/	16g\LL	.	.
.	.	.	16ee-\	.	.
8F\J	.	.	16gg\	.	.
.	.	.	16ee-\JJ	.	.
*	*	*v	*v	*	*
=367	=367	=367	=367	=367
*rep	*	*	*	*
!LO:TX:t=P:problem=mixed beam	!	!	!	!
8FF/L	.	16g#\LL	.	.
.	.	16ee-\	.	.
8F\	.	16gg#y\	.	.
.	.	16ee-\JJ	.	.
8c 8A\	.	16a\LL	.	.
.	.	16ee-\	.	.
8F\J	.	16aa\	.	.
.	.	16ee-\JJ	.	.
*Xrep	*	*	*	*
=368	=368	=368	=368	=368
*>C	*>C	*>C	*>C	*>C
*ped	*	*	*	*
[2BB- [>2BBB-/	.	8bb- 8dd 8b-\	.	ff
.	.	16ddd\LL	.	.
.	.	16bb-\JJ	.	.
.	.	16ff\LL	.	.
.	.	16dd\	.	.
.	.	16b-\	.	.
.	.	16f\JJ	.	.
!!LO:LB:g=original
=369	=369	=369	=369	=369
4BB-] 4BBB-/]	.	16d\LL	.	.
.	.	16f\	.	.
.	.	16b-\	.	.
.	.	16dd\JJ	.	.
8B-L 8BB-\	.	16ff\LL	.	.
.	.	16bb-\	.	.
8AJ 8AA\	.	16ddd\	.	.
.	.	16dd\JJ	.	.
=370	=370	=370	=370	=370
4B- 4BB-^\	.	16ddd\LL	.	.
.	.	16bb-\	.	.
.	.	16ff\	.	.
.	.	16dd\JJ	.	.
4F 4FF^\	.	16b-\LL	.	.
.	.	16f\	.	.
.	.	16d\	.	.
.	.	16f\JJ	.	.
=371	=371	=371	=371	=371
4.D 4.DD^\	.	16b-\LL	.	.
.	.	16dd\	.	.
.	.	16ff\	.	.
.	.	16bb-\JJ	.	.
*Xped	*	*	*	*
.	.	16ddd\LL	.	.
.	.	16ff\	.	.
8E- 8EE-\	.	16ccc\	.	.
.	.	16bb-\JJ	.	.
=372	=372	=372	=372	=372
*ped	*	*	*	*
[2F [>2FF\	.	8aa\L	.	sfz
.	.	16ccc\L	.	.
.	.	16aa\JJ	.	.
.	.	16ff\LL	.	.
.	.	16cc\	.	.
.	.	16a\	.	.
.	.	16f\JJ	.	.
=373	=373	=373	=373	=373
4F] 4FF\]	.	16c\LL	.	.
.	.	16f\	.	.
.	.	16a\	.	.
.	.	16cc\JJ	.	.
*Xped	*	*	*	*
8FL 8FF\	.	16ff\LL	.	.
.	.	16aa\	.	.
8EnJ 8EEn\	.	16ccc\	.	.
.	.	16cc\JJ	.	.
=374	=374	=374	=374	=374
4F 4FF^\	.	16ccc\LL	.	.
.	.	16aa-X\	.	.
.	.	16ff\	.	.
.	.	16cc\JJ	.	.
4C 4CC^\	.	16a-y\LL	.	.
.	.	16cc\	.	.
.	.	16ff\	.	.
.	.	16aa-\JJ	.	.
=375	=375	=375	=375	=375
4AA-X 4AAA-y^\	.	16ccc\LL	.	.
.	.	16ff\	.	.
.	.	16aa-X\	.	.
.	.	16ccc\JJ	.	.
8BB-L 8BBB-\	.	16fff\LL	.	.
.	.	16ff\	.	.
8CJ 8CC\	.	16fff\	.	.
.	.	16eee-\JJ	.	.
=376	=376	=376	=376	=376
*	*	*ped	*	*
!	!	!	!	!LO:DY:a=2
[2D-X [>2DD-y\	.	8ddd-X\L	.	sfz
.	.	16fff\L	.	.
.	.	16ddd-\JJ	.	.
.	.	16aa-X\LL	.	.
.	.	16ff\	.	.
.	.	16dd-y\	.	.
.	.	16a-y\JJ	.	.
=377	=377	=377	=377	=377
4D-X] 4DD-\]	.	16f\LL	.	.
!	!	!LO:SIC:v:o=16a\	!	!
.	.	16a-	.	.
!	!	!LO:SIC:v:o=16dd\	!	!
.	.	16dd-	.	.
.	.	16ff\JJ	.	.
!	!	!LO:SIC:v:o=16aa\LL	!	!
8d-XL 8D-X\	.	16aa-LL	.	.
*	*	*Xped	*	*
!	!	!LO:SIC:v:o=16ddd\	!	!
.	.	16ddd-	.	.
8cJ 8C\	.	16fff\	.	.
.	.	16ff\JJ	.	.
=378	=378	=378	=378	=378
4d-X 4D-X\	.	16fff\LL	.	.
.	.	16ddd-X\	.	.
.	.	16aa-X\	.	.
.	.	16ff\JJ	.	.
4A-X 4AA-X\	.	16dd-y\LL	.	.
.	.	16a-y\	.	.
.	.	16f\	.	.
.	.	16a-\JJ	.	.
!!LO:LB:g=original
=379	=379	=379	=379	=379
4F 4FF\	.	16dd-X\LL	.	.
.	.	16ff\	.	.
.	.	16aa-X\	.	.
.	.	16ddd-y\JJ	.	.
8G-XL 8GG-X\	.	16eee-\LL	.	.
.	.	16bb-\	.	.
8GnJ 8GGny\	.	16eee-\	.	.
.	.	16ddd-\JJ	.	.
=380	=380	=380	=380	=380
8A-X 8AA-y\	.	8ccc\	.	.
8r	.	8r	.	.
!LO:S:s=1:note:problem=note-level slur	!	!	!	!
!LO:S:s=2:note:problem=note-level slur	!	!	!	!
(4e- (>4c (>4F^\	.	16an\LL	.	sf
.	.	16cc\	.	.
.	.	16a\	.	.
.	.	16aa\JJ	.	.
=381	=381	=381	=381	=381
4dn) 4B-\))	.	16b-\LL	.	.
.	.	16ddn\	.	.
.	.	16b-\	.	.
.	.	16bb-\JJ	.	.
!LO:S:s=1:note:problem=note-level slur	!	!	!	!
!LO:S:s=2:note:problem=note-level slur	!	!	!	!
(4f (>4d (>4G^\	.	16bn\LL	.	sf
.	.	16dd\	.	.
.	.	16b\	.	.
.	.	16bbny\JJ	.	.
=382	=382	=382	=382	=382
4e-) 4c\))	.	16cc\LL	.	.
.	.	16ee-\	.	.
.	.	16cc\	.	.
.	.	16ccc\JJ	.	.
4c 4G 4E-\	.	16gg\LL	.	.
.	.	16ccc\	.	.
.	.	16eee-\	.	.
.	.	16ggg\JJ	.	.
=383	=383	=383	=383	=383
4d 4B- 4F\	.	16ff\LL	.	.
.	.	16bb-\	.	.
.	.	16ddd\	.	.
.	.	16fff\JJ	.	.
4e- 4c 4F\	.	16ff\LL	.	.
.	.	16aa\	.	.
.	.	16ccc\	.	.
.	.	16fff\JJ	.	.
=384	=384	=384	=384	=384
*	*	*^	*	*
8d 8B-\	.	8bb-'\	4ryy	.	.
8r	.	8r	.	.	.
*clefG2	*	*	*	*	*
4b- 4f#X 4d/	.	16dd\LL	4ff#X/	.	sf
.	.	16b-\	.	.	.
.	.	16dd\	.	.	.
.	.	16f#y\JJ	.	.	.
=385	=385	=385	=385	=385	=385
4b- 4g 4e-/	.	16ee-\LL	4gg/	.	sf
.	.	16b-\	.	.	.
.	.	16ee-\	.	.	.
.	.	16g\JJ	.	.	.
4bn 4g 4f 4d/	.	16dd\LL	4ffn/	.	sf
.	.	16bn\	.	.	.
.	.	16dd\	.	.	.
.	.	16g\JJ	.	.	.
=386	=386	=386	=386	=386	=386
4cc 4g 4e- 4c/	.	16ee-\LL	4ee-/	.	sf
.	.	16cc\	.	.	.
.	.	16ee-\	.	.	.
.	.	16g\JJ	.	.	.
4g 4en 4c 4B-/	.	16een\LL	4ee/	.	sf
.	.	16cc\	.	.	.
.	.	16ee\	.	.	.
.	.	16g\JJ	.	.	.
*clefF4	*	*	*	*	*
!!LO:PB:g=original
=387	=387	=387	=387	=387	=387
*^	*	*	*	*	*
*	*	*	*	*ped	*	*
8BB-/L	2BB-\	.	(4ee-/	16ee-\LL	.	.
.	.	.	.	16ff\	.	.
8D/	.	.	.	16eee-\	.	.
.	.	.	.	16ff\JJ	.	.
8F/	.	.	4dd/	16dd\LL	.	.
.	.	.	.	16ff\	.	.
8B-/J	.	.	.	16ddd\	.	.
.	.	.	.	16ff\JJ	.	.
*	*	*	*	*Xped	*	*
=388	=388	=388	=388	=388	=388	=388
*ped	*	*	*	*	*	*
8E-/L	2E-\	.	4dd/	16dd\LL	.	.
.	.	.	.	16ee-\	.	.
8G/	.	.	.	16ddd\	.	.
.	.	.	.	16ee-\JJ	.	.
8c/	.	.	4cc/	16cc\LL	.	.
.	.	.	.	16ee-\	.	.
8G/J	.	.	.	16ccc\	.	.
.	.	.	.	16ee-\JJ)	.	.
=389	=389	=389	=389	=389	=389	=389
*rep	*rep	*	*	*	*	*
8E-/L	2E-\	.	(4b-/	16b-\LL	.	.
.	.	.	.	16ee-\	.	.
8G/	.	.	.	16bb-\	.	.
.	.	.	.	16ee-\JJ	.	.
8c/	.	.	4g/	16g\LL	.	.
.	.	.	.	16ee-\	.	.
8G/J	.	.	.	16gg\	.	.
.	.	.	.	16ee-\JJ	.	.
*Xrep	*Xrep	*	*	*	*	*
*Xped	*	*	*	*	*	*
=390	=390	=390	=390	=390	=390	=390
8F/L	2F\	.	4f/	16f\LL	.	<
.	.	.	.	16dd\	.	.
8B-/	.	.	.	16ff\	.	.
.	.	.	.	16dd\JJ	.	.
8d/	.	.	4b-/	16b-\LL	.	.
.	.	.	.	16dd\	.	.
8B-/J	.	.	.	16bb-\	.	.
.	.	.	.	16dd\JJ)	.	[[
=391	=391	=391	=391	=391	=391	=391
8F/L	2F\	.	(4a/	16a\LL	.	.
.	.	.	.	16cc\	.	.
8c/	.	.	.	16aa\	.	.
.	.	.	.	16cc\JJ	.	.
8e-/	.	.	4cc/	16cc\LL	.	.
.	.	.	.	16ee-\	.	.
8c/J	.	.	.	16ccc\	.	.
.	.	.	.	16ee-\JJ	.	.
=392	=392	=392	=392	=392	=392	=392
8B-/L	2B-\	.	4ee-/	16ee-\LL	.	>
.	.	.	.	16ff\	.	.
8d/	.	.	.	16eee-\	.	.
.	.	.	.	16ff\JJ	.	.
8f/	.	.	4dd/	16dd\LL	.	.
.	.	.	.	16ff\	.	.
8d/J	.	.	.	16ddd\	.	.
.	.	.	.	16ff\JJ	.	]
=393	=393	=393	=393	=393	=393	=393
8E-/L	2E-\	.	4b-/	16b-\LL	.	.
.	.	.	.	16ee-\	.	.
8G/	.	.	.	16bb-\	.	.
.	.	.	.	16ee-\JJ	.	.
8e-/	.	.	4g/	16g\LL	.	.
.	.	.	.	16ee-\	.	.
8B-/J	.	.	.	16gg\	.	.
.	.	.	.	16ee-\JJ)	.	.
*v	*v	*	*	*	*	*
=394	=394	=394	=394	=394	=394
!LO:TX:t=P:problem=mixed beam	!	!	!	!	!
8FF/L	.	4f/	16f\LL	.	.
.	.	.	16dd\	.	.
8F\	.	.	16ff\	.	.
.	.	.	16dd\JJ	.	.
*	*	*rep	*rep	*	*
8d 8B-\	.	4f/	16f\LL	.	.
.	.	.	16dd\	.	.
8F\J	.	.	16ff\	.	.
.	.	.	16dd\JJ	.	.
*	*	*Xrep	*Xrep	*	*
!!LO:LB:g=original
=395	=395	=395	=395	=395	=395
*tremolo	*	*	*	*	*
8dL 8B-\	.	4f/	16f\LL	.	.
.	.	.	16dd\	.	.
8F\	.	.	16ff\	.	.
.	.	.	16dd\JJ	.	.
*	*	*rep	*rep	*	*
8d 8B-\	.	4f/	16f\LL	.	.
.	.	.	16dd\	.	.
8F\J	.	.	16ff\	.	.
.	.	.	16dd\JJ	.	.
*Xtremolo	*	*Xrep	*Xrep	*	*
=396	=396	=396	=396	=396	=396
!LO:TX:t=P:problem=mixed beam	!	!	!	!	!
8FF/L	.	4f#/	16f#X\LL	.	.
.	.	.	16ee-\	.	<
8F\	.	.	16ff#X\	.	.
.	.	.	16ee-\JJ	.	.
8e- 8c\	.	4g/	16g\LL	.	.
.	.	.	16ee-\	.	.
8F\J	.	.	16gg\	.	.
.	.	.	16ee-\JJ	.	.
=397	=397	=397	=397	=397	=397
*tremolo	*	*	*	*	*
8e-L 8c\	.	4g#/	16g#X\LL	.	.
.	.	.	16ee-\	.	.
8F\	.	.	16gg#y\	.	.
.	.	.	16ee-\JJ	.	.
8e- 8c\	.	4a/	16a\LL	.	.
.	.	.	16ee-\	.	.
8F\J	.	.	16aa\	.	.
.	.	.	16ee-\JJ	.	[[
*Xtremolo	*	*	*	*	*
*	*	*v	*v	*	*
=398	=398	=398	=398	=398
[2BB- [>2BBB-/	.	8bb- 8dd 8b-\	.	.
.	.	16ddd\LL	.	ff
.	.	16bb-\JJ	.	.
.	.	16ff\LL	.	.
.	.	16dd\	.	.
.	.	16b-\	.	.
.	.	16f\JJ	.	.
=399	=399	=399	=399	=399
4BB-] 4BBB-/]	.	16d\LL	.	.
.	.	16f\	.	.
.	.	16b-\	.	.
.	.	16dd\JJ	.	.
8B-L 8BB-\	.	16ff\LL	.	.
.	.	16bb-\	.	.
8AJ 8AA\	.	16ddd\	.	.
.	.	16dd\JJ	.	.
=400	=400	=400	=400	=400
4B- 4BB-^\	.	16ddd\LL	.	.
.	.	16bb-\	.	.
.	.	16ff\	.	.
.	.	16dd\JJ	.	.
4F 4FF^\	.	16b-\LL	.	.
.	.	16f\	.	.
.	.	16d\	.	.
.	.	16f\JJ	.	.
=401	=401	=401	=401	=401
4.D 4.DD^\	.	16b-\LL	.	.
.	.	16dd\	.	.
.	.	16ff\	.	.
.	.	16bb-\JJ	.	.
.	.	16ddd\LL	.	.
.	.	16ff\	.	.
8E- 8EE-\	.	16ccc\	.	.
.	.	16bb-\JJ	.	.
=402	=402	=402	=402	=402
[2F [>2FF\	.	8aa\L	.	.
.	.	16ccc\L	.	.
.	.	16aa\JJ	.	.
.	.	16ff\LL	.	.
.	.	16cc\	.	.
.	.	16a\	.	.
.	.	16f\JJ	.	.
=403	=403	=403	=403	=403
4F] 4FF\]	.	16c\LL	.	.
.	.	16f\	.	.
.	.	16a\	.	.
.	.	16cc\JJ	.	.
8FL 8FF\	.	16ff\LL	.	.
.	.	16aa\	.	.
8EnJ 8EEny\	.	16ccc\	.	.
.	.	16cc\JJ	.	.
!!LO:LB:g=original
=404	=404	=404	=404	=404
4F 4FF^\	.	16ccc\LL	.	.
.	.	16aa-X\	.	.
.	.	16ff\	.	.
.	.	16cc\JJ	.	.
4C 4CC^\	.	16a-y\LL	.	.
.	.	16f\	.	.
.	.	16c\	.	.
.	.	16f\JJ	.	.
=405	=405	=405	=405	=405
4AA-X 4AAA-y^\	.	16a-X\LL	.	.
.	.	16cc\	.	.
.	.	16ff\	.	.
.	.	16ccc\JJ	.	.
8BB-L 8BBB-\	.	16bb-\LL	.	.
.	.	16ff\	.	.
8CJ 8CC\	.	16aa-y\	.	.
.	.	16gg-X\JJ	.	.
=406	=406	=406	=406	=406
*ped	*	*	*	*
[2D-X [>2DD-X\	.	8ff\L	.	.
.	.	16fff\L	.	.
.	.	16ddd-X\JJ	.	.
.	.	16aa-X\LL	.	.
.	.	16ff\	.	.
.	.	16dd-y\	.	.
.	.	16a-y\JJ	.	.
=407	=407	=407	=407	=407
4D-X] 4DD-X\]	.	16f\LL	.	.
.	.	16a-X\	.	.
.	.	16dd-X\	.	.
.	.	16ff\JJ	.	.
8d-XL 8D-X\	.	16aa-y\LL	.	.
.	.	16ddd-y\	.	.
*Xped	*	*	*	*
8cJ 8C\	.	16fff\	.	.
.	.	16ff\JJ	.	.
=408	=408	=408	=408	=408
4d-X 4D-y^\	.	16fff\LL	.	.
.	.	16ddd-X\	.	.
.	.	16aa-X\	.	.
.	.	16ff\JJ	.	.
4A-X 4AA-y^\	.	16dd-X\LL	.	.
.	.	16a-X\	.	.
.	.	16f\	.	.
.	.	16a-\JJ	.	.
=409	=409	=409	=409	=409
4F 4FF\	.	16dd-X\LL	.	.
.	.	16ff\	.	.
.	.	16aa-X\	.	.
.	.	16fff\JJ	.	.
8G-XL 8GG-X\	.	16eee-\LL	.	.
.	.	16bb-\	.	.
8GnJ 8GGn\	.	16eee-\	.	.
.	.	16ddd-X\JJ	.	.
=410	=410	=410	=410	=410
*	*	*^	*	*
8A-X 8AA-X\	.	8ccc\	4ryy	.	.
8r	.	8r	.	.	.
4f 4c 4An\	.	(<16cc/LL	4cc\	.	sf
.	.	16ccc/	.	.	.
.	.	16aan/	.	.	.
.	.	16ff/JJ)	.	.	.
=411	=411	=411	=411	=411	=411
4f 4d-X 4B-\	.	(<16dd-X/LL	4dd-\	.	sf
.	.	16ddd-y/	.	.	.
.	.	16bb-/	.	.	.
.	.	16ff/JJ)	.	.	.
4f 4Bn\	.	(<16ddn/LL	4dd\	.	sf
.	.	16dddny/	.	.	.
.	.	16aa-X/	.	.	.
.	.	16ff/JJ)	.	.	.
!!LO:PB:g=original
=412	=412	=412	=412	=412	=412
*	*	*	*	*	*^
!	!	!	!	!	!LO:DY:b	!
4e- 4c\	.	16ee-/LL	4ee-\	.	sf	.
.	.	(<16eee-/	.	.	.	.
.	.	16ccc/	.	.	.	.
!	!	!	!	!	!	!LO:HP:a=2:t=cres_cen_do
.	.	16gg/JJ)	.	.	.	<
*clefG2	*	*	*	*	*	*
!	!	!	!	!	!LO:DY:b	!
4b- 4g 4c#X/	.	16een/LL	4ee\	.	sf	.
.	.	(<16eeeny/	.	.	.	.
.	.	16bb-/	.	.	.	.
.	.	16gg/JJ)	.	.	.	.
=413	=413	=413	=413	=413	=413	=413
!	!	!	!	!	!LO:DY:b	!
4b- 4d/	.	16ff/LL	4ff\	.	sf	.
.	.	(<16fff/	.	.	.	.
.	.	16ddd/	.	.	.	.
.	.	16bb-/JJ)	.	.	.	.
!	!	!	!	!	!LO:DY:b	!
4b- 4f#X 4d/	.	16ff#X/LL	4ff#\	.	sf	.
.	.	(<16fff#X/	.	.	.	.
.	.	16ddd/	.	.	.	.
.	.	16bb-/JJ)	.	.	.	.
=414	=414	=414	=414	=414	=414	=414
!	!	!	!	!	!LO:DY:b	!
4b- 4g 4e-/	.	16gg/LL	4gg\	.	sf	.
.	.	(<16ggg/	.	.	.	.
.	.	16eee-/	.	.	.	.
.	.	16bb-/JJ)	.	.	.	[
4cc 4g 4en/	.	16r	4ryy	.	.	.
!	!	!	!	!	!LO:DY:b	!
.	.	(16bb-\LL	.	.	ff	.
.	.	16bbb- 16ggg\	.	.	.	.
.	.	16bb-\JJ)	.	.	.	.
*	*	*v	*v	*	*v	*v
=415	=415	=415	=415	=415
4cc 4a 4f/	.	16r	.	.
.	.	(16aa\LL	.	.
!	!	!LO:TX:b:i:t=con fuoco	!	!
.	.	16aaa 16fff\	.	.
.	.	16aa\JJ)	.	.
4bn 4f 4d/	.	16r	.	.
.	.	(16aa-X\LL	.	.
.	.	16aaa-y 16fff\	.	.
.	.	16aa-\JJ)	.	.
=416	=416	=416	=416	=416
4cc 4g 4e-^>/	.	16r	.	.
.	.	(16gg\LL	.	.
.	.	16ggg 16eee-\	.	.
.	.	16gg\JJ)	.	.
4a 4e- 4c^>/	.	16r	.	.
.	.	(16gg-X\LL	.	.
.	.	16ggg-y 16eee-\	.	.
.	.	16gg-\JJ)	.	.
=417	=417	=417	=417	=417
4a-X 4f 4Bn^>/	.	16r	.	.
.	.	(16ff\LL	.	.
.	.	16fff 16ddd\	.	.
.	.	16ff\JJ)	.	.
4g 4c 4B-X^>/	.	16r	.	.
.	.	(16een\LL	.	.
.	.	16eeeny 16ccc\	.	.
.	.	16ee\JJ)	.	.
=418	=418	=418	=418	=418
4f 4c 4A^>/	.	16r	.	.
.	.	(16ee-X\LL	.	.
.	.	16eee- 16ccc\	.	.
.	.	16ee-\JJ)	.	.
4f 4d 4B-^>/	.	16r	.	.
.	.	(16dd\LL	.	.
.	.	16ddd 16bb-\	.	.
.	.	16dd\JJ)	.	.
*clefF4	*	*	*	*
=419	=419	=419	=419	=419
*^	*	*	*	*
*	*	*	*ped	*	*
4E-/	2E-\	.	16r	.	.
.	.	.	(16cc\LL	.	.
.	.	.	16ccc 16gg\	.	.
.	.	.	16cc\JJ)	.	.
!	!	!	!LO:TX:b:i:t=ritenuto	!	!
4e- 4c/	.	.	16r	.	.
.	.	.	(16gg\LL	.	.
.	.	.	16ggg 16eee-\	.	.
*	*	*	*Xped	*	*
.	.	.	16gg\JJ)	.	.
=420	=420	=420	=420	=420	=420
*	*	*	*ped	*	*
4F/	2F\	.	16r	.	.
.	.	.	(16ff\LL	.	.
.	.	.	16fff 16ddd\	.	.
.	.	.	16ff\JJ)	.	.
4f 4d 4B-/	.	.	16r	.	.
.	.	.	(16dd\LL	.	.
.	.	.	16ddd 16bb-\	.	.
*	*	*	*Xped	*	*
.	.	.	16dd\JJ)	.	.
*v	*v	*	*	*	*
!!LO:LB:g=original
=421	=421	=421	=421	=421
*	*	*ped	*	*
8F\	.	16r	.	.
.	.	16dd\LL	.	.
8r	.	16ddd 16ff\	.	.
.	.	16dd\JJ	.	.
*	*	*Xped	*	*
8f 8e- 8A\	.	16r	.	.
.	.	16cc\LL	.	.
8r	.	16ccc 16ff\	.	.
.	.	16cc\JJ	.	.
=422	=422	=422	=422	=422
8BB- 8BBB-/	.	8bb- 8dd 8b-\	.	sfp
8F\L	.	8r	.	.
8d 8B-\	.	(16f\LL	.	.
.	.	16dd\	.	<
8F\J	.	16ff\	.	.
.	.	16dd\JJ	.	.
=423	=423	=423	=423	=423
8BB-\L	.	16g\LL	.	.
.	.	16ee-\	.	.
8F\	.	16gg\	.	.
.	.	16ee-\JJ	.	.
8c 8A\	.	16a\LL	.	.
.	.	16ee-\	.	.
8F\J	.	16aa\	.	.
.	.	16ee-\JJ	.	[
=424	=424	=424	=424	=424
8BB-\L	.	16b-\LL	.	>
.	.	16dd\	.	.
8F\	.	16bb-\	.	.
.	.	16dd\JJ)	.	.
8d 8B-\	.	(16dd^\LL	.	.
.	.	16ff\	.	.
8F\J	.	16ddd\	.	.
.	.	16ff\JJ	.	.
=425	=425	=425	=425	=425
8BB-\L	.	16dd\LL	.	.
.	.	16ff\	.	.
8F\	.	16ddd\	.	.
.	.	16ff\JJ	.	.
8c 8A\	.	16cc\LL	.	]
.	.	16ff\	.	.
8F\J	.	16ccc\	.	.
.	.	16ff\JJ)	.	.
=426	=426	=426	=426	=426
*	*	*^	*	*
8BB-\L	.	8bb- 8dd\	4ryy	.	.
8F\	.	8r	.	.	.
8d 8B-\	.	(4f/	16f\LL	.	.
.	.	.	16dd\	.	.
8F\J	.	.	16ff\	.	.
.	.	.	16dd\JJ	.	.
=427	=427	=427	=427	=427	=427
8BB-\L	.	4g/	16g\LL	.	.
.	.	.	16ee-\	.	.
8F\	.	.	16gg\	.	.
.	.	.	16ee-\JJ	.	.
8c\	.	4a/	16a\LL	.	.
.	.	.	16ee-\	.	.
8F\J	.	.	16aa\	.	.
.	.	.	16ee-\JJ)	.	.
*	*	*v	*v	*	*
=428	=428	=428	=428	=428
8BB-\L	.	(16b-\LL	.	.
.	.	16dd\	.	.
8F\	.	16bb-\	.	.
.	.	16dd\JJ	.	.
8d 8B-\	.	16dd^\LL	.	.
.	.	16ff\	.	.
8F\J	.	16ddd\	.	.
.	.	16ff\JJ	.	.
=429	=429	=429	=429	=429
8BB-\L	.	16dd\LL	.	.
.	.	16ff\	.	.
8F\	.	16ddd\	.	.
.	.	16ff\JJ	.	.
8c 8A\	.	16cc\LL	.	.
.	.	16ff\	.	.
8F\J	.	16ccc\	.	.
.	.	16ff\JJ)	.	.
!!LO:LB:g=original
=430	=430	=430	=430	=430
8BB-/	.	8bb-\	.	.
8r	.	8r	.	.
*	*	*8va	*	*
4e- 4c 4F^\	.	16ff\LL	.	.
.	.	16aa\	.	.
.	.	16ccc\	.	.
.	.	16fff\JJ	.	.
=431	=431	=431	=431	=431
4d 4B-^\	.	16ff\LL	.	.
.	.	16bb-\	.	.
.	.	16ddd\	.	.
.	.	16fff\JJ	.	.
4e- 4c 4F^\	.	16ff\LL	.	.
.	.	16aa\	.	.
.	.	16ccc\	.	.
.	.	16fff\JJ	.	.
=432	=432	=432	=432	=432
4d 4B-^\	.	16ff\LL	.	.
.	.	16bb-\	.	.
.	.	16ddd\	.	.
.	.	16fff\JJ	.	.
!	!	!	!	!LO:DY:b=2
4e- 4c 4F^\	.	16ff\LL	.	sfz
.	.	16aa\	.	.
.	.	16ccc\	.	.
.	.	16fff\JJ	.	.
=433	=433	=433	=433	=433
4d 4B-^\	.	16ff\LL	.	.
.	.	16bb-\	.	.
.	.	16ddd\	.	.
.	.	16fff\JJ	.	.
4e- 4c 4F^\	.	16ff\LL	.	.
.	.	16aa\	.	.
.	.	16ccc\	.	.
.	.	16fff\JJ	.	.
=434	=434	=434	=434	=434
*ped	*	*	*	*
*tremolo	*	*	*	*
!	!	!LO:TX:t=P:problem=skreślone takty	!	!
16BBB-/LL	.	8bb-\	.	fff
16BB-/	.	.	.	.
16BBB-/	.	8r	.	.
16BB-/	.	.	.	.
16BBB-/	.	16dddd\LL	.	.
16BB-/	.	16bbb-\	.	.
16BBB-/	.	16fff\	.	.
16BB-/JJ	.	16ddd\JJ	.	.
*	*	*X8va	*	*
=435	=435	=435	=435	=435
!	!	!LO:TX:a:i:t=loco	!	!
16BBB-/LL	.	16bb-\LL	.	.
16BB-/	.	16ff\	.	.
16BBB-/	.	16dd\	.	.
16BB-/	.	16b-\JJ	.	.
16BBB-/	.	16f/LL	.	.
16BB-/	.	16d/	.	.
16BBB-/	.	16B-</	.	.
16BB-/JJ	.	16F</JJ	.	.
=436	=436	=436	=436	=436
!LO:TX:t=P:problem=mixed beam	!	!LO:TX:t=P:problem=mixed beam	!	!
16BBB-/LL	.	16D</LL	.	.
16BB-\	.	16F</	.	.
16BBB-/	.	16B-</	.	.
16BB-\	.	16d\JJ	.	.
16BBB-/	.	16f\LL	.	.
16BB-\	.	16b-\	.	.
16BBB-/	.	16dd\	.	.
16BB-\JJ	.	16ff\JJ	.	.
=437	=437	=437	=437	=437
16BBB-/LL	.	16bb-\LL	.	.
*	*	*8va	*	*
16BB-/	.	16ddd\	.	.
16BBB-/	.	16fff\	.	.
16BB-/	.	16bbb-\JJ	.	.
16BBB-/	.	16dddd\LL	.	.
16BB-/	.	16ddd\	.	.
16BBB-/	.	16fff\	.	.
16BB-/JJ	.	16dddd\JJ	.	.
*Xtremolo	*	*	*	*
=438	=438	=438	=438	=438
4BBB-'/	.	4ffff'\	.	.
*	*	*X8va	*	*
4r	.	4r	.	.
=439	=439	=439	=439	=439
4B- 4F 4D 4BB-\	.	4ddd 4bb- 4ff 4dd\	.	.
8.r	.	8.r	.	.
16BB- 16FF 16DD 16BBB-/	.	16b- 16f 16d 16B-/	.	.
=440	=440	=440	=440	=440
4BB- 4FF 4DD 4BBB-/	.	4b- 4f 4d 4B-/	.	.
4r;	.	4r;	.	.
*	*	*Xped	*	*
!LO:TX:a:i:t=Fin	!	!	!	!
==	==	==	==	==
*-	*-	*-	*-	*-
!!!system-decoration: {(*)}
!!!RDF**kern: > = above
!!!RDF**kern: < = below
!!!ENC: Anastazja Marusiak
!!!END: 2022-10-25
!!!EED: Andrzej Kubiczek
!!!EEV: 2023-06-17
!!!YEC: Copyright 2022 Narodowy Instytut Fryderyka Chopina (https://polishscores.org)
!!!YEM: License CC-BY-4.0 (https://creativecommons.org/licenses/by/4.0)
